Omar-H-Khedr/robotics_project/ros2_ws/install/experiment_manager/lib/python3.12/site-packages/results/baseline_trials/trial_20260514_191320/joint_states.csv
ros_time_sec,joint_1,joint_2,joint_3,joint_4,joint_5,joint_6
4.180000000,-0.000000000,-0.800000000,1.200000000,0.000000000,0.800000000,0.000000000
4.199000000,-0.000000000,-0.800000000,1.200000000,0.000000000,0.800000000,0.000000000
4.220000000,-0.000000000,-0.800000000,1.200000000,0.000000000,0.800000000,0.000000000
4.240000000,-0.000000000,-0.800000000,1.200000000,0.000000000,0.800000000,0.000000000
4.260000000,-0.000000000,-0.800000000,1.200000000,0.000000000,0.800000000,0.000000000
4.280000000,-0.000000000,-0.800000000,1.200000000,0.000000000,0.800000000,0.000000000
4.300000000,-0.000000000,-0.800000000,1.200000000,0.000000000,0.800000000,0.000000000
4.320000000,-0.000000000,-0.800000000,1.200000000,0.000000000,0.800000000,0.000000000
4.340000000,-0.000000000,-0.800000000,1.200000000,0.000000000,0.800000000,0.000000000
4.358000000,-0.000000000,-0.800000000,1.200000000,0.000000000,0.800000000,0.000000000
4.380000000,-0.000000000,-0.800000000,1.200000000,0.000000000,0.800000000,0.000000000
4.400000000,-0.000000000,-0.800000000,1.200000000,0.000000000,0.800000000,0.000000000
4.420000000,-0.000000000,-0.800000000,1.200000000,0.000000000,0.800000000,0.000000000
4.440000000,-0.000000000,-0.800000000,1.200000000,0.000000000,0.800000000,0.000000000
4.460000000,-0.000000000,-0.800000000,1.200000000,0.000000000,0.800000000,0.000000000
4.480000000,-0.000000000,-0.800000000,1.200000000,0.000000000,0.800000000,0.000000000
4.500000000,-0.000000000,-0.800000000,1.200000000,0.000000000,0.800000000,0.000000000
4.519000000,-0.000000000,-0.800000000,1.200000000,0.000000000,0.800000000,0.000000000
4.540000000,-0.000000000,-0.800000000,1.200000000,0.000000000,0.800000000,0.000000000
4.560000000,-0.000000000,-0.800000000,1.200000000,0.000000000,0.800000000,0.000000000
4.580000000,-0.000000000,-0.800000000,1.200000000,0.000000000,0.800000000,0.000000000
4.600000000,-0.000000000,-0.800000000,1.200000000,0.000000000,0.800000000,0.000000000
4.620000000,-0.000000000,-0.800000000,1.200000000,0.000000000,0.800000000,0.000000000
4.640000000,-0.000000000,-0.800000000,1.200000000,0.000000000,0.800000000,0.000000000
4.660000000,-0.000000000,-0.800000000,1.200000000,0.000000000,0.800000000,0.000000000
4.680000000,-0.000000000,-0.800000000,1.200000000,0.000000000,0.800000000,0.000000000
4.700000000,-0.000000000,-0.800000000,1.200000000,0.000000000,0.800000000,0.000000000
4.720000000,-0.000000000,-0.800000000,1.200000000,0.000000000,0.800000000,0.000000000
4.739000000,-0.000000000,-0.800000000,1.200000000,0.000000000,0.800000000,0.000000000
4.760000000,-0.000000000,-0.800000000,1.200000000,0.000000000,0.800000000,0.000000000
4.780000000,-0.000000000,-0.800000000,1.200000000,0.000000000,0.800000000,0.000000000
4.800000000,-0.000000000,-0.800000000,1.200000000,0.000000000,0.800000000,0.000000000
4.820000000,-0.000000000,-0.800000000,1.200000000,0.000000000,0.800000000,0.000000000
4.840000000,-0.000000000,-0.800000000,1.200000000,0.000000000,0.800000000,0.000000000
4.860000000,-0.000000000,-0.800000000,1.200000000,0.000000000,0.800000000,0.000000000
4.880000000,-0.000000000,-0.800000000,1.200000000,0.000000000,0.800000000,0.000000000
4.900000000,-0.000000000,-0.800000000,1.200000000,0.000000000,0.800000000,0.000000000
4.920000000,-0.000000000,-0.800000000,1.200000000,0.000000000,0.800000000,0.000000000
4.940000000,-0.000000000,-0.800000000,1.200000000,0.000000000,0.800000000,0.000000000
4.960000000,-0.000000000,-0.800000000,1.200000000,0.000000000,0.800000000,0.000000000
4.980000000,-0.000000000,-0.800000000,1.200000000,0.000000000,0.800000000,0.000000000
5.000000000,-0.000000000,-0.800000000,1.200000000,0.000000000,0.800000000,0.000000000
5.020000000,-0.000000000,-0.800000000,1.200000000,0.000000000,0.800000000,0.000000000
5.040000000,-0.000000000,-0.800000000,1.200000000,0.000000000,0.800000000,0.000000000
5.060000000,-0.000000000,-0.800000000,1.200000000,0.000000000,0.800000000,0.000000000
5.080000000,-0.000000000,-0.800000000,1.200000000,0.000000000,0.800000000,0.000000000
5.100000000,-0.000000000,-0.800000000,1.200000000,0.000000000,0.800000000,0.000000000
5.120000000,-0.000000000,-0.800000000,1.200000000,0.000000000,0.800000000,0.000000000
5.140000000,-0.000000000,-0.800000000,1.200000000,0.000000000,0.800000000,0.000000000
5.160000000,-0.000000000,-0.800000000,1.200000000,0.000000000,0.800000000,0.000000000
5.180000000,-0.000000000,-0.800000000,1.200000000,0.000000000,0.800000000,0.000000000
5.200000000,-0.000000000,-0.800000000,1.200000000,0.000000000,0.800000000,0.000000000
5.220000000,-0.000000000,-0.800000000,1.200000000,0.000000000,0.800000000,0.000000000
5.240000000,-0.000000000,-0.800000000,1.200000000,0.000000000,0.800000000,0.000000000
5.260000000,-0.000000000,-0.800000000,1.200000000,0.000000000,0.800000000,0.000000000
5.280000000,-0.000000000,-0.800000000,1.200000000,0.000000000,0.800000000,0.000000000
5.300000000,-0.000000000,-0.800000000,1.200000000,0.000000000,0.800000000,0.000000000
5.320000000,-0.000000000,-0.800000000,1.200000000,0.000000000,0.800000000,0.000000000
5.340000000,-0.000000000,-0.800000000,1.200000000,0.000000000,0.800000000,0.000000000
5.360000000,-0.000000000,-0.800000000,1.200000000,0.000000000,0.800000000,0.000000000
5.380000000,-0.000000000,-0.800000000,1.200000000,0.000000000,0.800000000,0.000000000
5.400000000,-0.000000000,-0.800000000,1.200000000,0.000000000,0.800000000,0.000000000
5.420000000,-0.000000000,-0.800000000,1.200000000,0.000000000,0.800000000,0.000000000
5.440000000,-0.000000000,-0.800000000,1.200000000,0.000000000,0.800000000,0.000000000
5.460000000,-0.000000000,-0.800000000,1.200000000,0.000000000,0.800000000,0.000000000
5.480000000,-0.000000000,-0.800000000,1.200000000,0.000000000,0.800000000,0.000000000
5.500000000,-0.000000000,-0.800000000,1.200000000,0.000000000,0.800000000,0.000000000
5.520000000,-0.000000000,-0.800000000,1.200000000,0.000000000,0.800000000,0.000000000
5.540000000,-0.000000000,-0.800000000,1.200000000,0.000000000,0.800000000,0.000000000
5.560000000,-0.000000000,-0.800000000,1.200000000,0.000000000,0.800000000,0.000000000
5.580000000,-0.000000000,-0.800000000,1.200000000,0.000000000,0.800000000,0.000000000
5.600000000,-0.000000000,-0.800000000,1.200000000,0.000000000,0.800000000,0.000000000
5.620000000,-0.000000000,-0.800000000,1.200000000,0.000000000,0.800000000,0.000000000
5.640000000,-0.000000000,-0.800000000,1.200000000,0.000000000,0.800000000,0.000000000
5.660000000,-0.000000000,-0.800000000,1.200000000,0.000000000,0.800000000,0.000000000
5.680000000,-0.000000000,-0.800000000,1.200000000,0.000000000,0.800000000,0.000000000
5.700000000,-0.000000000,-0.800000000,1.200000000,0.000000000,0.800000000,0.000000000
5.720000000,-0.000000000,-0.800000000,1.200000000,0.000000000,0.800000000,0.000000000
5.740000000,-0.000000000,-0.800000000,1.200000000,0.000000000,0.800000000,0.000000000
5.760000000,-0.000000000,-0.800000000,1.200000000,0.000000000,0.800000000,0.000000000
5.780000000,-0.000000000,-0.800000000,1.200000000,0.000000000,0.800000000,0.000000000
5.800000000,-0.000000000,-0.800000000,1.200000000,0.000000000,0.800000000,0.000000000
5.820000000,-0.000000000,-0.800000000,1.200000000,0.000000000,0.800000000,0.000000000
5.840000000,-0.000000000,-0.800000000,1.200000000,0.000000000,0.800000000,0.000000000
5.860000000,-0.000000000,-0.800000000,1.200000000,0.000000000,0.800000000,0.000000000
5.880000000,-0.000000000,-0.800000000,1.200000000,0.000000000,0.800000000,0.000000000
5.900000000,-0.000000000,-0.800000000,1.200000000,0.000000000,0.800000000,0.000000000
5.920000000,-0.000000000,-0.800000000,1.200000000,0.000000000,0.800000000,0.000000000
5.940000000,-0.000000000,-0.800000000,1.200000000,0.000000000,0.800000000,0.000000000
5.960000000,-0.000000000,-0.800000000,1.200000000,0.000000000,0.800000000,0.000000000
5.980000000,-0.000000000,-0.800000000,1.200000000,0.000000000,0.800000000,0.000000000
6.000000000,-0.000000000,-0.800000000,1.200000000,0.000000000,0.800000000,0.000000000
6.020000000,-0.000000000,-0.800000000,1.200000000,0.000000000,0.800000000,0.000000000
6.040000000,-0.000000000,-0.800000000,1.200000000,0.000000000,0.800000000,0.000000000
6.060000000,-0.000000000,-0.800000000,1.200000000,0.000000000,0.800000000,0.000000000
6.080000000,-0.000000000,-0.800000000,1.200000000,0.000000000,0.800000000,0.000000000
6.100000000,-0.000000000,-0.800000000,1.200000000,0.000000000,0.800000000,0.000000000
6.120000000,-0.000000000,-0.800000000,1.200000000,0.000000000,0.800000000,0.000000000
6.140000000,-0.000000000,-0.800000000,1.200000000,0.000000000,0.800000000,0.000000000
6.160000000,-0.000000000,-0.800000000,1.200000000,0.000000000,0.800000000,0.000000000
6.179000000,-0.000000000,-0.800000000,1.200000000,0.000000000,0.800000000,0.000000000
6.200000000,-0.000000000,-0.800000000,1.200000000,0.000000000,0.800000000,0.000000000
6.220000000,-0.000000000,-0.800000000,1.200000000,0.000000000,0.800000000,0.000000000
6.240000000,-0.000000000,-0.800000000,1.200000000,0.000000000,0.800000000,0.000000000
6.260000000,-0.000000000,-0.800000000,1.200000000,0.000000000,0.800000000,0.000000000
6.280000000,-0.000000000,-0.800000000,1.200000000,0.000000000,0.800000000,0.000000000
6.300000000,-0.000000000,-0.800000000,1.200000000,0.000000000,0.800000000,0.000000000
6.320000000,-0.000000000,-0.800000000,1.200000000,0.000000000,0.800000000,0.000000000
6.340000000,-0.000000000,-0.800000000,1.200000000,0.000000000,0.800000000,0.000000000
6.360000000,-0.000000000,-0.800000000,1.200000000,0.000000000,0.800000000,0.000000000
6.380000000,-0.000000000,-0.800000000,1.200000000,0.000000000,0.800000000,0.000000000
6.399000000,-0.000000000,-0.800000000,1.200000000,0.000000000,0.800000000,0.000000000
6.420000000,-0.000000000,-0.800000000,1.200000000,0.000000000,0.800000000,0.000000000
6.440000000,-0.000000000,-0.800000000,1.200000000,0.000000000,0.800000000,0.000000000
6.460000000,-0.000000000,-0.800000000,1.200000000,0.000000000,0.800000000,0.000000000
6.480000000,-0.000000000,-0.800000000,1.200000000,0.000000000,0.800000000,0.000000000
6.500000000,-0.000000000,-0.800000000,1.200000000,0.000000000,0.800000000,0.000000000
6.520000000,-0.000000000,-0.800000000,1.200000000,0.000000000,0.800000000,0.000000000
6.540000000,-0.000000000,-0.800000000,1.200000000,0.000000000,0.800000000,0.000000000
6.560000000,-0.000000000,-0.800000000,1.200000000,0.000000000,0.800000000,0.000000000
6.580000000,-0.000000000,-0.800000000,1.200000000,0.000000000,0.800000000,0.000000000
6.600000000,-0.000000000,-0.800000000,1.200000000,0.000000000,0.800000000,0.000000000
6.620000000,-0.000000000,-0.800000000,1.200000000,0.000000000,0.800000000,0.000000000
6.640000000,-0.000000000,-0.800000000,1.200000000,0.000000000,0.800000000,0.000000000
6.660000000,-0.000000000,-0.800000000,1.200000000,0.000000000,0.800000000,0.000000000
6.680000000,-0.000000000,-0.800000000,1.200000000,0.000000000,0.800000000,0.000000000
6.700000000,-0.000000000,-0.800000000,1.200000000,0.000000000,0.800000000,0.000000000
6.720000000,-0.000000000,-0.800000000,1.200000000,0.000000000,0.800000000,0.000000000
6.740000000,-0.000000000,-0.800000000,1.200000000,0.000000000,0.800000000,0.000000000
6.760000000,-0.000000000,-0.800000000,1.200000000,0.000000000,0.800000000,0.000000000
6.780000000,-0.000000000,-0.800000000,1.200000000,0.000000000,0.800000000,0.000000000
6.800000000,-0.000000000,-0.800000000,1.200000000,0.000000000,0.800000000,0.000000000
6.820000000,-0.000000000,-0.800000000,1.200000000,0.000000000,0.800000000,0.000000000
6.840000000,-0.000000000,-0.800000000,1.200000000,0.000000000,0.800000000,0.000000000
6.859000000,-0.000000000,-0.800000000,1.200000000,0.000000000,0.800000000,0.000000000
6.880000000,-0.000000000,-0.800000000,1.200000000,0.000000000,0.800000000,0.000000000
6.900000000,-0.000000000,-0.800000000,1.200000000,0.000000000,0.800000000,0.000000000
6.920000000,-0.000000000,-0.800000000,1.200000000,0.000000000,0.800000000,0.000000000
6.940000000,-0.000000000,-0.800000000,1.200000000,0.000000000,0.800000000,0.000000000
6.956000000,-0.000000000,-0.800000000,1.200000000,0.000000000,0.800000000,0.000000000
6.980000000,-0.000000000,-0.800000000,1.200000000,0.000000000,0.800000000,0.000000000
7.000000000,-0.000000000,-0.800000000,1.200000000,0.000000000,0.800000000,0.000000000
7.020000000,-0.000000000,-0.800000000,1.200000000,0.000000000,0.800000000,0.000000000
7.040000000,-0.000000000,-0.800000000,1.200000000,0.000000000,0.800000000,0.000000000
7.060000000,-0.000000000,-0.800000000,1.200000000,0.000000000,0.800000000,0.000000000
7.080000000,-0.000000000,-0.800000000,1.200000000,0.000000000,0.800000000,0.000000000
7.100000000,-0.000000000,-0.800000000,1.200000000,0.000000000,0.800000000,0.000000000
7.120000000,-0.000000000,-0.800000000,1.200000000,0.000000000,0.800000000,0.000000000
7.140000000,-0.000000000,-0.800000000,1.200000000,0.000000000,0.800000000,0.000000000
7.160000000,-0.000000000,-0.800000000,1.200000000,0.000000000,0.800000000,0.000000000
7.180000000,-0.000000000,-0.800000000,1.200000000,0.000000000,0.800000000,0.000000000
7.200000000,-0.000000000,-0.800000000,1.200000000,0.000000000,0.800000000,0.000000000
7.220000000,-0.000000000,-0.800000000,1.200000000,0.000000000,0.800000000,0.000000000
7.240000000,-0.000000000,-0.800000000,1.200000000,0.000000000,0.800000000,0.000000000
7.260000000,-0.000000000,-0.800000000,1.200000000,0.000000000,0.800000000,0.000000000
7.280000000,-0.000000000,-0.800000000,1.200000000,0.000000000,0.800000000,0.000000000
7.300000000,-0.000000000,-0.800000000,1.200000000,0.000000000,0.800000000,0.000000000
7.320000000,-0.000000000,-0.800000000,1.200000000,0.000000000,0.800000000,0.000000000
7.340000000,-0.000000000,-0.800000000,1.200000000,0.000000000,0.800000000,0.000000000
7.360000000,-0.000000000,-0.800000000,1.200000000,0.000000000,0.800000000,0.000000000
7.380000000,-0.000000000,-0.800000000,1.200000000,0.000000000,0.800000000,0.000000000
7.400000000,-0.000000000,-0.800000000,1.200000000,0.000000000,0.800000000,0.000000000
7.420000000,-0.000000000,-0.800000000,1.200000000,0.000000000,0.800000000,0.000000000
7.440000000,-0.000000000,-0.800000000,1.200000000,0.000000000,0.800000000,0.000000000
7.460000000,-0.000000000,-0.800000000,1.200000000,0.000000000,0.800000000,0.000000000
7.480000000,-0.000000000,-0.800000000,1.200000000,0.000000000,0.800000000,0.000000000
7.500000000,-0.000000000,-0.800000000,1.200000000,0.000000000,0.800000000,0.000000000
7.520000000,-0.000000000,-0.800000000,1.200000000,0.000000000,0.800000000,0.000000000
7.540000000,-0.000000000,-0.800000000,1.200000000,0.000000000,0.800000000,0.000000000
7.560000000,-0.000000000,-0.800000000,1.200000000,0.000000000,0.800000000,0.000000000
7.580000000,-0.000000000,-0.800000000,1.200000000,0.000000000,0.800000000,0.000000000
7.600000000,-0.000000000,-0.800000000,1.200000000,0.000000000,0.800000000,0.000000000
7.620000000,-0.000000000,-0.800000000,1.200000000,0.000000000,0.800000000,0.000000000
7.640000000,-0.000000000,-0.800000000,1.200000000,0.000000000,0.800000000,0.000000000
7.660000000,-0.000000000,-0.800000000,1.200000000,0.000000000,0.800000000,0.000000000
7.680000000,-0.000000000,-0.800000000,1.200000000,0.000000000,0.800000000,0.000000000
7.700000000,-0.000000000,-0.800000000,1.200000000,0.000000000,0.800000000,0.000000000
7.720000000,-0.000000000,-0.800000000,1.200000000,0.000000000,0.800000000,0.000000000
7.740000000,-0.000000000,-0.800000000,1.200000000,0.000000000,0.800000000,0.000000000
7.760000000,-0.000000000,-0.800000000,1.200000000,0.000000000,0.800000000,0.000000000
7.780000000,-0.000000000,-0.800000000,1.200000000,0.000000000,0.800000000,0.000000000
7.799000000,-0.000000000,-0.800000000,1.200000000,0.000000000,0.800000000,0.000000000
7.820000000,-0.000000000,-0.800000000,1.200000000,0.000000000,0.800000000,0.000000000
7.840000000,-0.000000000,-0.800000000,1.200000000,0.000000000,0.800000000,0.000000000
7.860000000,-0.000000000,-0.800000000,1.200000000,0.000000000,0.800000000,0.000000000
7.880000000,-0.000000000,-0.800000000,1.200000000,0.000000000,0.800000000,0.000000000
7.900000000,-0.000000000,-0.800000000,1.200000000,0.000000000,0.800000000,0.000000000
7.920000000,-0.000000000,-0.800000000,1.200000000,0.000000000,0.800000000,0.000000000
7.940000000,-0.000000000,-0.800000000,1.200000000,0.000000000,0.800000000,0.000000000
7.960000000,-0.000000000,-0.800000000,1.200000000,0.000000000,0.800000000,0.000000000
7.980000000,-0.000000000,-0.800000000,1.200000000,0.000000000,0.800000000,0.000000000
8.000000000,-0.000000000,-0.800000000,1.200000000,0.000000000,0.800000000,0.000000000
8.020000000,-0.000000000,-0.800000000,1.200000000,0.000000000,0.800000000,0.000000000
8.040000000,-0.000000000,-0.800000000,1.200000000,0.000000000,0.800000000,0.000000000
8.060000000,-0.000000000,-0.800000000,1.200000000,0.000000000,0.800000000,0.000000000
8.080000000,-0.000000000,-0.800000000,1.200000000,0.000000000,0.800000000,0.000000000
8.100000000,-0.000000000,-0.800000000,1.200000000,0.000000000,0.800000000,0.000000000
8.120000000,-0.000000000,-0.800000000,1.200000000,0.000000000,0.800000000,0.000000000
8.140000000,-0.000000000,-0.800000000,1.200000000,0.000000000,0.800000000,0.000000000
8.160000000,-0.000000000,-0.800000000,1.200000000,0.000000000,0.800000000,0.000000000
8.180000000,-0.000000000,-0.800000000,1.200000000,0.000000000,0.800000000,0.000000000
8.200000000,-0.000000000,-0.800000000,1.200000000,0.000000000,0.800000000,0.000000000
8.220000000,-0.000000000,-0.800000000,1.200000000,0.000000000,0.800000000,0.000000000
8.240000000,-0.000000000,-0.800000000,1.200000000,0.000000000,0.800000000,0.000000000
8.260000000,-0.000000000,-0.800000000,1.200000000,0.000000000,0.800000000,0.000000000
8.280000000,-0.000000000,-0.800000000,1.200000000,0.000000000,0.800000000,0.000000000
8.299000000,-0.000000000,-0.800000000,1.200000000,0.000000000,0.800000000,0.000000000
8.320000000,-0.000000000,-0.800000000,1.200000000,0.000000000,0.800000000,0.000000000
8.340000000,-0.000000000,-0.800000000,1.200000000,0.000000000,0.800000000,0.000000000
8.360000000,-0.000000000,-0.800000000,1.200000000,0.000000000,0.800000000,0.000000000
8.380000000,-0.000000000,-0.800000000,1.200000000,0.000000000,0.800000000,0.000000000
8.400000000,-0.000000000,-0.800000000,1.200000000,0.000000000,0.800000000,0.000000000
8.420000000,-0.000000000,-0.800000000,1.200000000,0.000000000,0.800000000,0.000000000
8.440000000,-0.000000000,-0.800000000,1.200000000,0.000000000,0.800000000,0.000000000
8.460000000,-0.000000000,-0.800000000,1.200000000,0.000000000,0.800000000,0.000000000
8.480000000,-0.000000000,-0.800000000,1.200000000,0.000000000,0.800000000,0.000000000
8.500000000,-0.000000000,-0.800000000,1.200000000,0.000000000,0.800000000,0.000000000
8.520000000,-0.000000000,-0.800000000,1.200000000,0.000000000,0.800000000,0.000000000
8.540000000,-0.000000000,-0.800000000,1.200000000,0.000000000,0.800000000,0.000000000
8.560000000,-0.000000000,-0.800000000,1.200000000,0.000000000,0.800000000,0.000000000
8.580000000,-0.000000000,-0.800000000,1.200000000,0.000000000,0.800000000,0.000000000
8.600000000,-0.000000000,-0.800000000,1.200000000,0.000000000,0.800000000,0.000000000
8.620000000,-0.000000000,-0.800000000,1.200000000,0.000000000,0.800000000,0.000000000
8.640000000,-0.000000000,-0.800000000,1.200000000,0.000000000,0.800000000,0.000000000
8.660000000,-0.000000000,-0.800000000,1.200000000,0.000000000,0.800000000,0.000000000
8.680000000,-0.000000000,-0.800000000,1.200000000,0.000000000,0.800000000,0.000000000
8.700000000,-0.000000000,-0.800000000,1.200000000,0.000000000,0.800000000,0.000000000
8.719000000,-0.000000000,-0.800000000,1.200000000,0.000000000,0.800000000,0.000000000
8.740000000,-0.000000000,-0.800000000,1.200000000,0.000000000,0.800000000,0.000000000
8.760000000,-0.000000000,-0.800000000,1.200000000,0.000000000,0.800000000,0.000000000
8.780000000,-0.000000000,-0.800000000,1.200000000,0.000000000,0.800000000,0.000000000
8.800000000,-0.000000000,-0.800000000,1.200000000,0.000000000,0.800000000,0.000000000
8.820000000,-0.000000000,-0.800000000,1.200000000,0.000000000,0.800000000,0.000000000
8.840000000,-0.000000000,-0.800000000,1.200000000,0.000000000,0.800000000,0.000000000
8.860000000,-0.000000000,-0.800000000,1.200000000,0.000000000,0.800000000,0.000000000
8.880000000,-0.000000000,-0.800000000,1.200000000,0.000000000,0.800000000,0.000000000
8.900000000,-0.000000000,-0.800000000,1.200000000,0.000000000,0.800000000,0.000000000
8.920000000,-0.000000000,-0.800000000,1.200000000,0.000000000,0.800000000,0.000000000
8.940000000,0.000166667,-0.800000000,1.200000000,0.000000000,0.800000000,0.000000000
8.960000000,0.000483333,-0.800000000,1.200000000,0.000000000,0.800000000,0.000000000
8.980000000,0.000935000,-0.800000000,1.200000000,0.000000000,0.800000000,0.000000000
9.000000000,0.001508167,-0.800000000,1.200000000,0.000000000,0.800000000,0.000000000
9.020000000,0.002190683,-0.800000000,1.200000000,0.000000000,0.800000000,0.000000000
9.040000000,0.002971615,-0.800000000,1.200000000,0.000000000,0.800000000,0.000000000
9.060000000,0.003841120,-0.800000000,1.200000000,0.000000000,0.800000000,0.000000000
9.079000000,0.004790341,-0.800000000,1.200000000,0.000000000,0.800000000,0.000000000
9.100000000,0.005802974,-0.800000000,1.200000000,0.000000000,0.800000000,0.000000000
9.120000000,0.006889343,-0.800000000,1.200000000,0.000000000,0.800000000,0.000000000
9.140000000,0.008033742,-0.800000000,1.200000000,0.000000000,0.800000000,0.000000000
9.160000000,0.009230368,-0.800000000,1.200000000,0.000000000,0.800000000,0.000000000
9.180000000,0.010473998,-0.800000000,1.200000000,0.000000000,0.800000000,0.000000000
9.200000000,0.011759931,-0.800000000,1.200000000,0.000000000,0.800000000,0.000000000
9.220000000,0.013083938,-0.800000000,1.200000000,0.000000000,0.800000000,0.000000000
9.240000000,0.014442211,-0.800000000,1.200000000,0.000000000,0.800000000,0.000000000
9.260000000,0.015831323,-0.800000000,1.200000000,0.000000000,0.800000000,0.000000000
9.280000000,0.017248191,-0.800000000,1.200000000,0.000000000,0.800000000,0.000000000
9.300000000,0.018690039,-0.800000000,1.200000000,0.000000000,0.800000000,0.000000000
9.320000000,0.020154368,-0.800000000,1.200000000,0.000000000,0.800000000,0.000000000
9.340000000,0.021638931,-0.800000000,1.200000000,0.000000000,0.800000000,0.000000000
9.360000000,0.023141705,-0.800000000,1.200000000,0.000000000,0.800000000,0.000000000
9.380000000,0.024660868,-0.800000000,1.200000000,0.000000000,0.800000000,0.000000000
9.400000000,0.026194781,-0.800000000,1.200000000,0.000000000,0.800000000,0.000000000
9.420000000,0.027741969,-0.800000000,1.200000000,0.000000000,0.800000000,0.000000000
9.440000000,0.029301106,-0.800000000,1.200000000,0.000000000,0.800000000,0.000000000
9.460000000,0.030870995,-0.800000000,1.200000000,0.000000000,0.800000000,0.000000000
9.480000000,0.032450562,-0.800000000,1.200000000,0.000000000,0.800000000,0.000000000
9.500000000,0.034038839,-0.800000000,1.200000000,0.000000000,0.800000000,0.000000000
9.520000000,0.035634956,-0.800000000,1.200000000,0.000000000,0.800000000,0.000000000
9.540000000,0.037238127,-0.800000000,1.200000000,0.000000000,0.800000000,0.000000000
9.560000000,0.038847647,-0.800000000,1.200000000,0.000000000,0.800000000,0.000000000
9.580000000,0.040462883,-0.800000000,1.200000000,0.000000000,0.800000000,0.000000000
9.600000000,0.042083261,-0.800000000,1.200000000,0.000000000,0.800000000,0.000000000
9.620000000,0.043708268,-0.800000000,1.200000000,0.000000000,0.800000000,0.000000000
9.640000000,0.045337441,-0.800000000,1.200000000,0.000000000,0.800000000,0.000000000
9.660000000,0.046970364,-0.800000000,1.200000000,0.000000000,0.800000000,0.000000000
9.680000000,0.048606661,-0.800000000,1.200000000,0.000000000,0.800000000,0.000000000
9.700000000,0.050245995,-0.800000000,1.200000000,0.000000000,0.800000000,0.000000000
9.719000000,0.051888062,-0.800000000,1.200000000,0.000000000,0.800000000,0.000000000
9.739000000,0.053524256,-0.800000000,1.200000000,0.000000000,0.800000000,0.000000000
9.760000000,0.055163497,-0.800000000,1.200000000,0.000000000,0.800000000,0.000000000
9.780000000,0.056813814,-0.800000000,1.200000000,0.000000000,0.800000000,0.000000000
9.800000000,0.058465766,-0.800000000,1.200000000,0.000000000,0.800000000,0.000000000
9.820000000,0.060119189,-0.800000000,1.200000000,0.000000000,0.800000000,0.000000000
9.840000000,0.061773937,-0.800000000,1.200000000,0.000000000,0.800000000,0.000000000
9.860000000,0.063429877,-0.800000000,1.200000000,0.000000000,0.800000000,0.000000000
9.880000000,0.065086889,-0.800000000,1.200000000,0.000000000,0.800000000,0.000000000
9.900000000,0.066744867,-0.800000000,1.200000000,0.000000000,0.800000000,0.000000000
9.920000000,0.068403713,-0.800000000,1.200000000,0.000000000,0.800000000,0.000000000
9.940000000,0.070063342,-0.800000000,1.200000000,0.000000000,0.800000000,0.000000000
9.960000000,0.071723674,-0.800000000,1.200000000,0.000000000,0.800000000,0.000000000
9.980000000,0.073384640,-0.800000000,1.200000000,0.000000000,0.800000000,0.000000000
10.000000000,0.075046176,-0.800000000,1.200000000,0.000000000,0.800000000,0.000000000
10.020000000,0.076708225,-0.800000000,1.200000000,0.000000000,0.800000000,0.000000000
10.040000000,0.078370736,-0.800000000,1.200000000,0.000000000,0.800000000,0.000000000
10.060000000,0.080033663,-0.800000000,1.200000000,0.000000000,0.800000000,0.000000000
10.080000000,0.081696963,-0.800000000,1.200000000,0.000000000,0.800000000,0.000000000
10.100000000,0.083360600,-0.800000000,1.200000000,0.000000000,0.800000000,0.000000000
10.120000000,0.085024540,-0.800000000,1.200000000,0.000000000,0.800000000,0.000000000
10.140000000,0.086688753,-0.800000000,1.200000000,0.000000000,0.800000000,0.000000000
10.160000000,0.088353211,-0.800000000,1.200000000,0.000000000,0.800000000,0.000000000
10.180000000,0.090017890,-0.800000000,1.200000000,0.000000000,0.800000000,0.000000000
10.200000000,0.091682767,-0.800000000,1.200000000,0.000000000,0.800000000,0.000000000
10.220000000,0.093347824,-0.800000000,1.200000000,0.000000000,0.800000000,0.000000000
10.240000000,0.095013042,-0.800000000,1.200000000,0.000000000,0.800000000,0.000000000
10.260000000,0.096678404,-0.800000000,1.200000000,0.000000000,0.800000000,0.000000000
10.280000000,0.098343897,-0.800000000,1.200000000,0.000000000,0.800000000,0.000000000
10.300000000,0.100009507,-0.800000000,1.200000000,0.000000000,0.800000000,0.000000000
10.318000000,0.101675223,-0.800000000,1.200000000,0.000000000,0.800000000,0.000000000
10.340000000,0.103324368,-0.800000000,1.200000000,0.000000000,0.800000000,0.000000000
10.360000000,0.104991931,-0.800000000,1.200000000,0.000000000,0.800000000,0.000000000
10.380000000,0.106659404,-0.800000000,1.200000000,0.000000000,0.800000000,0.000000000
10.400000000,0.108326797,-0.800000000,1.200000000,0.000000000,0.800000000,0.000000000
10.420000000,0.109994118,-0.800000000,1.200000000,0.000000000,0.800000000,0.000000000
10.440000000,0.111661372,-0.800000000,1.200000000,0.000000000,0.800000000,0.000000000
10.460000000,0.113328569,-0.800000000,1.200000000,0.000000000,0.800000000,0.000000000
10.480000000,0.114995712,-0.800000000,1.200000000,0.000000000,0.800000000,0.000000000
10.500000000,0.116662807,-0.800000000,1.200000000,0.000000000,0.800000000,0.000000000
10.520000000,0.118329860,-0.800000000,1.200000000,0.000000000,0.800000000,0.000000000
10.540000000,0.119996874,-0.800000000,1.200000000,0.000000000,0.800000000,0.000000000
10.560000000,0.121663853,-0.800000000,1.200000000,0.000000000,0.800000000,0.000000000
10.580000000,0.123330801,-0.800000000,1.200000000,0.000000000,0.800000000,0.000000000
10.600000000,0.124997721,-0.800000000,1.200000000,0.000000000,0.800000000,0.000000000
10.620000000,0.126664616,-0.800000000,1.200000000,0.000000000,0.800000000,0.000000000
10.640000000,0.128331487,-0.800000000,1.200000000,0.000000000,0.800000000,0.000000000
10.660000000,0.129998339,-0.800000000,1.200000000,0.000000000,0.800000000,0.000000000
10.680000000,0.131665171,-0.800000000,1.200000000,0.000000000,0.800000000,0.000000000
10.700000000,0.133331988,-0.800000000,1.200000000,0.000000000,0.800000000,0.000000000
10.720000000,0.134998789,-0.800000000,1.200000000,0.000000000,0.800000000,0.000000000
10.740000000,0.136665577,-0.800000000,1.200000000,0.000000000,0.800000000,0.000000000
10.760000000,0.138332352,-0.800000000,1.200000000,0.000000000,0.800000000,0.000000000
10.780000000,0.139999117,-0.800000000,1.200000000,0.000000000,0.800000000,0.000000000
10.800000000,0.141665872,-0.800000000,1.200000000,0.000000000,0.800000000,0.000000000
10.820000000,0.143332618,-0.800000000,1.200000000,0.000000000,0.800000000,0.000000000
10.840000000,0.144999356,-0.800000000,1.200000000,0.000000000,0.800000000,0.000000000
10.860000000,0.146666087,-0.800000000,1.200000000,0.000000000,0.800000000,0.000000000
10.879000000,0.148332812,-0.800000000,1.200000000,0.000000000,0.800000000,0.000000000
10.900000000,0.149991197,-0.800000000,1.200000000,0.000000000,0.800000000,0.000000000
10.920000000,0.151658744,-0.800000000,1.200000000,0.000000000,0.800000000,0.000000000
10.940000000,0.153326203,-0.800000000,1.200000000,0.000000000,0.800000000,0.000000000
10.959000000,0.154993583,-0.800000000,1.200000000,0.000000000,0.800000000,0.000000000
10.980000000,0.156652558,-0.800000000,1.200000000,0.000000000,0.800000000,0.000000000
11.000000000,0.158320636,-0.800000000,1.200000000,0.000000000,0.800000000,0.000000000
11.020000000,0.159988572,-0.800000000,1.200000000,0.000000000,0.800000000,0.000000000
11.040000000,0.161656381,-0.800000000,1.200000000,0.000000000,0.800000000,0.000000000
11.059000000,0.163324077,-0.800000000,1.200000000,0.000000000,0.800000000,0.000000000
11.080000000,0.164983336,-0.800000000,1.200000000,0.000000000,0.800000000,0.000000000
11.100000000,0.166651669,-0.800000000,1.200000000,0.000000000,0.800000000,0.000000000
11.120000000,0.168319835,-0.800000000,1.200000000,0.000000000,0.800000000,0.000000000
11.140000000,0.169987852,-0.800000000,1.200000000,0.000000000,0.800000000,0.000000000
11.160000000,0.171655733,-0.800000000,1.200000000,0.000000000,0.800000000,0.000000000
11.180000000,0.173323493,-0.800000000,1.200000000,0.000000000,0.800000000,0.000000000
11.200000000,0.174991144,-0.800000000,1.200000000,0.000000000,0.800000000,0.000000000
11.220000000,0.176658696,-0.800000000,1.200000000,0.000000000,0.800000000,0.000000000
11.240000000,0.178326160,-0.800000000,1.200000000,0.000000000,0.800000000,0.000000000
11.260000000,0.179993544,-0.800000000,1.200000000,0.000000000,0.800000000,0.000000000
11.280000000,0.181660856,-0.800000000,1.200000000,0.000000000,0.800000000,0.000000000
11.300000000,0.183328104,-0.800000000,1.200000000,0.000000000,0.800000000,0.000000000
11.320000000,0.184995293,-0.800000000,1.200000000,0.000000000,0.800000000,0.000000000
11.340000000,0.186662431,-0.800000000,1.200000000,0.000000000,0.800000000,0.000000000
11.360000000,0.188329521,-0.800000000,1.200000000,0.000000000,0.800000000,0.000000000
11.380000000,0.189996569,-0.800000000,1.200000000,0.000000000,0.800000000,0.000000000
11.400000000,0.191663579,-0.800000000,1.200000000,0.000000000,0.800000000,0.000000000
11.420000000,0.193330554,-0.800000000,1.200000000,0.000000000,0.800000000,0.000000000
11.440000000,0.194997499,-0.800000000,1.200000000,0.000000000,0.800000000,0.000000000
11.459000000,0.196664416,-0.800000000,1.200000000,0.000000000,0.800000000,0.000000000
11.480000000,0.198322974,-0.800000000,1.200000000,0.000000000,0.800000000,0.000000000
11.500000000,0.199990677,-0.800000000,1.200000000,0.000000000,0.800000000,0.000000000
11.518000000,0.201658276,-0.800000000,1.200000000,0.000000000,0.800000000,0.000000000
11.540000000,0.203309115,-0.800000000,1.200000000,0.000000000,0.800000000,0.000000000
11.560000000,0.204978203,-0.800000000,1.200000000,0.000000000,0.800000000,0.000000000
11.579000000,0.206647050,-0.800000000,1.200000000,0.000000000,0.800000000,0.000000000
11.600000000,0.208307345,-0.800000000,1.200000000,0.000000000,0.800000000,0.000000000
11.620000000,0.209976610,-0.800000000,1.200000000,0.000000000,0.800000000,0.000000000
11.640000000,0.211645616,-0.800000000,1.200000000,0.000000000,0.800000000,0.000000000
11.660000000,0.213314388,-0.800000000,1.200000000,0.000000000,0.800000000,0.000000000
11.680000000,0.214982949,-0.800000000,1.200000000,0.000000000,0.800000000,0.000000000
11.700000000,0.216651321,-0.800000000,1.200000000,0.000000000,0.800000000,0.000000000
11.720000000,0.218319522,-0.800000000,1.200000000,0.000000000,0.800000000,0.000000000
11.740000000,0.219987570,-0.800000000,1.200000000,0.000000000,0.800000000,0.000000000
11.760000000,0.221655479,-0.800000000,1.200000000,0.000000000,0.800000000,0.000000000
11.780000000,0.223323265,-0.800000000,1.200000000,0.000000000,0.800000000,0.000000000
11.800000000,0.224990938,-0.800000000,1.200000000,0.000000000,0.800000000,0.000000000
11.820000000,0.226658511,-0.800000000,1.200000000,0.000000000,0.800000000,0.000000000
11.840000000,0.228325993,-0.800000000,1.200000000,0.000000000,0.800000000,0.000000000
11.860000000,0.229993394,-0.800000000,1.200000000,0.000000000,0.800000000,0.000000000
11.880000000,0.231660721,-0.800000000,1.200000000,0.000000000,0.800000000,0.000000000
11.900000000,0.233327982,-0.800000000,1.200000000,0.000000000,0.800000000,0.000000000
11.920000000,0.234995184,-0.800000000,1.200000000,0.000000000,0.800000000,0.000000000
11.940000000,0.236662332,-0.800000000,1.200000000,0.000000000,0.800000000,0.000000000
11.960000000,0.238329433,-0.800000000,1.200000000,0.000000000,0.800000000,0.000000000
11.980000000,0.239996489,-0.800000000,1.200000000,0.000000000,0.800000000,0.000000000
12.000000000,0.241663507,-0.800000000,1.200000000,0.000000000,0.800000000,0.000000000
12.020000000,0.243330490,-0.800000000,1.200000000,0.000000000,0.800000000,0.000000000
12.039000000,0.244997441,-0.800000000,1.200000000,0.000000000,0.800000000,0.000000000
12.060000000,0.246656030,-0.800000000,1.200000000,0.000000000,0.800000000,0.000000000
12.080000000,0.248323760,-0.800000000,1.200000000,0.000000000,0.800000000,0.000000000
12.100000000,0.249991384,-0.800000000,1.200000000,0.000000000,0.800000000,0.000000000
12.120000000,0.251658913,-0.800000000,1.200000000,0.000000000,0.800000000,0.000000000
12.140000000,0.253326355,-0.800000000,1.200000000,0.000000000,0.800000000,0.000000000
12.160000000,0.254993719,-0.800000000,1.200000000,0.000000000,0.800000000,0.000000000
12.180000000,0.256661014,-0.800000000,1.200000000,0.000000000,0.800000000,0.000000000
12.200000000,0.258328246,-0.800000000,1.200000000,0.000000000,0.800000000,0.000000000
12.220000000,0.259995421,-0.800000000,1.200000000,0.000000000,0.800000000,0.000000000
12.240000000,0.261662546,-0.800000000,1.200000000,0.000000000,0.800000000,0.000000000
12.260000000,0.263329625,-0.800000000,1.200000000,0.000000000,0.800000000,0.000000000
12.280000000,0.264996662,-0.800000000,1.200000000,0.000000000,0.800000000,0.000000000
12.300000000,0.266663663,-0.800000000,1.200000000,0.000000000,0.800000000,0.000000000
12.320000000,0.268330630,-0.800000000,1.200000000,0.000000000,0.800000000,0.000000000
12.340000000,0.269997567,-0.800000000,1.200000000,0.000000000,0.800000000,0.000000000
12.360000000,0.271664477,-0.800000000,1.200000000,0.000000000,0.800000000,0.000000000
12.380000000,0.273331362,-0.800000000,1.200000000,0.000000000,0.800000000,0.000000000
12.400000000,0.274998226,-0.800000000,1.200000000,0.000000000,0.800000000,0.000000000
12.420000000,0.276665070,-0.800000000,1.200000000,0.000000000,0.800000000,0.000000000
12.440000000,0.278331896,-0.800000000,1.200000000,0.000000000,0.800000000,0.000000000
12.460000000,0.279998707,-0.800000000,1.200000000,0.000000000,0.800000000,0.000000000
12.480000000,0.281665503,-0.800000000,1.200000000,0.000000000,0.800000000,0.000000000
12.500000000,0.283332286,-0.800000000,1.200000000,0.000000000,0.800000000,0.000000000
12.520000000,0.284999057,-0.800000000,1.200000000,0.000000000,0.800000000,0.000000000
12.539000000,0.286665818,-0.800000000,1.200000000,0.000000000,0.800000000,0.000000000
12.560000000,0.288324236,-0.800000000,1.200000000,0.000000000,0.800000000,0.000000000
12.580000000,0.289991813,-0.800000000,1.200000000,0.000000000,0.800000000,0.000000000
12.599000000,0.291659298,-0.800000000,1.200000000,0.000000000,0.800000000,0.000000000
12.620000000,0.293318368,-0.800000000,1.200000000,0.000000000,0.800000000,0.000000000
12.640000000,0.294986531,-0.800000000,1.200000000,0.000000000,0.800000000,0.000000000
12.660000000,0.296654545,-0.800000000,1.200000000,0.000000000,0.800000000,0.000000000
12.680000000,0.298322424,-0.800000000,1.200000000,0.000000000,0.800000000,0.000000000
12.700000000,0.299990181,-0.800000000,1.200000000,0.000000000,0.800000000,0.000000000
12.720000000,0.301657830,-0.800000000,1.200000000,0.000000000,0.800000000,0.000000000
12.740000000,0.303325380,-0.800000000,1.200000000,0.000000000,0.800000000,0.000000000
12.759000000,0.304992842,-0.800000000,1.200000000,0.000000000,0.800000000,0.000000000
12.780000000,0.306651891,-0.800000000,1.200000000,0.000000000,0.800000000,0.000000000
12.800000000,0.308320036,-0.800000000,1.200000000,0.000000000,0.800000000,0.000000000
12.820000000,0.309988032,-0.800000000,1.200000000,0.000000000,0.800000000,0.000000000
12.839000000,0.311655895,-0.800000000,1.200000000,0.000000000,0.800000000,0.000000000
12.860000000,0.313315306,-0.800000000,1.200000000,0.000000000,0.800000000,0.000000000
12.880000000,0.314983775,-0.800000000,1.200000000,0.000000000,0.800000000,0.000000000
12.899000000,0.316652064,-0.800000000,1.200000000,0.000000000,0.800000000,0.000000000
12.919000000,0.318311858,-0.800000000,1.200000000,0.000000000,0.800000000,0.000000000
12.940000000,0.319972339,-0.800000000,1.200000000,0.000000000,0.800000000,0.000000000
12.960000000,0.321641772,-0.800000000,1.200000000,0.000000000,0.800000000,0.000000000
12.980000000,0.323310928,-0.800000000,1.200000000,0.000000000,0.800000000,0.000000000
13.000000000,0.324979835,-0.800000000,1.200000000,0.000000000,0.800000000,0.000000000
13.020000000,0.326648518,-0.800000000,1.200000000,0.000000000,0.800000000,0.000000000
13.038000000,0.328317000,-0.800000000,1.200000000,0.000000000,0.800000000,0.000000000
13.060000000,0.329968633,-0.800000000,1.200000000,0.000000000,0.800000000,0.000000000
13.079000000,0.331638436,-0.800000000,1.200000000,0.000000000,0.800000000,0.000000000
13.100000000,0.333299593,-0.800000000,1.200000000,0.000000000,0.800000000,0.000000000
13.119000000,0.334969634,-0.800000000,1.200000000,0.000000000,0.800000000,0.000000000
13.140000000,0.336631004,-0.800000000,1.200000000,0.000000000,0.800000000,0.000000000
13.160000000,0.338301236,-0.800000000,1.200000000,0.000000000,0.800000000,0.000000000
13.180000000,0.339971113,-0.800000000,1.200000000,0.000000000,0.800000000,0.000000000
13.200000000,0.341640668,-0.800000000,1.200000000,0.000000000,0.800000000,0.000000000
13.220000000,0.343309935,-0.800000000,1.200000000,0.000000000,0.800000000,0.000000000
13.240000000,0.344978941,-0.800000000,1.200000000,0.000000000,0.800000000,0.000000000
13.257000000,0.346647714,-0.800000000,1.200000000,0.000000000,0.800000000,0.000000000
13.280000000,0.348291276,-0.800000000,1.200000000,0.000000000,0.800000000,0.000000000
13.300000000,0.349962148,-0.800000000,1.200000000,0.000000000,0.800000000,0.000000000
13.315000000,0.351632600,-0.800000000,1.200000000,0.000000000,0.800000000,0.000000000
13.340000000,0.353261007,-0.800000000,1.200000000,0.000000000,0.800000000,0.000000000
13.360000000,0.354934906,-0.800000000,1.200000000,0.000000000,0.800000000,0.000000000
13.380000000,0.356608082,-0.800000000,1.200000000,0.000000000,0.800000000,0.000000000
13.400000000,0.358280607,-0.800000000,1.200000000,0.000000000,0.800000000,0.000000000
13.420000000,0.359952546,-0.800000000,1.200000000,0.000000000,0.800000000,0.000000000
13.440000000,0.361623959,-0.800000000,1.200000000,0.000000000,0.800000000,0.000000000
13.460000000,0.363294896,-0.800000000,1.200000000,0.000000000,0.800000000,0.000000000
13.480000000,0.364965406,-0.800000000,1.200000000,0.000000000,0.800000000,0.000000000
13.500000000,0.366635532,-0.800000000,1.200000000,0.000000000,0.800000000,0.000000000
13.520000000,0.368305313,-0.800000000,1.200000000,0.000000000,0.800000000,0.000000000
13.539000000,0.369974781,-0.800000000,1.200000000,0.000000000,0.800000000,0.000000000
13.559000000,0.371635636,-0.800000000,1.200000000,0.000000000,0.800000000,0.000000000
13.580000000,0.373297073,-0.800000000,1.200000000,0.000000000,0.800000000,0.000000000
13.600000000,0.374967366,-0.800000000,1.200000000,0.000000000,0.800000000,0.000000000
13.620000000,0.376637296,-0.800000000,1.200000000,0.000000000,0.800000000,0.000000000
13.640000000,0.378306899,-0.800000000,1.200000000,0.000000000,0.800000000,0.000000000
13.660000000,0.379976209,-0.800000000,1.200000000,0.000000000,0.800000000,0.000000000
13.680000000,0.381645255,-0.800000000,1.200000000,0.000000000,0.800000000,0.000000000
13.700000000,0.383314063,-0.800000000,1.200000000,0.000000000,0.800000000,0.000000000
13.720000000,0.384982657,-0.800000000,1.200000000,0.000000000,0.800000000,0.000000000
13.740000000,0.386651058,-0.800000000,1.200000000,0.000000000,0.800000000,0.000000000
13.760000000,0.388319285,-0.800000000,1.200000000,0.000000000,0.800000000,0.000000000
13.780000000,0.389987357,-0.800000000,1.200000000,0.000000000,0.800000000,0.000000000
13.800000000,0.391655288,-0.800000000,1.200000000,0.000000000,0.800000000,0.000000000
13.820000000,0.393323092,-0.800000000,1.200000000,0.000000000,0.800000000,0.000000000
13.840000000,0.394990783,-0.800000000,1.200000000,0.000000000,0.800000000,0.000000000
13.860000000,0.396658371,-0.800000000,1.200000000,0.000000000,0.800000000,0.000000000
13.880000000,0.398325868,-0.800000000,1.200000000,0.000000000,0.800000000,0.000000000
13.900000000,0.399993281,-0.800000000,1.200000000,0.000000000,0.800000000,0.000000000
13.920000000,0.401660619,-0.800000000,1.200000000,0.000000000,0.800000000,0.000000000
13.940000000,0.403327891,-0.800000000,1.200000000,0.000000000,0.800000000,0.000000000
13.960000000,0.404995102,-0.800000000,1.200000000,0.000000000,0.800000000,0.000000000
13.980000000,0.406662258,-0.800000000,1.200000000,0.000000000,0.800000000,0.000000000
14.000000000,0.408329366,-0.800000000,1.200000000,0.000000000,0.800000000,0.000000000
14.020000000,0.409996429,-0.800000000,1.200000000,0.000000000,0.800000000,0.000000000
14.040000000,0.411663453,-0.800000000,1.200000000,0.000000000,0.800000000,0.000000000
14.060000000,0.413330441,-0.800000000,1.200000000,0.000000000,0.800000000,0.000000000
14.080000000,0.414997397,-0.800000000,1.200000000,0.000000000,0.800000000,0.000000000
14.100000000,0.416664324,-0.800000000,1.200000000,0.000000000,0.800000000,0.000000000
14.120000000,0.418331225,-0.800000000,1.200000000,0.000000000,0.800000000,0.000000000
14.140000000,0.419998102,-0.800000000,1.200000000,0.000000000,0.800000000,0.000000000
14.160000000,0.421664959,-0.800000000,1.200000000,0.000000000,0.800000000,0.000000000
14.180000000,0.423331796,-0.800000000,1.200000000,0.000000000,0.800000000,0.000000000
14.200000000,0.424998617,-0.800000000,1.200000000,0.000000000,0.800000000,0.000000000
14.220000000,0.426665422,-0.800000000,1.200000000,0.000000000,0.800000000,0.000000000
14.240000000,0.428332213,-0.800000000,1.200000000,0.000000000,0.800000000,0.000000000
14.260000000,0.429998991,-0.800000000,1.200000000,0.000000000,0.800000000,0.000000000
14.280000000,0.431665759,-0.800000000,1.200000000,0.000000000,0.800000000,0.000000000
14.300000000,0.433332516,-0.800000000,1.200000000,0.000000000,0.800000000,0.000000000
14.320000000,0.434999265,-0.800000000,1.200000000,0.000000000,0.800000000,0.000000000
14.340000000,0.436666005,-0.800000000,1.200000000,0.000000000,0.800000000,0.000000000
14.359000000,0.438332738,-0.800000000,1.200000000,0.000000000,0.800000000,0.000000000
14.380000000,0.439991131,-0.800000000,1.200000000,0.000000000,0.800000000,0.000000000
14.398000000,0.441658684,-0.800000000,1.200000000,0.000000000,0.800000000,0.000000000
14.420000000,0.443309483,-0.800000000,1.200000000,0.000000000,0.800000000,0.000000000
14.440000000,0.444978534,-0.800000000,1.200000000,0.000000000,0.800000000,0.000000000
14.460000000,0.446647348,-0.800000000,1.200000000,0.000000000,0.800000000,0.000000000
14.480000000,0.448315946,-0.800000000,1.200000000,0.000000000,0.800000000,0.000000000
14.500000000,0.449984351,-0.800000000,1.200000000,0.000000000,0.800000000,0.000000000
14.520000000,0.451652583,-0.800000000,1.200000000,0.000000000,0.800000000,0.000000000
14.540000000,0.453320658,-0.800000000,1.200000000,0.000000000,0.800000000,0.000000000
14.560000000,0.454988592,-0.800000000,1.200000000,0.000000000,0.800000000,0.000000000
14.580000000,0.456656400,-0.800000000,1.200000000,0.000000000,0.800000000,0.000000000
14.600000000,0.458324093,-0.800000000,1.200000000,0.000000000,0.800000000,0.000000000
14.620000000,0.459991684,-0.800000000,1.200000000,0.000000000,0.800000000,0.000000000
14.640000000,0.461659182,-0.800000000,1.200000000,0.000000000,0.800000000,0.000000000
14.660000000,0.463326597,-0.800000000,1.200000000,0.000000000,0.800000000,0.000000000
14.680000000,0.464993937,-0.800000000,1.200000000,0.000000000,0.800000000,0.000000000
14.700000000,0.466661210,-0.800000000,1.200000000,0.000000000,0.800000000,0.000000000
14.720000000,0.468328423,-0.800000000,1.200000000,0.000000000,0.800000000,0.000000000
14.740000000,0.469995580,-0.800000000,1.200000000,0.000000000,0.800000000,0.000000000
14.760000000,0.471662689,-0.800000000,1.200000000,0.000000000,0.800000000,0.000000000
14.779000000,0.473329753,-0.800000000,1.200000000,0.000000000,0.800000000,0.000000000
14.800000000,0.474988445,-0.800000000,1.200000000,0.000000000,0.800000000,0.000000000
14.820000000,0.476656267,-0.800000000,1.200000000,0.000000000,0.800000000,0.000000000
14.840000000,0.478323974,-0.800000000,1.200000000,0.000000000,0.800000000,0.000000000
14.860000000,0.479991576,-0.800000000,1.200000000,0.000000000,0.800000000,0.000000000
14.880000000,0.481659085,-0.800000000,1.200000000,0.000000000,0.800000000,0.000000000
14.900000000,0.483326510,-0.800000000,1.200000000,0.000000000,0.800000000,0.000000000
14.920000000,0.484993859,-0.800000000,1.200000000,0.000000000,0.800000000,0.000000000
14.939000000,0.486494473,-0.800000000,1.200000000,0.000000000,0.800000000,0.000000000
14.960000000,0.487845026,-0.800000000,1.200000000,0.000000000,0.800000000,0.000000000
14.980000000,0.489060523,-0.800000000,1.200000000,0.000000000,0.800000000,0.000000000
15.000000000,0.490154471,-0.800000000,1.200000000,0.000000000,0.800000000,0.000000000
15.020000000,0.491139024,-0.800000000,1.200000000,0.000000000,0.800000000,0.000000000
15.040000000,0.492025121,-0.800000000,1.200000000,0.000000000,0.800000000,0.000000000
15.060000000,0.492822609,-0.800000000,1.200000000,0.000000000,0.800000000,0.000000000
15.080000000,0.492824660,-0.800142857,1.200071429,0.000000000,0.799834286,0.000000000
15.100000000,0.492828556,-0.800414286,1.200207143,0.000000000,0.799519429,0.000000000
15.120000000,0.492834114,-0.800801429,1.200400714,0.000000000,0.799070343,0.000000000
15.140000000,0.492841166,-0.801292714,1.200646357,0.000000000,0.798500451,0.000000000
15.160000000,0.492849564,-0.801877729,1.200938864,0.000000000,0.797821835,0.000000000
15.180000000,0.492859172,-0.802547099,1.201273549,0.000000000,0.797045366,0.000000000
15.200000000,0.492869871,-0.803292389,1.201646194,0.000000000,0.796180829,0.000000000
15.220000000,0.492881550,-0.804106007,1.202053004,0.000000000,0.795237032,0.000000000
15.240000000,0.492894112,-0.804981121,1.202490560,0.000000000,0.794221900,0.000000000
15.260000000,0.492907469,-0.805911580,1.202955790,0.000000000,0.793142567,0.000000000
15.279000000,0.492921540,-0.806891851,1.203445925,0.000000000,0.792005453,0.000000000
15.300000000,0.492936153,-0.807909808,1.203954904,0.000000000,0.790824622,0.000000000
15.320000000,0.492951457,-0.808975970,1.204487985,0.000000000,0.789587874,0.000000000
15.340000000,0.492967282,-0.810078373,1.205039187,0.000000000,0.788309087,0.000000000
15.360000000,0.492983575,-0.811213393,1.205606697,0.000000000,0.786992464,0.000000000
15.380000000,0.493000289,-0.812377768,1.206188884,0.000000000,0.785641789,0.000000000
15.400000000,0.493017383,-0.813568563,1.206784281,0.000000000,0.784260467,0.000000000
15.420000000,0.493034818,-0.814783135,1.207391568,0.000000000,0.782851563,0.000000000
15.440000000,0.493052560,-0.816019107,1.208009554,0.000000000,0.781417836,0.000000000
15.460000000,0.493070579,-0.817274339,1.208637170,0.000000000,0.779961766,0.000000000
15.480000000,0.493088846,-0.818546905,1.209273453,0.000000000,0.778485590,0.000000000
15.500000000,0.493107337,-0.819835072,1.209917536,0.000000000,0.776991316,0.000000000
15.520000000,0.493126030,-0.821137279,1.210568640,0.000000000,0.775480756,0.000000000
15.539000000,0.493144905,-0.822452123,1.211226061,0.000000000,0.773955538,0.000000000
15.560000000,0.493163840,-0.823771196,1.211885598,0.000000000,0.772425413,0.000000000
15.580000000,0.493183034,-0.825108362,1.212554181,0.000000000,0.770874300,0.000000000
15.600000000,0.493202360,-0.826454669,1.213227334,0.000000000,0.769312584,0.000000000
15.620000000,0.493221804,-0.827809202,1.213904601,0.000000000,0.767741326,0.000000000
15.640000000,0.493241355,-0.829171139,1.214585569,0.000000000,0.766161479,0.000000000
15.660000000,0.493261001,-0.830539739,1.215269870,0.000000000,0.764573902,0.000000000
15.680000000,0.493280733,-0.831914337,1.215957168,0.000000000,0.762979369,0.000000000
15.700000000,0.493300542,-0.833294332,1.216647166,0.000000000,0.761378575,0.000000000
15.720000000,0.493320421,-0.834679184,1.217339592,0.000000000,0.759772146,0.000000000
15.740000000,0.493340363,-0.836068409,1.218034204,0.000000000,0.758160646,0.000000000
15.760000000,0.493360362,-0.837461568,1.218730784,0.000000000,0.756544581,0.000000000
15.780000000,0.493380411,-0.838858268,1.219429134,0.000000000,0.754924409,0.000000000
15.800000000,0.493400506,-0.840258156,1.220129078,0.000000000,0.753300540,0.000000000
15.820000000,0.493420643,-0.841660911,1.220830456,0.000000000,0.751673343,0.000000000
15.840000000,0.493440816,-0.843066249,1.221533124,0.000000000,0.750043151,0.000000000
15.860000000,0.493461023,-0.844473910,1.222236955,0.000000000,0.748410265,0.000000000
15.880000000,0.493481259,-0.845883662,1.222941831,0.000000000,0.746774953,0.000000000
15.899000000,0.493501523,-0.847295295,1.223647648,0.000000000,0.745137457,0.000000000
15.920000000,0.493521708,-0.848701480,1.224350740,0.000000000,0.743506283,0.000000000
15.940000000,0.493542029,-0.850117046,1.225058523,0.000000000,0.741864226,0.000000000
15.960000000,0.493562367,-0.851533913,1.225766957,0.000000000,0.740220661,0.000000000
15.980000000,0.493582723,-0.852951950,1.226475975,0.000000000,0.738575737,0.000000000
16.000000000,0.493603094,-0.854371041,1.227185521,0.000000000,0.736929592,0.000000000
16.020000000,0.493623478,-0.855791080,1.227895540,0.000000000,0.735282347,0.000000000
16.040000000,0.493643875,-0.857211972,1.228605986,0.000000000,0.733634113,0.000000000
16.060000000,0.493664282,-0.858633632,1.229316816,0.000000000,0.731984987,0.000000000
16.080000000,0.493684700,-0.860055983,1.230027992,0.000000000,0.730335060,0.000000000
16.100000000,0.493705126,-0.861478956,1.230739478,0.000000000,0.728684411,0.000000000
16.120000000,0.493725561,-0.862902489,1.231451245,0.000000000,0.727033113,0.000000000
16.140000000,0.493746003,-0.864326526,1.232163263,0.000000000,0.725381230,0.000000000
16.160000000,0.493766451,-0.865751016,1.232875508,0.000000000,0.723728821,0.000000000
16.180000000,0.493786905,-0.867175915,1.233587957,0.000000000,0.722075939,0.000000000
16.200000000,0.493807364,-0.868601180,1.234300590,0.000000000,0.720422631,0.000000000
16.220000000,0.493827828,-0.870026776,1.235013388,0.000000000,0.718768939,0.000000000
16.234000000,0.493848297,-0.871452670,1.235726335,0.000000000,0.717114903,0.000000000
16.260000000,0.493868154,-0.872835975,1.236417987,0.000000000,0.715510269,0.000000000
16.280000000,0.493888691,-0.874266663,1.237133331,0.000000000,0.713850671,0.000000000
16.300000000,0.493909225,-0.875697139,1.237848570,0.000000000,0.712191318,0.000000000
16.320000000,0.493929757,-0.877127426,1.238563713,0.000000000,0.710532186,0.000000000
16.338000000,0.493950286,-0.878557540,1.239278770,0.000000000,0.708873253,0.000000000
16.360000000,0.493970607,-0.879973215,1.239986607,0.000000000,0.707231071,0.000000000
16.380000000,0.493991153,-0.881404465,1.240702232,0.000000000,0.705570821,0.000000000
16.400000000,0.494011694,-0.882835447,1.241417723,0.000000000,0.703910882,0.000000000
16.420000000,0.494032232,-0.884266188,1.242133094,0.000000000,0.702251222,0.000000000
16.440000000,0.494052767,-0.885696712,1.242848356,0.000000000,0.700591814,0.000000000
16.460000000,0.494073299,-0.887127041,1.243563520,0.000000000,0.698932633,0.000000000
16.480000000,0.494093828,-0.888557194,1.244278597,0.000000000,0.697273655,0.000000000
16.500000000,0.494114356,-0.889987189,1.244993594,0.000000000,0.695614861,0.000000000
16.520000000,0.494134881,-0.891417041,1.245708521,0.000000000,0.693956232,0.000000000
16.540000000,0.494155404,-0.892846766,1.246423383,0.000000000,0.692297752,0.000000000
16.560000000,0.494175926,-0.894276375,1.247138187,0.000000000,0.690639405,0.000000000
16.580000000,0.494196446,-0.895705880,1.247852940,0.000000000,0.688981179,0.000000000
16.600000000,0.494216965,-0.897135292,1.248567646,0.000000000,0.687323061,0.000000000
16.620000000,0.494237483,-0.898564620,1.249282310,0.000000000,0.685665041,0.000000000
16.640000000,0.494257999,-0.899993872,1.249996936,0.000000000,0.684007108,0.000000000
16.660000000,0.494278515,-0.901423057,1.250711528,0.000000000,0.682349254,0.000000000
16.680000000,0.494299030,-0.902852179,1.251426090,0.000000000,0.680691472,0.000000000
16.700000000,0.494319544,-0.904281247,1.252140624,0.000000000,0.679033753,0.000000000
16.720000000,0.494340057,-0.905710265,1.252855133,0.000000000,0.677376092,0.000000000
16.740000000,0.494360570,-0.907139239,1.253569619,0.000000000,0.675718483,0.000000000
16.760000000,0.494381082,-0.908568172,1.254284086,0.000000000,0.674060920,0.000000000
16.780000000,0.494401593,-0.909997069,1.254998535,0.000000000,0.672403400,0.000000000
16.800000000,0.494422104,-0.911425934,1.255712967,0.000000000,0.670745917,0.000000000
16.820000000,0.494442615,-0.912854769,1.256427384,0.000000000,0.669088468,0.000000000
16.840000000,0.494463125,-0.914283578,1.257141789,0.000000000,0.667431050,0.000000000
16.860000000,0.494483635,-0.915712363,1.257856181,0.000000000,0.665773659,0.000000000
16.880000000,0.494504145,-0.917141127,1.258570563,0.000000000,0.664116293,0.000000000
16.900000000,0.494524654,-0.918569871,1.259284936,0.000000000,0.662458950,0.000000000
16.920000000,0.494545163,-0.919998598,1.259999299,0.000000000,0.660801626,0.000000000
16.940000000,0.494565672,-0.921427310,1.260713655,0.000000000,0.659144321,0.000000000
16.960000000,0.494586180,-0.922856007,1.261428004,0.000000000,0.657487031,0.000000000
16.980000000,0.494606689,-0.924284692,1.262142346,0.000000000,0.655829757,0.000000000
17.000000000,0.494627197,-0.925713366,1.262856683,0.000000000,0.654172495,0.000000000
17.020000000,0.494647705,-0.927142029,1.263571015,0.000000000,0.652515246,0.000000000
17.040000000,0.494668213,-0.928570684,1.264285342,0.000000000,0.650858007,0.000000000
17.060000000,0.494688721,-0.929999330,1.264999665,0.000000000,0.649200778,0.000000000
17.080000000,0.494709229,-0.931427968,1.265713984,0.000000000,0.647543557,0.000000000
17.100000000,0.494729737,-0.932856600,1.266428300,0.000000000,0.645886344,0.000000000
17.120000000,0.494750244,-0.934285225,1.267142613,0.000000000,0.644229138,0.000000000
17.140000000,0.494770752,-0.935713846,1.267856923,0.000000000,0.642571939,0.000000000
17.159000000,0.494791259,-0.937142461,1.268571231,0.000000000,0.640914745,0.000000000
17.180000000,0.494811664,-0.938563929,1.269281965,0.000000000,0.639265842,0.000000000
17.200000000,0.494832182,-0.939993251,1.269996625,0.000000000,0.637607829,0.000000000
17.220000000,0.494852698,-0.941422497,1.270711249,0.000000000,0.635949903,0.000000000
17.240000000,0.494873214,-0.942851676,1.271425838,0.000000000,0.634292056,0.000000000
17.260000000,0.494893729,-0.944280794,1.272140397,0.000000000,0.632634279,0.000000000
17.280000000,0.494914242,-0.945709858,1.272854929,0.000000000,0.630976565,0.000000000
17.300000000,0.494934756,-0.947138872,1.273569436,0.000000000,0.629318909,0.000000000
17.320000000,0.494955268,-0.948567842,1.274283921,0.000000000,0.627661304,0.000000000
17.340000000,0.494975780,-0.949996772,1.274998386,0.000000000,0.626003745,0.000000000
17.360000000,0.494996292,-0.951425666,1.275712833,0.000000000,0.624346227,0.000000000
17.380000000,0.495016803,-0.952854528,1.276427264,0.000000000,0.622688747,0.000000000
17.399000000,0.495037313,-0.954283361,1.277141681,0.000000000,0.621031301,0.000000000
17.420000000,0.495057721,-0.955705025,1.277852512,0.000000000,0.619382171,0.000000000
17.440000000,0.495078241,-0.957134522,1.278567261,0.000000000,0.617723954,0.000000000
17.460000000,0.495098760,-0.958563927,1.279281964,0.000000000,0.616065844,0.000000000
17.480000000,0.495119277,-0.959993249,1.279996624,0.000000000,0.614407831,0.000000000
17.500000000,0.495139794,-0.961422495,1.280711248,0.000000000,0.612749905,0.000000000
17.520000000,0.495160309,-0.962851674,1.281425837,0.000000000,0.611092058,0.000000000
17.540000000,0.495180824,-0.964280793,1.282140396,0.000000000,0.609434281,0.000000000
17.560000000,0.495201338,-0.965709856,1.282854928,0.000000000,0.607776567,0.000000000
17.580000000,0.495221851,-0.967138871,1.283569435,0.000000000,0.606118910,0.000000000
17.600000000,0.495242364,-0.968567841,1.284283920,0.000000000,0.604461305,0.000000000
17.620000000,0.495262876,-0.969996771,1.284998385,0.000000000,0.602803746,0.000000000
17.640000000,0.495283387,-0.971425665,1.285712833,0.000000000,0.601146228,0.000000000
17.660000000,0.495303898,-0.972854527,1.286427264,0.000000000,0.599488748,0.000000000
17.680000000,0.495324409,-0.974283360,1.287141680,0.000000000,0.597831302,0.000000000
17.700000000,0.495344919,-0.975712167,1.287856084,0.000000000,0.596173886,0.000000000
17.720000000,0.495365429,-0.977140950,1.288570475,0.000000000,0.594516498,0.000000000
17.740000000,0.495385938,-0.978569713,1.289284856,0.000000000,0.592859134,0.000000000
17.760000000,0.495406448,-0.979998456,1.289999228,0.000000000,0.591201792,0.000000000
17.780000000,0.495426957,-0.981427181,1.290713591,0.000000000,0.589544470,0.000000000
17.800000000,0.495447466,-0.982855892,1.291427946,0.000000000,0.587887165,0.000000000
17.820000000,0.495467974,-0.984284588,1.292142294,0.000000000,0.586229878,0.000000000
17.840000000,0.495488483,-0.985713272,1.292856636,0.000000000,0.584572604,0.000000000
17.859000000,0.495508991,-0.987141945,1.293570973,0.000000000,0.582915344,0.000000000
17.879000000,0.495529397,-0.988563465,1.294281732,0.000000000,0.581266381,0.000000000
17.900000000,0.495549812,-0.989985690,1.294992845,0.000000000,0.579616600,0.000000000
17.920000000,0.495570340,-0.991415692,1.295707846,0.000000000,0.577957797,0.000000000
17.940000000,0.495590865,-0.992845552,1.296422776,0.000000000,0.576299160,0.000000000
17.960000000,0.495611389,-0.994275282,1.297137641,0.000000000,0.574640673,0.000000000
17.980000000,0.495631910,-0.995704897,1.297852448,0.000000000,0.572982320,0.000000000
18.000000000,0.495652431,-0.997134407,1.298567204,0.000000000,0.571324088,0.000000000
18.020000000,0.495672950,-0.998563824,1.299281912,0.000000000,0.569665965,0.000000000
18.040000000,0.495693467,-0.999993155,1.299996578,0.000000000,0.568007940,0.000000000
18.060000000,0.495713984,-1.001422411,1.300711206,0.000000000,0.566350003,0.000000000
18.080000000,0.495734500,-1.002851599,1.301425799,0.000000000,0.564692145,0.000000000
18.100000000,0.495755014,-1.004280725,1.302140362,0.000000000,0.563034359,0.000000000
18.120000000,0.495775528,-1.005709795,1.302854898,0.000000000,0.561376638,0.000000000
18.140000000,0.495796042,-1.007138816,1.303569408,0.000000000,0.559718974,0.000000000
18.160000000,0.495816554,-1.008567791,1.304283896,0.000000000,0.558061362,0.000000000
18.180000000,0.495837066,-1.009996726,1.304998363,0.000000000,0.556403798,0.000000000
18.200000000,0.495857578,-1.011425625,1.305712813,0.000000000,0.554746275,0.000000000
18.220000000,0.495878089,-1.012854491,1.306427246,0.000000000,0.553088790,0.000000000
18.238000000,0.495898600,-1.014283328,1.307141664,0.000000000,0.551431340,0.000000000
18.260000000,0.495918905,-1.015697852,1.307848926,0.000000000,0.549790492,0.000000000
18.280000000,0.495939435,-1.017128067,1.308564033,0.000000000,0.548131442,0.000000000
18.300000000,0.495959963,-1.018558117,1.309279059,0.000000000,0.546472584,0.000000000
18.320000000,0.495980489,-1.019988020,1.309994010,0.000000000,0.544813897,0.000000000
18.340000000,0.496001013,-1.021417789,1.310708895,0.000000000,0.543155364,0.000000000
18.360000000,0.496021536,-1.022847439,1.311423720,0.000000000,0.541496971,0.000000000
18.374000000,0.496042056,-1.024276981,1.312138490,0.000000000,0.539838702,0.000000000
18.399000000,0.496061961,-1.025663568,1.312831784,0.000000000,0.538230261,0.000000000
18.420000000,0.496082438,-1.027090069,1.313545034,0.000000000,0.536575520,0.000000000
18.440000000,0.496103020,-1.028523919,1.314261960,0.000000000,0.534912254,0.000000000
18.460000000,0.496123595,-1.029957241,1.314978621,0.000000000,0.533249600,0.000000000
18.480000000,0.496144163,-1.031390089,1.315695044,0.000000000,0.531587497,0.000000000
18.500000000,0.496164726,-1.032822508,1.316411254,0.000000000,0.529925890,0.000000000
18.520000000,0.496185282,-1.034254543,1.317127272,0.000000000,0.528264730,0.000000000
18.540000000,0.496205834,-1.035686232,1.317843116,0.000000000,0.526603971,0.000000000
18.560000000,0.496226381,-1.037117609,1.318558804,0.000000000,0.524943574,0.000000000
18.580000000,0.496246924,-1.038548705,1.319274352,0.000000000,0.523283502,0.000000000
18.596000000,0.496267463,-1.039979549,1.319989774,0.000000000,0.521623724,0.000000000
18.620000000,0.496287589,-1.041381594,1.320690797,0.000000000,0.519997351,0.000000000
18.640000000,0.496308164,-1.042814863,1.321407432,0.000000000,0.518334759,0.000000000
18.660000000,0.496328731,-1.044247662,1.322123831,0.000000000,0.516672712,0.000000000
18.679000000,0.496349293,-1.045680039,1.322840020,0.000000000,0.515011155,0.000000000
18.700000000,0.496369746,-1.047104892,1.323552446,0.000000000,0.513358325,0.000000000
18.720000000,0.496390307,-1.048537260,1.324268630,0.000000000,0.511696778,0.000000000
18.740000000,0.496410863,-1.049969248,1.324984624,0.000000000,0.510035672,0.000000000
18.760000000,0.496431414,-1.051400895,1.325700448,0.000000000,0.508374962,0.000000000
18.780000000,0.496451961,-1.052832234,1.326416117,0.000000000,0.506714608,0.000000000
18.800000000,0.496472503,-1.054263296,1.327131648,0.000000000,0.505054576,0.000000000
18.820000000,0.496493042,-1.055694110,1.327847055,0.000000000,0.503394833,0.000000000
18.840000000,0.496513578,-1.057124699,1.328562349,0.000000000,0.501735350,0.000000000
18.860000000,0.496534111,-1.058555086,1.329277543,0.000000000,0.500076100,0.000000000
18.880000000,0.496554641,-1.059985292,1.329992646,0.000000000,0.498417062,0.000000000
18.900000000,0.496575169,-1.061415334,1.330707667,0.000000000,0.496758213,0.000000000
18.920000000,0.496595695,-1.062845229,1.331422615,0.000000000,0.495099534,0.000000000
18.940000000,0.496616219,-1.064274992,1.332137496,0.000000000,0.493441009,0.000000000
18.959000000,0.496636741,-1.065704636,1.332852318,0.000000000,0.491782623,0.000000000
18.980000000,0.496657159,-1.067127029,1.333563515,0.000000000,0.490132646,0.000000000
19.000000000,0.496677689,-1.068557183,1.334278592,0.000000000,0.488473667,0.000000000
19.020000000,0.496698216,-1.069987179,1.334993590,0.000000000,0.486814872,0.000000000
19.040000000,0.496718741,-1.071417033,1.335708516,0.000000000,0.485156242,0.000000000
19.060000000,0.496739265,-1.072846758,1.336423379,0.000000000,0.483497761,0.000000000
19.080000000,0.496759787,-1.074276368,1.337138184,0.000000000,0.481839413,0.000000000
19.100000000,0.496780307,-1.075705874,1.337852937,0.000000000,0.480181186,0.000000000
19.120000000,0.496800826,-1.077135287,1.338567643,0.000000000,0.478523068,0.000000000
19.140000000,0.496821343,-1.078564615,1.339282308,0.000000000,0.476865046,0.000000000
19.160000000,0.496841860,-1.079993868,1.339996934,0.000000000,0.475207113,0.000000000
19.180000000,0.496862376,-1.081423053,1.340711526,0.000000000,0.473549259,0.000000000
19.200000000,0.496882890,-1.082852176,1.341426088,0.000000000,0.471891476,0.000000000
19.220000000,0.496903404,-1.084281244,1.342140622,0.000000000,0.470233757,0.000000000
19.240000000,0.496923918,-1.085710262,1.342855131,0.000000000,0.468576096,0.000000000
19.260000000,0.496944430,-1.087139236,1.343569618,0.000000000,0.466918486,0.000000000
19.280000000,0.496964942,-1.088568170,1.344284085,0.000000000,0.465260923,0.000000000
19.300000000,0.496985454,-1.089997067,1.344998534,0.000000000,0.463603402,0.000000000
19.320000000,0.497005965,-1.091425932,1.345712966,0.000000000,0.461945919,0.000000000
19.339000000,0.497026475,-1.092854767,1.346427384,0.000000000,0.460288470,0.000000000
19.360000000,0.497046883,-1.094276433,1.347138217,0.000000000,0.458639337,0.000000000
19.380000000,0.497067403,-1.095705933,1.347852966,0.000000000,0.456981118,0.000000000
19.400000000,0.497087922,-1.097135340,1.348567670,0.000000000,0.455323006,0.000000000
19.420000000,0.497108440,-1.098564663,1.349282331,0.000000000,0.453664991,0.000000000
19.440000000,0.497128956,-1.099993911,1.349996955,0.000000000,0.452007064,0.000000000
19.460000000,0.497149472,-1.101423091,1.350711546,0.000000000,0.450349214,0.000000000
19.480000000,0.497169987,-1.102852211,1.351426105,0.000000000,0.448691436,0.000000000
19.499000000,0.497190500,-1.104281275,1.352140638,0.000000000,0.447033721,0.000000000
19.520000000,0.497210911,-1.105703148,1.352851574,0.000000000,0.445384349,0.000000000
19.540000000,0.497231434,-1.107132833,1.353566416,0.000000000,0.443725914,0.000000000
19.560000000,0.497251955,-1.108562407,1.354281203,0.000000000,0.442067608,0.000000000
19.579000000,0.497272475,-1.109991880,1.354995940,0.000000000,0.440409419,0.000000000
19.600000000,0.497292891,-1.111414121,1.355707060,0.000000000,0.438759620,0.000000000
19.620000000,0.497313419,-1.112844137,1.356422069,0.000000000,0.437100801,0.000000000
19.640000000,0.497333944,-1.114274009,1.357137005,0.000000000,0.435442149,0.000000000
19.660000000,0.497354468,-1.115703751,1.357851876,0.000000000,0.433783649,0.000000000
19.680000000,0.497374990,-1.117133376,1.358566688,0.000000000,0.432125284,0.000000000
19.699000000,0.497395510,-1.118562896,1.359281448,0.000000000,0.430467041,0.000000000
19.720000000,0.497415927,-1.119985178,1.359992589,0.000000000,0.428817194,0.000000000
19.740000000,0.497436455,-1.121415231,1.360707616,0.000000000,0.427158332,0.000000000
19.760000000,0.497456981,-1.122845137,1.361422568,0.000000000,0.425499641,0.000000000
19.780000000,0.497477505,-1.124274909,1.362137454,0.000000000,0.423841106,0.000000000
19.800000000,0.497498027,-1.125704561,1.362852280,0.000000000,0.422182710,0.000000000
19.820000000,0.497518548,-1.127134105,1.363567052,0.000000000,0.420524439,0.000000000
19.840000000,0.497539067,-1.128563551,1.364281776,0.000000000,0.418866281,0.000000000
19.860000000,0.497559585,-1.129992910,1.364996455,0.000000000,0.417208224,0.000000000
19.880000000,0.497580102,-1.131422191,1.365711095,0.000000000,0.415550259,0.000000000
19.900000000,0.497600618,-1.132851400,1.366425700,0.000000000,0.413892376,0.000000000
19.919000000,0.497621133,-1.134280546,1.367140273,0.000000000,0.412234567,0.000000000
19.940000000,0.497641545,-1.135702491,1.367851246,0.000000000,0.410585110,0.000000000
19.959000000,0.497662069,-1.137132242,1.368566121,0.000000000,0.408926599,0.000000000
19.980000000,0.497682488,-1.138554732,1.369277366,0.000000000,0.407276511,0.000000000
20.000000000,0.497703019,-1.139984973,1.369992487,0.000000000,0.405617431,0.000000000
20.020000000,0.497723548,-1.141415047,1.370707524,0.000000000,0.403958545,0.000000000
20.040000000,0.497744074,-1.142844971,1.371422486,0.000000000,0.402299833,0.000000000
20.060000000,0.497764598,-1.144274760,1.372137380,0.000000000,0.400641279,0.000000000
20.080000000,0.497785121,-1.145704427,1.372852213,0.000000000,0.398982865,0.000000000
20.100000000,0.497805642,-1.147133984,1.373566992,0.000000000,0.397324578,0.000000000
20.120000000,0.497826161,-1.148563443,1.374281721,0.000000000,0.395666406,0.000000000
20.140000000,0.497846680,-1.149992813,1.374996406,0.000000000,0.394008337,0.000000000
20.160000000,0.497867197,-1.151422103,1.375711052,0.000000000,0.392350361,0.000000000
20.180000000,0.497887713,-1.152851321,1.376425661,0.000000000,0.390692467,0.000000000
20.200000000,0.497908228,-1.154280475,1.377140237,0.000000000,0.389034649,0.000000000
20.219000000,0.497928742,-1.155709570,1.377854785,0.000000000,0.387376899,0.000000000
20.240000000,0.497949153,-1.157131470,1.378565735,0.000000000,0.385727494,0.000000000
20.260000000,0.497969677,-1.158561180,1.379280590,0.000000000,0.384069031,0.000000000
20.280000000,0.497990198,-1.159990777,1.379995388,0.000000000,0.382410699,0.000000000
20.300000000,0.498010718,-1.161420270,1.380710135,0.000000000,0.380752486,0.000000000
20.320000000,0.498031237,-1.162849672,1.381424836,0.000000000,0.379094381,0.000000000
20.340000000,0.498051755,-1.164278990,1.382139495,0.000000000,0.377436371,0.000000000
20.359000000,0.498072271,-1.165708234,1.382854117,0.000000000,0.375778448,0.000000000
20.380000000,0.498092684,-1.167130268,1.383565134,0.000000000,0.374128889,0.000000000
20.400000000,0.498113209,-1.168560098,1.384280049,0.000000000,0.372470286,0.000000000
20.420000000,0.498133732,-1.169989803,1.384994901,0.000000000,0.370811829,0.000000000
20.440000000,0.498154254,-1.171419394,1.385709697,0.000000000,0.369153503,0.000000000
20.457000000,0.498174774,-1.172848883,1.386424442,0.000000000,0.367495296,0.000000000
20.480000000,0.498195292,-1.174278281,1.387139140,0.000000000,0.365837195,0.000000000
20.500000000,0.498215810,-1.175707595,1.387853798,0.000000000,0.364179189,0.000000000
20.520000000,0.498236326,-1.177136836,1.388568418,0.000000000,0.362521270,0.000000000
20.540000000,0.498256842,-1.178566009,1.389283005,0.000000000,0.360863429,0.000000000
20.560000000,0.498277356,-1.179995123,1.389997561,0.000000000,0.359205658,0.000000000
20.579000000,0.498297870,-1.181424182,1.390712091,0.000000000,0.357547949,0.000000000
20.600000000,0.498318281,-1.182846049,1.391423025,0.000000000,0.355898583,0.000000000
20.620000000,0.498338803,-1.184275730,1.392137865,0.000000000,0.354240153,0.000000000
20.639000000,0.498359325,-1.185705300,1.392852650,0.000000000,0.352581852,0.000000000
20.660000000,0.498379742,-1.187127627,1.393563814,0.000000000,0.350931953,0.000000000
20.680000000,0.498400270,-1.188557722,1.394278861,0.000000000,0.349273043,0.000000000
20.700000000,0.498420797,-1.189987664,1.394993832,0.000000000,0.347614310,0.000000000
20.720000000,0.498441322,-1.191417469,1.395708734,0.000000000,0.345955736,0.000000000
20.740000000,0.498461844,-1.192847150,1.396423575,0.000000000,0.344297305,0.000000000
20.760000000,0.498482365,-1.194276721,1.397138361,0.000000000,0.342639004,0.000000000
20.780000000,0.498502885,-1.195706192,1.397853096,0.000000000,0.340980817,0.000000000
20.800000000,0.498523404,-1.197135573,1.398567786,0.000000000,0.339322736,0.000000000
20.820000000,0.498543921,-1.198564873,1.399282436,0.000000000,0.337664748,0.000000000
20.840000000,0.498564437,-1.199994100,1.399997050,0.000000000,0.336006845,0.000000000
20.860000000,0.498584952,-1.201423261,1.400711631,0.000000000,0.334349017,0.000000000
20.880000000,0.498605467,-1.202852364,1.401426182,0.000000000,0.332691258,0.000000000
20.899000000,0.498625981,-1.204281413,1.402140706,0.000000000,0.331033561,0.000000000
20.920000000,0.498646391,-1.205703272,1.402851636,0.000000000,0.329384205,0.000000000
20.940000000,0.498666914,-1.207132944,1.403566472,0.000000000,0.327725784,0.000000000
20.959000000,0.498687435,-1.208562507,1.404281254,0.000000000,0.326067492,0.000000000
20.980000000,0.498707852,-1.209984828,1.404992414,0.000000000,0.324417600,0.000000000
21.000000000,0.498728380,-1.211414916,1.405707458,0.000000000,0.322758697,0.000000000
21.019000000,0.498748907,-1.212844853,1.406422427,0.000000000,0.321099970,0.000000000
21.040000000,0.498769329,-1.214267511,1.407133755,0.000000000,0.319449687,0.000000000
21.060000000,0.498789862,-1.215697903,1.407848951,0.000000000,0.317790433,0.000000000
21.079000000,0.498810392,-1.217128112,1.408564056,0.000000000,0.316131390,0.000000000
21.100000000,0.498830818,-1.218551015,1.409275508,0.000000000,0.314480822,0.000000000
21.120000000,0.498851354,-1.219981628,1.409990814,0.000000000,0.312821311,0.000000000
21.140000000,0.498871887,-1.221412037,1.410706018,0.000000000,0.311162037,0.000000000
21.160000000,0.498892418,-1.222842262,1.411421131,0.000000000,0.309502976,0.000000000
21.180000000,0.498912946,-1.224272321,1.412136161,0.000000000,0.307844107,0.000000000
21.200000000,0.498933472,-1.225702232,1.412851116,0.000000000,0.306185411,0.000000000
21.220000000,0.498953996,-1.227132009,1.413566004,0.000000000,0.304526870,0.000000000
21.240000000,0.498974518,-1.228561665,1.414280833,0.000000000,0.302868469,0.000000000
21.260000000,0.498995039,-1.229991213,1.414995606,0.000000000,0.301210193,0.000000000
21.280000000,0.499015559,-1.231420663,1.415710332,0.000000000,0.299552031,0.000000000
21.300000000,0.499036077,-1.232850025,1.416425013,0.000000000,0.297893971,0.000000000
21.320000000,0.499056594,-1.234279308,1.417139654,0.000000000,0.296236002,0.000000000
21.340000000,0.499077110,-1.235708520,1.417854260,0.000000000,0.294578116,0.000000000
21.360000000,0.499097625,-1.237137668,1.418568834,0.000000000,0.292920305,0.000000000
21.380000000,0.499118139,-1.238566759,1.419283379,0.000000000,0.291262560,0.000000000
21.400000000,0.499138653,-1.239995797,1.419997899,0.000000000,0.289604875,0.000000000
21.420000000,0.499159166,-1.241424789,1.420712394,0.000000000,0.287947245,0.000000000
21.440000000,0.499179678,-1.242853739,1.421426869,0.000000000,0.286289663,0.000000000
21.460000000,0.499200190,-1.244282650,1.422141325,0.000000000,0.284632126,0.000000000
21.480000000,0.499220701,-1.245711528,1.422855764,0.000000000,0.282974627,0.000000000
21.500000000,0.499241212,-1.247140375,1.423570188,0.000000000,0.281317165,0.000000000
21.520000000,0.499261722,-1.248569195,1.424284598,0.000000000,0.279659734,0.000000000
21.540000000,0.499282232,-1.249997990,1.424998995,0.000000000,0.278002332,0.000000000
21.560000000,0.499302742,-1.251426762,1.425713381,0.000000000,0.276344956,0.000000000
21.580000000,0.499323251,-1.252855515,1.426427757,0.000000000,0.274687603,0.000000000
21.600000000,0.499343760,-1.254284249,1.427142124,0.000000000,0.273030271,0.000000000
21.620000000,0.499364269,-1.255712967,1.427856483,0.000000000,0.271372959,0.000000000
21.639000000,0.499384778,-1.257141670,1.428570835,0.000000000,0.269715663,0.000000000
21.657000000,0.499405184,-1.258563217,1.429281609,0.000000000,0.268066668,0.000000000
21.680000000,0.499425395,-1.259971181,1.429985591,0.000000000,0.266433430,0.000000000
21.700000000,0.499445943,-1.261402635,1.430701317,0.000000000,0.264772944,0.000000000
21.720000000,0.499466487,-1.262833800,1.431416900,0.000000000,0.263112792,0.000000000
21.740000000,0.499487028,-1.264264706,1.432132353,0.000000000,0.261452942,0.000000000
21.760000000,0.499507565,-1.265695378,1.432847689,0.000000000,0.259793362,0.000000000
21.780000000,0.499528099,-1.267125840,1.433562920,0.000000000,0.258134026,0.000000000
21.800000000,0.499548630,-1.268556113,1.434278057,0.000000000,0.256474909,0.000000000
21.820000000,0.499569159,-1.269986216,1.434993108,0.000000000,0.254815989,0.000000000
21.840000000,0.499589685,-1.271416166,1.435708083,0.000000000,0.253157248,0.000000000
21.859000000,0.499610210,-1.272845978,1.436422989,0.000000000,0.251498666,0.000000000
21.880000000,0.499630630,-1.274268523,1.437134262,0.000000000,0.249848513,0.000000000
21.900000000,0.499651162,-1.275698814,1.437849407,0.000000000,0.248189376,0.000000000
21.920000000,0.499671691,-1.277128932,1.438564466,0.000000000,0.246530439,0.000000000
21.940000000,0.499692218,-1.278558896,1.439279448,0.000000000,0.244871681,0.000000000
21.960000000,0.499712742,-1.279988721,1.439994360,0.000000000,0.243213084,0.000000000
21.980000000,0.499733265,-1.281418420,1.440709210,0.000000000,0.241554633,0.000000000
22.000000000,0.499753787,-1.282848007,1.441424003,0.000000000,0.239896312,0.000000000
22.020000000,0.499774307,-1.284277492,1.442138746,0.000000000,0.238238110,0.000000000
22.040000000,0.499794825,-1.285706885,1.442853443,0.000000000,0.236580013,0.000000000
22.059000000,0.499815343,-1.287136197,1.443568098,0.000000000,0.234922012,0.000000000
22.080000000,0.499833809,-1.288422577,1.444211289,0.000000000,0.233429810,0.000000000
22.100000000,0.499850428,-1.289580319,1.444790160,0.000000000,0.232086829,0.000000000
22.120000000,0.499865385,-1.290622288,1.445311144,0.000000000,0.230878146,0.000000000
22.140000000,0.499878846,-1.291560059,1.445780029,0.000000000,0.229790332,0.000000000
22.160000000,0.499890962,-1.292404053,1.446202026,0.000000000,0.228811299,0.000000000
22.180000000,0.499901866,-1.293163648,1.446581824,0.000000000,0.227930169,0.000000000
22.200000000,0.499911679,-1.293847283,1.446923641,0.000000000,0.227137152,0.000000000
22.220000000,0.499818375,-1.293869334,1.446948000,0.000000000,0.227121440,0.000000000
22.240000000,0.499641098,-1.293911230,1.446994282,0.000000000,0.227091586,0.000000000
22.260000000,0.499388244,-1.293970988,1.447060294,0.000000000,0.227049005,0.000000000
22.280000000,0.499067372,-1.294046821,1.447144064,0.000000000,0.226994971,0.000000000
22.300000000,0.498685283,-1.294137122,1.447243816,0.000000000,0.226930627,0.000000000
22.320000000,0.498248100,-1.294240444,1.447357951,0.000000000,0.226857005,0.000000000
22.340000000,0.497761330,-1.294355484,1.447485032,0.000000000,0.226775033,0.000000000
22.360000000,0.497229934,-1.294481071,1.447623763,0.000000000,0.226685546,0.000000000
22.380000000,0.496658374,-1.294616150,1.447772980,0.000000000,0.226589295,0.000000000
22.400000000,0.496050665,-1.294759773,1.447931634,0.000000000,0.226486957,0.000000000
22.420000000,0.495410424,-1.294911084,1.448098781,0.000000000,0.226379140,0.000000000
22.440000000,0.494740903,-1.295069314,1.448273573,0.000000000,0.226266393,0.000000000
22.460000000,0.494045030,-1.295233773,1.448455244,0.000000000,0.226149208,0.000000000
22.480000000,0.493325440,-1.295403837,1.448643107,0.000000000,0.226028029,0.000000000
22.500000000,0.492584506,-1.295578945,1.448836542,0.000000000,0.225903255,0.000000000
22.520000000,0.491824361,-1.295758593,1.449034992,0.000000000,0.225775247,0.000000000
22.540000000,0.491046926,-1.295942328,1.449237957,0.000000000,0.225644327,0.000000000
22.560000000,0.490253931,-1.296129739,1.449444983,0.000000000,0.225510786,0.000000000
22.580000000,0.489446932,-1.296320461,1.449655666,0.000000000,0.225374888,0.000000000
22.600000000,0.488627329,-1.296514161,1.449869639,0.000000000,0.225236866,0.000000000
22.620000000,0.487796382,-1.296710542,1.450086574,0.000000000,0.225096935,0.000000000
22.640000000,0.486955226,-1.296909336,1.450306174,0.000000000,0.224955284,0.000000000
22.660000000,0.486104882,-1.297110302,1.450528173,0.000000000,0.224812086,0.000000000
22.680000000,0.485246268,-1.297313222,1.450752331,0.000000000,0.224667495,0.000000000
22.700000000,0.484380212,-1.297517900,1.450978431,0.000000000,0.224521652,0.000000000
22.720000000,0.483507458,-1.297724162,1.451206281,0.000000000,0.224374680,0.000000000
22.740000000,0.482628675,-1.297931849,1.451435704,0.000000000,0.224226692,0.000000000
22.760000000,0.481744466,-1.298140818,1.451666544,0.000000000,0.224077792,0.000000000
22.779000000,0.480855374,-1.298350940,1.451898658,0.000000000,0.223928069,0.000000000
22.800000000,0.479966553,-1.298560999,1.452130702,0.000000000,0.223778391,0.000000000
22.818000000,0.479068645,-1.298773206,1.452365119,0.000000000,0.223627183,0.000000000
22.840000000,0.478176554,-1.298984037,1.452598016,0.000000000,0.223476955,0.000000000
22.860000000,0.477271038,-1.299198042,1.452834419,0.000000000,0.223324466,0.000000000
22.880000000,0.476362770,-1.299412697,1.453071540,0.000000000,0.223171514,0.000000000
22.899000000,0.475452025,-1.299627937,1.453309307,0.000000000,0.223018144,0.000000000
22.920000000,0.474543715,-1.299842602,1.453546439,0.000000000,0.222865185,0.000000000
22.939000000,0.473628268,-1.300058953,1.453785434,0.000000000,0.222711023,0.000000000
22.960000000,0.472711061,-1.300275721,1.454024889,0.000000000,0.222556565,0.000000000
22.980000000,0.471792271,-1.300492862,1.454264757,0.000000000,0.222401841,0.000000000
23.000000000,0.470872056,-1.300710340,1.454504997,0.000000000,0.222246877,0.000000000
23.020000000,0.469950559,-1.300928122,1.454745572,0.000000000,0.222091697,0.000000000
23.039000000,0.469027907,-1.301146176,1.454986448,0.000000000,0.221936322,0.000000000
23.059000000,0.468108882,-1.301363373,1.455226377,0.000000000,0.221781558,0.000000000
23.080000000,0.467188456,-1.301580901,1.455466672,0.000000000,0.221626558,0.000000000
23.100000000,0.466262103,-1.301799830,1.455708514,0.000000000,0.221470560,0.000000000
23.120000000,0.465335081,-1.302018917,1.455950531,0.000000000,0.221314450,0.000000000
23.140000000,0.464407458,-1.302238146,1.456192705,0.000000000,0.221158238,0.000000000
23.160000000,0.463479293,-1.302457503,1.456435020,0.000000000,0.221001935,0.000000000
23.180000000,0.462550641,-1.302676976,1.456677463,0.000000000,0.220845550,0.000000000
23.200000000,0.461621550,-1.302896552,1.456920020,0.000000000,0.220689091,0.000000000
23.220000000,0.460692065,-1.303116221,1.457162680,0.000000000,0.220532565,0.000000000
23.240000000,0.459762224,-1.303335974,1.457405433,0.000000000,0.220375980,0.000000000
23.260000000,0.458832063,-1.303555803,1.457648270,0.000000000,0.220219341,0.000000000
23.280000000,0.457901614,-1.303775700,1.457891182,0.000000000,0.220062653,0.000000000
23.300000000,0.456970907,-1.303995658,1.458134161,0.000000000,0.219905922,0.000000000
23.320000000,0.456039966,-1.304215671,1.458377201,0.000000000,0.219749151,0.000000000
23.340000000,0.455108815,-1.304435734,1.458620296,0.000000000,0.219592346,0.000000000
23.360000000,0.454177476,-1.304655842,1.458863440,0.000000000,0.219435508,0.000000000
23.380000000,0.453245967,-1.304875989,1.459106628,0.000000000,0.219278642,0.000000000
23.400000000,0.452314304,-1.305096173,1.459349857,0.000000000,0.219121750,0.000000000
23.420000000,0.451382504,-1.305316389,1.459593121,0.000000000,0.218964835,0.000000000
23.440000000,0.450450580,-1.305536635,1.459836418,0.000000000,0.218807898,0.000000000
23.460000000,0.449518545,-1.305756906,1.460079744,0.000000000,0.218650944,0.000000000
23.480000000,0.448586409,-1.305977202,1.460323096,0.000000000,0.218493972,0.000000000
23.500000000,0.447654183,-1.306197519,1.460566472,0.000000000,0.218336985,0.000000000
23.520000000,0.446721876,-1.306417855,1.460809869,0.000000000,0.218179984,0.000000000
23.540000000,0.445789495,-1.306638209,1.461053284,0.000000000,0.218022971,0.000000000
23.560000000,0.444857049,-1.306858578,1.461296718,0.000000000,0.217865947,0.000000000
23.580000000,0.443924543,-1.307078961,1.461540166,0.000000000,0.217708913,0.000000000
23.600000000,0.442991984,-1.307299356,1.461783629,0.000000000,0.217551870,0.000000000
23.620000000,0.442059377,-1.307519763,1.462027104,0.000000000,0.217394819,0.000000000
23.640000000,0.441126727,-1.307740180,1.462270590,0.000000000,0.217237761,0.000000000
23.660000000,0.440194038,-1.307960607,1.462514087,0.000000000,0.217080696,0.000000000
23.680000000,0.439261314,-1.308181041,1.462757592,0.000000000,0.216923625,0.000000000
23.700000000,0.438328559,-1.308401483,1.463001106,0.000000000,0.216766549,0.000000000
23.720000000,0.437395775,-1.308621932,1.463244628,0.000000000,0.216609468,0.000000000
23.738000000,0.436462966,-1.308842387,1.463488155,0.000000000,0.216452383,0.000000000
23.758000000,0.435539464,-1.309060642,1.463729254,0.000000000,0.216296865,0.000000000
23.780000000,0.434615008,-1.309279123,1.463970601,0.000000000,0.216141187,0.000000000
23.800000000,0.433680364,-1.309500011,1.464214608,0.000000000,0.215983792,0.000000000
23.819000000,0.432745880,-1.309720862,1.464458573,0.000000000,0.215826425,0.000000000
23.840000000,0.431816206,-1.309940576,1.464701282,0.000000000,0.215669868,0.000000000
23.860000000,0.430881530,-1.310161471,1.464945297,0.000000000,0.215512469,0.000000000
23.880000000,0.429947018,-1.310382329,1.465189270,0.000000000,0.215355097,0.000000000
23.900000000,0.429012653,-1.310603151,1.465433204,0.000000000,0.215197750,0.000000000
23.920000000,0.428078421,-1.310823942,1.465677103,0.000000000,0.215040425,0.000000000
23.940000000,0.427144308,-1.311044705,1.465920971,0.000000000,0.214883120,0.000000000
23.960000000,0.426210303,-1.311265442,1.466164812,0.000000000,0.214725834,0.000000000
23.980000000,0.425276394,-1.311486157,1.466408626,0.000000000,0.214568563,0.000000000
24.000000000,0.424342572,-1.311706851,1.466652419,0.000000000,0.214411307,0.000000000
24.020000000,0.423408828,-1.311927527,1.466896191,0.000000000,0.214254065,0.000000000
24.040000000,0.422475155,-1.312148186,1.467139944,0.000000000,0.214096834,0.000000000
24.060000000,0.421541546,-1.312368830,1.467383681,0.000000000,0.213939614,0.000000000
24.080000000,0.420607993,-1.312589460,1.467627403,0.000000000,0.213782404,0.000000000
24.100000000,0.419674492,-1.312810078,1.467871111,0.000000000,0.213625202,0.000000000
24.120000000,0.418741037,-1.313030686,1.468114808,0.000000000,0.213468008,0.000000000
24.140000000,0.417807623,-1.313251283,1.468358493,0.000000000,0.213310822,0.000000000
24.159000000,0.416874247,-1.313471872,1.468602169,0.000000000,0.213153641,0.000000000
24.180000000,0.415945570,-1.313691350,1.468844618,0.000000000,0.212997252,0.000000000
24.200000000,0.415011792,-1.313912034,1.469088399,0.000000000,0.212840003,0.000000000
24.220000000,0.414078087,-1.314132700,1.469332161,0.000000000,0.212682767,0.000000000
24.240000000,0.413144450,-1.314353351,1.469575905,0.000000000,0.212525543,0.000000000
24.260000000,0.412210872,-1.314573988,1.469819634,0.000000000,0.212368328,0.000000000
24.280000000,0.411277347,-1.314794611,1.470063348,0.000000000,0.212211123,0.000000000
24.300000000,0.410343872,-1.315015224,1.470307050,0.000000000,0.212053925,0.000000000
24.320000000,0.409410440,-1.315235825,1.470550741,0.000000000,0.211896735,0.000000000
24.340000000,0.408477047,-1.315456418,1.470794421,0.000000000,0.211739552,0.000000000
24.360000000,0.407543690,-1.315677002,1.471038092,0.000000000,0.211582374,0.000000000
24.380000000,0.406610365,-1.315897579,1.471281754,0.000000000,0.211425202,0.000000000
24.400000000,0.405677068,-1.316118149,1.471525410,0.000000000,0.211268035,0.000000000
24.420000000,0.404743797,-1.316338713,1.471769058,0.000000000,0.211110872,0.000000000
24.440000000,0.403810549,-1.316559271,1.472012700,0.000000000,0.210953713,0.000000000
24.460000000,0.402877322,-1.316779825,1.472256337,0.000000000,0.210796557,0.000000000
24.480000000,0.401944114,-1.317000374,1.472499969,0.000000000,0.210639405,0.000000000
24.500000000,0.401010923,-1.317220919,1.472743597,0.000000000,0.210482256,0.000000000
24.520000000,0.400077747,-1.317441460,1.472987221,0.000000000,0.210325109,0.000000000
24.540000000,0.399144585,-1.317661999,1.473230841,0.000000000,0.210167964,0.000000000
24.560000000,0.398211435,-1.317882534,1.473474458,0.000000000,0.210010822,0.000000000
24.580000000,0.397278296,-1.318103067,1.473718072,0.000000000,0.209853681,0.000000000
24.600000000,0.396345167,-1.318323597,1.473961683,0.000000000,0.209696542,0.000000000
24.620000000,0.395412047,-1.318544125,1.474205292,0.000000000,0.209539405,0.000000000
24.640000000,0.394478935,-1.318764651,1.474448899,0.000000000,0.209382268,0.000000000
24.660000000,0.393545831,-1.318985176,1.474692504,0.000000000,0.209225134,0.000000000
24.680000000,0.392612733,-1.319205699,1.474936107,0.000000000,0.209068000,0.000000000
24.700000000,0.391679641,-1.319426221,1.475179709,0.000000000,0.208910867,0.000000000
24.720000000,0.390746554,-1.319646741,1.475423309,0.000000000,0.208753735,0.000000000
24.740000000,0.389813472,-1.319867260,1.475666908,0.000000000,0.208596604,0.000000000
24.760000000,0.388880395,-1.320087778,1.475910506,0.000000000,0.208439474,0.000000000
24.780000000,0.387947321,-1.320308296,1.476154103,0.000000000,0.208282344,0.000000000
24.799000000,0.387014251,-1.320528812,1.476397699,0.000000000,0.208125215,0.000000000
24.820000000,0.386085849,-1.320748225,1.476640076,0.000000000,0.207968872,0.000000000
24.840000000,0.385152318,-1.320968851,1.476883793,0.000000000,0.207811665,0.000000000
24.860000000,0.384218836,-1.321189464,1.477127496,0.000000000,0.207654467,0.000000000
24.880000000,0.383285399,-1.321410067,1.477371188,0.000000000,0.207497276,0.000000000
24.900000000,0.382352001,-1.321630661,1.477614869,0.000000000,0.207340092,0.000000000
24.920000000,0.381418640,-1.321851247,1.477858542,0.000000000,0.207182913,0.000000000
24.940000000,0.380485310,-1.322071824,1.478102205,0.000000000,0.207025741,0.000000000
24.960000000,0.379552010,-1.322292395,1.478345861,0.000000000,0.206868573,0.000000000
24.980000000,0.378618736,-1.322512960,1.478589511,0.000000000,0.206711409,0.000000000
25.000000000,0.377685485,-1.322733519,1.478833154,0.000000000,0.206554250,0.000000000
25.020000000,0.376752255,-1.322954073,1.479076791,0.000000000,0.206397094,0.000000000
25.040000000,0.375819045,-1.323174623,1.479320424,0.000000000,0.206239941,0.000000000
25.060000000,0.374885852,-1.323395168,1.479564052,0.000000000,0.206082791,0.000000000
25.080000000,0.373952674,-1.323615710,1.479807676,0.000000000,0.205925644,0.000000000
25.100000000,0.373019510,-1.323836249,1.480051297,0.000000000,0.205768499,0.000000000
25.120000000,0.372086358,-1.324056784,1.480294914,0.000000000,0.205611356,0.000000000
25.140000000,0.371153218,-1.324277317,1.480538528,0.000000000,0.205454216,0.000000000
25.159000000,0.370220088,-1.324497848,1.480782140,0.000000000,0.205297076,0.000000000
25.180000000,0.369291632,-1.324717274,1.481024531,0.000000000,0.205140724,0.000000000
25.200000000,0.368358053,-1.324937911,1.481268260,0.000000000,0.204983509,0.000000000
25.220000000,0.367424528,-1.325158535,1.481511975,0.000000000,0.204826304,0.000000000
25.240000000,0.366491051,-1.325379147,1.481755677,0.000000000,0.204669106,0.000000000
25.260000000,0.365557618,-1.325599749,1.481999368,0.000000000,0.204511916,0.000000000
25.280000000,0.364624225,-1.325820342,1.482243048,0.000000000,0.204354732,0.000000000
25.300000000,0.363690867,-1.326040927,1.482486720,0.000000000,0.204197555,0.000000000
25.320000000,0.362757541,-1.326261503,1.482730382,0.000000000,0.204040383,0.000000000
25.340000000,0.361824243,-1.326482074,1.482974038,0.000000000,0.203883215,0.000000000
25.360000000,0.360890972,-1.326702638,1.483217686,0.000000000,0.203726052,0.000000000
25.380000000,0.359957724,-1.326923196,1.483461329,0.000000000,0.203568893,0.000000000
25.400000000,0.359024496,-1.327143750,1.483704966,0.000000000,0.203411738,0.000000000
25.420000000,0.358091288,-1.327364299,1.483948598,0.000000000,0.203254585,0.000000000
25.440000000,0.357158096,-1.327584844,1.484192226,0.000000000,0.203097436,0.000000000
25.460000000,0.356224920,-1.327805386,1.484435849,0.000000000,0.202940289,0.000000000
25.480000000,0.355291757,-1.328025924,1.484679470,0.000000000,0.202783144,0.000000000
25.500000000,0.354358607,-1.328246459,1.484923086,0.000000000,0.202626002,0.000000000
25.520000000,0.353425468,-1.328466992,1.485166701,0.000000000,0.202468861,0.000000000
25.540000000,0.352492339,-1.328687522,1.485410312,0.000000000,0.202311722,0.000000000
25.559000000,0.351559219,-1.328908050,1.485653921,0.000000000,0.202154584,0.000000000
25.580000000,0.350630772,-1.329127474,1.485896310,0.000000000,0.201998234,0.000000000
25.600000000,0.349697201,-1.329348109,1.486140037,0.000000000,0.201841020,0.000000000
25.620000000,0.348763683,-1.329568731,1.486383750,0.000000000,0.201683816,0.000000000
25.640000000,0.347830213,-1.329789342,1.486627450,0.000000000,0.201526619,0.000000000
25.660000000,0.346896786,-1.330009943,1.486871139,0.000000000,0.201369430,0.000000000
25.679000000,0.345963398,-1.330230535,1.487114818,0.000000000,0.201212248,0.000000000
25.700000000,0.345034710,-1.330450015,1.487357270,0.000000000,0.201055856,0.000000000
25.720000000,0.344100922,-1.330670701,1.487601054,0.000000000,0.200898606,0.000000000
25.740000000,0.343167209,-1.330891370,1.487844818,0.000000000,0.200741369,0.000000000
25.759000000,0.342233563,-1.331112022,1.488088564,0.000000000,0.200584143,0.000000000
25.780000000,0.341304643,-1.331331558,1.488331076,0.000000000,0.200427713,0.000000000
25.800000000,0.340370646,-1.331552294,1.488574914,0.000000000,0.200270428,0.000000000
25.820000000,0.339436744,-1.331773006,1.488818727,0.000000000,0.200113158,0.000000000
25.840000000,0.338502929,-1.331993699,1.489062518,0.000000000,0.199955904,0.000000000
25.859000000,0.337569192,-1.332214373,1.489306288,0.000000000,0.199798662,0.000000000
25.880000000,0.336640189,-1.332433928,1.489548822,0.000000000,0.199642218,0.000000000
25.900000000,0.335706118,-1.332654681,1.489792680,0.000000000,0.199484921,0.000000000
25.920000000,0.334772150,-1.332875410,1.490036510,0.000000000,0.199327640,0.000000000
25.940000000,0.333838275,-1.333096116,1.490280316,0.000000000,0.199170376,0.000000000
25.960000000,0.332904484,-1.333316803,1.490524101,0.000000000,0.199013125,0.000000000
25.980000000,0.331970767,-1.333537473,1.490767865,0.000000000,0.198855887,0.000000000
26.000000000,0.331037119,-1.333758126,1.491011612,0.000000000,0.198698661,0.000000000
26.020000000,0.330103531,-1.333978764,1.491255343,0.000000000,0.198541445,0.000000000
26.040000000,0.329169999,-1.334199390,1.491499060,0.000000000,0.198384238,0.000000000
26.059000000,0.328236515,-1.334420004,1.491742764,0.000000000,0.198227039,0.000000000
26.080000000,0.327307742,-1.334639505,1.491985238,0.000000000,0.198070633,0.000000000
26.100000000,0.326373876,-1.334860210,1.492229042,0.000000000,0.197913370,0.000000000
26.120000000,0.325440093,-1.335080894,1.492472824,0.000000000,0.197756121,0.000000000
26.140000000,0.324506385,-1.335301562,1.492716587,0.000000000,0.197598885,0.000000000
26.160000000,0.323572744,-1.335522213,1.492960332,0.000000000,0.197441659,0.000000000
26.180000000,0.322639163,-1.335742850,1.493204061,0.000000000,0.197284444,0.000000000
26.200000000,0.321705636,-1.335963475,1.493447776,0.000000000,0.197127238,0.000000000
26.220000000,0.320772157,-1.336184088,1.493691479,0.000000000,0.196970040,0.000000000
26.239000000,0.319838723,-1.336404690,1.493935170,0.000000000,0.196812850,0.000000000
26.260000000,0.318909994,-1.336624181,1.494177633,0.000000000,0.196656452,0.000000000
26.280000000,0.317976168,-1.336844876,1.494421426,0.000000000,0.196499196,0.000000000
26.300000000,0.317042421,-1.337065552,1.494665199,0.000000000,0.196341952,0.000000000
26.320000000,0.316108745,-1.337286212,1.494908953,0.000000000,0.196184721,0.000000000
26.336000000,0.315175132,-1.337506856,1.495152691,0.000000000,0.196027501,0.000000000
26.360000000,0.314260238,-1.337723077,1.495391541,0.000000000,0.195873433,0.000000000
26.380000000,0.313324869,-1.337944137,1.495635738,0.000000000,0.195715916,0.000000000
26.398000000,0.312389732,-1.338165142,1.495879873,0.000000000,0.195558439,0.000000000
26.420000000,0.311464136,-1.338383892,1.496121518,0.000000000,0.195402569,0.000000000
26.440000000,0.310528465,-1.338605023,1.496365793,0.000000000,0.195245002,0.000000000
26.460000000,0.309593057,-1.338826092,1.496609999,0.000000000,0.195087479,0.000000000
26.480000000,0.308657886,-1.339047105,1.496854144,0.000000000,0.194929996,0.000000000
26.500000000,0.307722928,-1.339268067,1.497098233,0.000000000,0.194772549,0.000000000
26.520000000,0.306788163,-1.339488985,1.497342271,0.000000000,0.194615134,0.000000000
26.540000000,0.305853569,-1.339709861,1.497586265,0.000000000,0.194457749,0.000000000
26.558000000,0.304919132,-1.339930701,1.497830218,0.000000000,0.194300389,0.000000000
26.580000000,0.303994164,-1.340149302,1.498071699,0.000000000,0.194144625,0.000000000
26.600000000,0.303059059,-1.340370299,1.498315826,0.000000000,0.193987153,0.000000000
26.620000000,0.302124161,-1.340591248,1.498559899,0.000000000,0.193829716,0.000000000
26.640000000,0.301189448,-1.340812152,1.498803924,0.000000000,0.193672310,0.000000000
26.660000000,0.300254903,-1.341033017,1.499047905,0.000000000,0.193514933,0.000000000
26.679000000,0.299320509,-1.341253847,1.499291847,0.000000000,0.193357581,0.000000000
26.699000000,0.298390915,-1.341473542,1.499534535,0.000000000,0.193201037,0.000000000
26.720000000,0.297460977,-1.341693318,1.499777314,0.000000000,0.193044436,0.000000000
26.740000000,0.296526063,-1.341914270,1.500021391,0.000000000,0.192886996,0.000000000
26.760000000,0.295591337,-1.342135178,1.500265419,0.000000000,0.192729588,0.000000000
26.780000000,0.294656780,-1.342356046,1.500509403,0.000000000,0.192572208,0.000000000
26.800000000,0.293722375,-1.342576878,1.500753348,0.000000000,0.192414855,0.000000000
26.820000000,0.292788106,-1.342797678,1.500997257,0.000000000,0.192257524,0.000000000
26.840000000,0.291853960,-1.343018448,1.501241134,0.000000000,0.192100213,0.000000000
26.859000000,0.290919925,-1.343239193,1.501484982,0.000000000,0.191942922,0.000000000
26.880000000,0.289990654,-1.343458811,1.501727586,0.000000000,0.191786433,0.000000000
26.900000000,0.289056342,-1.343679621,1.501971506,0.000000000,0.191629094,0.000000000
26.920000000,0.288122157,-1.343900401,1.502215393,0.000000000,0.191471777,0.000000000
26.940000000,0.287188087,-1.344121154,1.502459250,0.000000000,0.191314480,0.000000000
26.960000000,0.286254119,-1.344341882,1.502703081,0.000000000,0.191157200,0.000000000
26.980000000,0.285320245,-1.344562589,1.502946887,0.000000000,0.190999935,0.000000000
27.000000000,0.284386454,-1.344783276,1.503190671,0.000000000,0.190842685,0.000000000
27.020000000,0.283452738,-1.345003945,1.503434435,0.000000000,0.190685447,0.000000000
27.040000000,0.282519090,-1.345224598,1.503678182,0.000000000,0.190528220,0.000000000
27.060000000,0.281585503,-1.345445236,1.503921913,0.000000000,0.190371004,0.000000000
27.080000000,0.280651971,-1.345665862,1.504165630,0.000000000,0.190213797,0.000000000
27.100000000,0.279718488,-1.345886476,1.504409334,0.000000000,0.190056599,0.000000000
27.120000000,0.278785049,-1.346107079,1.504653026,0.000000000,0.189899408,0.000000000
27.140000000,0.277851651,-1.346327673,1.504896708,0.000000000,0.189742223,0.000000000
