Omar-H-Khedr/robotics_project/ros2_ws/install/experiment_manager/lib/python3.12/site-packages/results/baseline_trials/trial_20260514_180346/joint_states.csv
ros_time_sec,joint_1,joint_2,joint_3,joint_4,joint_5,joint_6
1.620000000,-0.000000000,-0.799999996,1.200000001,0.000000005,0.799999996,-0.000000001
1.640000000,-0.000000000,-0.799999996,1.200000001,0.000000004,0.799999996,-0.000000000
1.660000000,-0.000000000,-0.799999997,1.200000001,0.000000004,0.799999997,-0.000000000
1.680000000,-0.000000000,-0.799999997,1.200000001,0.000000003,0.799999997,-0.000000000
1.700000000,-0.000000000,-0.799999997,1.200000001,0.000000003,0.799999997,-0.000000000
1.720000000,-0.000000000,-0.799999997,1.200000001,0.000000003,0.799999997,-0.000000000
1.740000000,-0.000000000,-0.799999998,1.200000000,0.000000002,0.799999998,-0.000000000
1.760000000,-0.000000000,-0.799999998,1.200000000,0.000000002,0.799999998,-0.000000000
1.780000000,-0.000000000,-0.799999998,1.200000000,0.000000002,0.799999998,-0.000000000
1.800000000,-0.000000000,-0.799999998,1.200000000,0.000000002,0.799999998,-0.000000000
1.820000000,-0.000000000,-0.799999999,1.200000000,0.000000002,0.799999999,-0.000000000
1.840000000,-0.000000000,-0.799999999,1.200000000,0.000000001,0.799999999,-0.000000000
1.860000000,-0.000000000,-0.799999999,1.200000000,0.000000001,0.799999999,-0.000000000
1.880000000,-0.000000000,-0.799999999,1.200000000,0.000000001,0.799999999,-0.000000000
1.899000000,-0.000000000,-0.799999999,1.200000000,0.000000001,0.799999999,-0.000000000
1.920000000,-0.000000000,-0.799999999,1.200000000,0.000000001,0.799999999,-0.000000000
1.940000000,-0.000000000,-0.799999999,1.200000000,0.000000001,0.799999999,-0.000000000
1.960000000,-0.000000000,-0.799999999,1.200000000,0.000000001,0.799999999,-0.000000000
1.980000000,-0.000000000,-0.799999999,1.200000000,0.000000001,0.799999999,-0.000000000
2.000000000,-0.000000000,-0.799999999,1.200000000,0.000000001,0.799999999,-0.000000000
2.015000000,-0.000000000,-0.799999999,1.200000000,0.000000001,0.799999999,-0.000000000
2.039000000,-0.000000000,-0.800000000,1.200000000,0.000000001,0.800000000,-0.000000000
2.059000000,-0.000000000,-0.800000000,1.200000000,0.000000000,0.800000000,-0.000000000
2.080000000,-0.000000000,-0.800000000,1.200000000,0.000000000,0.800000000,-0.000000000
2.100000000,-0.000000000,-0.800000000,1.200000000,0.000000000,0.800000000,-0.000000000
2.120000000,-0.000000000,-0.800000000,1.200000000,0.000000000,0.800000000,-0.000000000
2.140000000,-0.000000000,-0.800000000,1.200000000,0.000000000,0.800000000,-0.000000000
2.160000000,-0.000000000,-0.800000000,1.200000000,0.000000000,0.800000000,-0.000000000
2.180000000,-0.000000000,-0.800000000,1.200000000,0.000000000,0.800000000,-0.000000000
2.200000000,-0.000000000,-0.800000000,1.200000000,0.000000000,0.800000000,-0.000000000
2.218000000,-0.000000000,-0.800000000,1.200000000,0.000000000,0.800000000,-0.000000000
2.240000000,-0.000000000,-0.800000000,1.200000000,0.000000000,0.800000000,-0.000000000
2.260000000,-0.000000000,-0.800000000,1.200000000,0.000000000,0.800000000,-0.000000000
2.280000000,-0.000000000,-0.800000000,1.200000000,0.000000000,0.800000000,-0.000000000
2.300000000,-0.000000000,-0.800000000,1.200000000,0.000000000,0.800000000,-0.000000000
2.320000000,-0.000000000,-0.800000000,1.200000000,0.000000000,0.800000000,-0.000000000
2.340000000,-0.000000000,-0.800000000,1.200000000,0.000000000,0.800000000,-0.000000000
2.360000000,-0.000000000,-0.800000000,1.200000000,0.000000000,0.800000000,-0.000000000
2.380000000,-0.000000000,-0.800000000,1.200000000,0.000000000,0.800000000,-0.000000000
2.400000000,-0.000000000,-0.800000000,1.200000000,0.000000000,0.800000000,-0.000000000
2.420000000,-0.000000000,-0.800000000,1.200000000,0.000000000,0.800000000,-0.000000000
2.440000000,-0.000000000,-0.800000000,1.200000000,0.000000000,0.800000000,-0.000000000
2.460000000,-0.000000000,-0.800000000,1.200000000,0.000000000,0.800000000,-0.000000000
2.479000000,-0.000000000,-0.800000000,1.200000000,0.000000000,0.800000000,-0.000000000
2.500000000,-0.000000000,-0.800000000,1.200000000,0.000000000,0.800000000,-0.000000000
2.520000000,-0.000000000,-0.800000000,1.200000000,0.000000000,0.800000000,-0.000000000
2.540000000,-0.000000000,-0.800000000,1.200000000,0.000000000,0.800000000,-0.000000000
2.560000000,-0.000000000,-0.800000000,1.200000000,0.000000000,0.800000000,-0.000000000
2.579000000,-0.000000000,-0.800000000,1.200000000,0.000000000,0.800000000,-0.000000000
2.600000000,-0.000000000,-0.800000000,1.200000000,0.000000000,0.800000000,-0.000000000
2.620000000,-0.000000000,-0.800000000,1.200000000,0.000000000,0.800000000,-0.000000000
2.640000000,-0.000000000,-0.800000000,1.200000000,0.000000000,0.800000000,-0.000000000
2.660000000,-0.000000000,-0.800000000,1.200000000,0.000000000,0.800000000,-0.000000000
2.680000000,-0.000000000,-0.800000000,1.200000000,0.000000000,0.800000000,0.000000000
2.700000000,-0.000000000,-0.800000000,1.200000000,0.000000000,0.800000000,0.000000000
2.720000000,-0.000000000,-0.800000000,1.200000000,0.000000000,0.800000000,0.000000000
2.737000000,-0.000000000,-0.800000000,1.200000000,0.000000000,0.800000000,0.000000000
2.758000000,-0.000000000,-0.800000000,1.200000000,0.000000000,0.800000000,0.000000000
2.780000000,-0.000000000,-0.800000000,1.200000000,0.000000000,0.800000000,0.000000000
2.800000000,-0.000000000,-0.800000000,1.200000000,0.000000000,0.800000000,0.000000000
2.819000000,-0.000000000,-0.800000000,1.200000000,0.000000000,0.800000000,0.000000000
2.840000000,-0.000000000,-0.800000000,1.200000000,0.000000000,0.800000000,0.000000000
2.860000000,-0.000000000,-0.800000000,1.200000000,0.000000000,0.800000000,0.000000000
2.880000000,-0.000000000,-0.800000000,1.200000000,0.000000000,0.800000000,0.000000000
2.900000000,-0.000000000,-0.800000000,1.200000000,0.000000000,0.800000000,0.000000000
2.920000000,-0.000000000,-0.800000000,1.200000000,0.000000000,0.800000000,0.000000000
2.940000000,-0.000000000,-0.800000000,1.200000000,0.000000000,0.800000000,0.000000000
2.960000000,-0.000000000,-0.800000000,1.200000000,0.000000000,0.800000000,0.000000000
2.980000000,-0.000000000,-0.800000000,1.200000000,0.000000000,0.800000000,0.000000000
3.000000000,-0.000000000,-0.800000000,1.200000000,0.000000000,0.800000000,0.000000000
3.020000000,-0.000000000,-0.800000000,1.200000000,0.000000000,0.800000000,0.000000000
3.040000000,-0.000000000,-0.800000000,1.200000000,0.000000000,0.800000000,0.000000000
3.060000000,-0.000000000,-0.800000000,1.200000000,0.000000000,0.800000000,0.000000000
3.080000000,-0.000000000,-0.800000000,1.200000000,0.000000000,0.800000000,0.000000000
3.100000000,-0.000000000,-0.800000000,1.200000000,0.000000000,0.800000000,0.000000000
3.120000000,-0.000000000,-0.800000000,1.200000000,0.000000000,0.800000000,0.000000000
3.140000000,-0.000000000,-0.800000000,1.200000000,0.000000000,0.800000000,0.000000000
3.160000000,-0.000000000,-0.800000000,1.200000000,0.000000000,0.800000000,0.000000000
3.180000000,-0.000000000,-0.800000000,1.200000000,0.000000000,0.800000000,0.000000000
3.200000000,-0.000000000,-0.800000000,1.200000000,0.000000000,0.800000000,0.000000000
3.220000000,-0.000000000,-0.800000000,1.200000000,0.000000000,0.800000000,0.000000000
3.239000000,-0.000000000,-0.800000000,1.200000000,0.000000000,0.800000000,0.000000000
3.260000000,-0.000000000,-0.800000000,1.200000000,0.000000000,0.800000000,0.000000000
3.280000000,-0.000000000,-0.800000000,1.200000000,0.000000000,0.800000000,0.000000000
3.300000000,-0.000000000,-0.800000000,1.200000000,0.000000000,0.800000000,0.000000000
3.320000000,-0.000000000,-0.800000000,1.200000000,0.000000000,0.800000000,0.000000000
3.340000000,-0.000000000,-0.800000000,1.200000000,0.000000000,0.800000000,0.000000000
3.360000000,-0.000000000,-0.800000000,1.200000000,0.000000000,0.800000000,0.000000000
3.380000000,-0.000000000,-0.800000000,1.200000000,0.000000000,0.800000000,0.000000000
3.400000000,-0.000000000,-0.800000000,1.200000000,0.000000000,0.800000000,0.000000000
3.419000000,-0.000000000,-0.800000000,1.200000000,0.000000000,0.800000000,0.000000000
3.438000000,-0.000000000,-0.800000000,1.200000000,0.000000000,0.800000000,0.000000000
3.458000000,-0.000000000,-0.800000000,1.200000000,0.000000000,0.800000000,0.000000000
3.480000000,-0.000000000,-0.800000000,1.200000000,0.000000000,0.800000000,0.000000000
3.500000000,-0.000000000,-0.800000000,1.200000000,0.000000000,0.800000000,0.000000000
3.520000000,-0.000000000,-0.800000000,1.200000000,0.000000000,0.800000000,0.000000000
3.539000000,-0.000000000,-0.800000000,1.200000000,0.000000000,0.800000000,0.000000000
3.560000000,-0.000000000,-0.800000000,1.200000000,0.000000000,0.800000000,0.000000000
3.580000000,-0.000000000,-0.800000000,1.200000000,0.000000000,0.800000000,0.000000000
3.600000000,-0.000000000,-0.800000000,1.200000000,0.000000000,0.800000000,0.000000000
3.620000000,-0.000000000,-0.800000000,1.200000000,0.000000000,0.800000000,0.000000000
3.640000000,-0.000000000,-0.800000000,1.200000000,0.000000000,0.800000000,0.000000000
3.660000000,-0.000000000,-0.800000000,1.200000000,0.000000000,0.800000000,0.000000000
3.680000000,-0.000000000,-0.800000000,1.200000000,0.000000000,0.800000000,0.000000000
3.700000000,-0.000000000,-0.800000000,1.200000000,0.000000000,0.800000000,0.000000000
3.720000000,-0.000000000,-0.800000000,1.200000000,0.000000000,0.800000000,0.000000000
3.740000000,-0.000000000,-0.800000000,1.200000000,0.000000000,0.800000000,0.000000000
3.760000000,-0.000000000,-0.800000000,1.200000000,0.000000000,0.800000000,0.000000000
3.778000000,-0.000000000,-0.800000000,1.200000000,0.000000000,0.800000000,0.000000000
3.800000000,-0.000000000,-0.800000000,1.200000000,0.000000000,0.800000000,0.000000000
3.820000000,-0.000000000,-0.800000000,1.200000000,0.000000000,0.800000000,0.000000000
3.840000000,-0.000000000,-0.800000000,1.200000000,0.000000000,0.800000000,0.000000000
3.860000000,-0.000000000,-0.800000000,1.200000000,0.000000000,0.800000000,0.000000000
3.880000000,-0.000000000,-0.800000000,1.200000000,0.000000000,0.800000000,0.000000000
3.900000000,-0.000000000,-0.800000000,1.200000000,0.000000000,0.800000000,0.000000000
3.920000000,-0.000000000,-0.800000000,1.200000000,0.000000000,0.800000000,0.000000000
3.939000000,-0.000000000,-0.800000000,1.200000000,0.000000000,0.800000000,0.000000000
3.960000000,-0.000000000,-0.800000000,1.200000000,0.000000000,0.800000000,0.000000000
3.980000000,-0.000000000,-0.800000000,1.200000000,0.000000000,0.800000000,0.000000000
4.000000000,-0.000000000,-0.800000000,1.200000000,0.000000000,0.800000000,0.000000000
4.019000000,-0.000000000,-0.800000000,1.200000000,0.000000000,0.800000000,0.000000000
4.040000000,-0.000000000,-0.800000000,1.200000000,0.000000000,0.800000000,0.000000000
4.060000000,-0.000000000,-0.800000000,1.200000000,0.000000000,0.800000000,0.000000000
4.080000000,-0.000000000,-0.800000000,1.200000000,0.000000000,0.800000000,0.000000000
4.100000000,-0.000000000,-0.800000000,1.200000000,0.000000000,0.800000000,0.000000000
4.119000000,-0.000000000,-0.800000000,1.200000000,0.000000000,0.800000000,0.000000000
4.140000000,-0.000000000,-0.800000000,1.200000000,0.000000000,0.800000000,0.000000000
4.160000000,-0.000000000,-0.800000000,1.200000000,0.000000000,0.800000000,0.000000000
4.180000000,-0.000000000,-0.800000000,1.200000000,0.000000000,0.800000000,0.000000000
4.200000000,-0.000000000,-0.800000000,1.200000000,0.000000000,0.800000000,0.000000000
4.220000000,-0.000000000,-0.800000000,1.200000000,0.000000000,0.800000000,0.000000000
4.240000000,-0.000000000,-0.800000000,1.200000000,0.000000000,0.800000000,0.000000000
4.260000000,-0.000000000,-0.800000000,1.200000000,0.000000000,0.800000000,0.000000000
4.280000000,-0.000000000,-0.800000000,1.200000000,0.000000000,0.800000000,0.000000000
4.300000000,-0.000000000,-0.800000000,1.200000000,0.000000000,0.800000000,0.000000000
4.320000000,-0.000000000,-0.800000000,1.200000000,0.000000000,0.800000000,0.000000000
4.340000000,-0.000000000,-0.800000000,1.200000000,0.000000000,0.800000000,0.000000000
4.360000000,-0.000000000,-0.800000000,1.200000000,0.000000000,0.800000000,0.000000000
4.379000000,-0.000000000,-0.800000000,1.200000000,0.000000000,0.800000000,0.000000000
4.400000000,-0.000000000,-0.800000000,1.200000000,0.000000000,0.800000000,0.000000000
4.420000000,-0.000000000,-0.800000000,1.200000000,0.000000000,0.800000000,0.000000000
4.440000000,-0.000000000,-0.800000000,1.200000000,0.000000000,0.800000000,0.000000000
4.460000000,-0.000000000,-0.800000000,1.200000000,0.000000000,0.800000000,0.000000000
4.480000000,-0.000000000,-0.800000000,1.200000000,0.000000000,0.800000000,0.000000000
4.499000000,-0.000000000,-0.800000000,1.200000000,0.000000000,0.800000000,0.000000000
4.520000000,-0.000000000,-0.800000000,1.200000000,0.000000000,0.800000000,0.000000000
4.537000000,-0.000000000,-0.800000000,1.200000000,0.000000000,0.800000000,0.000000000
4.559000000,-0.000000000,-0.800000000,1.200000000,0.000000000,0.800000000,0.000000000
4.580000000,-0.000000000,-0.800000000,1.200000000,0.000000000,0.800000000,0.000000000
4.600000000,-0.000000000,-0.800000000,1.200000000,0.000000000,0.800000000,0.000000000
4.620000000,-0.000000000,-0.800000000,1.200000000,0.000000000,0.800000000,0.000000000
4.640000000,-0.000000000,-0.800000000,1.200000000,0.000000000,0.800000000,0.000000000
4.660000000,-0.000000000,-0.800000000,1.200000000,0.000000000,0.800000000,0.000000000
4.680000000,-0.000000000,-0.800000000,1.200000000,0.000000000,0.800000000,0.000000000
4.700000000,-0.000000000,-0.800000000,1.200000000,0.000000000,0.800000000,0.000000000
4.720000000,-0.000000000,-0.800000000,1.200000000,0.000000000,0.800000000,0.000000000
4.740000000,-0.000000000,-0.800000000,1.200000000,0.000000000,0.800000000,0.000000000
4.760000000,-0.000000000,-0.800000000,1.200000000,0.000000000,0.800000000,0.000000000
4.780000000,-0.000000000,-0.800000000,1.200000000,0.000000000,0.800000000,0.000000000
4.800000000,-0.000000000,-0.800000000,1.200000000,0.000000000,0.800000000,0.000000000
4.819000000,-0.000000000,-0.800000000,1.200000000,0.000000000,0.800000000,0.000000000
4.840000000,-0.000000000,-0.800000000,1.200000000,0.000000000,0.800000000,0.000000000
4.860000000,-0.000000000,-0.800000000,1.200000000,0.000000000,0.800000000,0.000000000
4.880000000,-0.000000000,-0.800000000,1.200000000,0.000000000,0.800000000,0.000000000
4.900000000,-0.000000000,-0.800000000,1.200000000,0.000000000,0.800000000,0.000000000
4.920000000,-0.000000000,-0.800000000,1.200000000,0.000000000,0.800000000,0.000000000
4.940000000,-0.000000000,-0.800000000,1.200000000,0.000000000,0.800000000,0.000000000
4.960000000,-0.000000000,-0.800000000,1.200000000,0.000000000,0.800000000,0.000000000
4.980000000,-0.000000000,-0.800000000,1.200000000,0.000000000,0.800000000,0.000000000
5.000000000,-0.000000000,-0.800000000,1.200000000,0.000000000,0.800000000,0.000000000
5.020000000,-0.000000000,-0.800000000,1.200000000,0.000000000,0.800000000,0.000000000
5.040000000,-0.000000000,-0.800000000,1.200000000,0.000000000,0.800000000,0.000000000
5.060000000,-0.000000000,-0.800000000,1.200000000,0.000000000,0.800000000,0.000000000
5.080000000,-0.000000000,-0.800000000,1.200000000,0.000000000,0.800000000,0.000000000
5.100000000,-0.000000000,-0.800000000,1.200000000,0.000000000,0.800000000,0.000000000
5.120000000,-0.000000000,-0.800000000,1.200000000,0.000000000,0.800000000,0.000000000
5.140000000,-0.000000000,-0.800000000,1.200000000,0.000000000,0.800000000,0.000000000
5.159000000,-0.000000000,-0.800000000,1.200000000,0.000000000,0.800000000,0.000000000
5.180000000,-0.000000000,-0.800000000,1.200000000,0.000000000,0.800000000,0.000000000
5.200000000,-0.000000000,-0.800000000,1.200000000,0.000000000,0.800000000,0.000000000
5.219000000,-0.000000000,-0.800000000,1.200000000,0.000000000,0.800000000,0.000000000
5.240000000,-0.000000000,-0.800000000,1.200000000,0.000000000,0.800000000,0.000000000
5.260000000,-0.000000000,-0.800000000,1.200000000,0.000000000,0.800000000,0.000000000
5.280000000,-0.000000000,-0.800000000,1.200000000,0.000000000,0.800000000,0.000000000
5.300000000,-0.000000000,-0.800000000,1.200000000,0.000000000,0.800000000,0.000000000
5.320000000,-0.000000000,-0.800000000,1.200000000,0.000000000,0.800000000,0.000000000
5.340000000,-0.000000000,-0.800000000,1.200000000,0.000000000,0.800000000,0.000000000
5.360000000,-0.000000000,-0.800000000,1.200000000,0.000000000,0.800000000,0.000000000
5.380000000,-0.000000000,-0.800000000,1.200000000,0.000000000,0.800000000,0.000000000
5.400000000,-0.000000000,-0.800000000,1.200000000,0.000000000,0.800000000,0.000000000
5.419000000,-0.000000000,-0.800000000,1.200000000,0.000000000,0.800000000,0.000000000
5.440000000,-0.000000000,-0.800000000,1.200000000,0.000000000,0.800000000,0.000000000
5.460000000,-0.000000000,-0.800000000,1.200000000,0.000000000,0.800000000,0.000000000
5.479000000,-0.000000000,-0.800000000,1.200000000,0.000000000,0.800000000,0.000000000
5.500000000,-0.000000000,-0.800000000,1.200000000,0.000000000,0.800000000,0.000000000
5.520000000,-0.000000000,-0.800000000,1.200000000,0.000000000,0.800000000,0.000000000
5.540000000,-0.000000000,-0.800000000,1.200000000,0.000000000,0.800000000,0.000000000
5.560000000,-0.000000000,-0.800000000,1.200000000,0.000000000,0.800000000,0.000000000
5.580000000,-0.000000000,-0.800000000,1.200000000,0.000000000,0.800000000,0.000000000
5.600000000,-0.000000000,-0.800000000,1.200000000,0.000000000,0.800000000,0.000000000
5.620000000,-0.000000000,-0.800000000,1.200000000,0.000000000,0.800000000,0.000000000
5.640000000,-0.000000000,-0.800000000,1.200000000,0.000000000,0.800000000,0.000000000
5.660000000,-0.000000000,-0.800000000,1.200000000,0.000000000,0.800000000,0.000000000
5.680000000,-0.000000000,-0.800000000,1.200000000,0.000000000,0.800000000,0.000000000
5.700000000,-0.000000000,-0.800000000,1.200000000,0.000000000,0.800000000,0.000000000
5.720000000,-0.000000000,-0.800000000,1.200000000,0.000000000,0.800000000,0.000000000
5.740000000,-0.000000000,-0.800000000,1.200000000,0.000000000,0.800000000,0.000000000
5.760000000,-0.000000000,-0.800000000,1.200000000,0.000000000,0.800000000,0.000000000
5.780000000,-0.000000000,-0.800000000,1.200000000,0.000000000,0.800000000,0.000000000
5.800000000,-0.000000000,-0.800000000,1.200000000,0.000000000,0.800000000,0.000000000
5.820000000,-0.000000000,-0.800000000,1.200000000,0.000000000,0.800000000,0.000000000
5.840000000,-0.000000000,-0.800000000,1.200000000,0.000000000,0.800000000,0.000000000
5.860000000,-0.000000000,-0.800000000,1.200000000,0.000000000,0.800000000,0.000000000
5.880000000,-0.000000000,-0.800000000,1.200000000,0.000000000,0.800000000,0.000000000
5.900000000,-0.000000000,-0.800000000,1.200000000,0.000000000,0.800000000,0.000000000
5.920000000,-0.000000000,-0.800000000,1.200000000,0.000000000,0.800000000,0.000000000
5.940000000,-0.000000000,-0.800000000,1.200000000,0.000000000,0.800000000,0.000000000
5.960000000,0.000000000,-0.800000000,1.200000000,0.000000000,0.800000000,0.000000000
5.980000000,0.000000000,-0.800000000,1.200000000,0.000000000,0.800000000,0.000000000
6.000000000,0.000000000,-0.800000000,1.200000000,0.000000000,0.800000000,0.000000000
6.020000000,0.000000000,-0.800000000,1.200000000,0.000000000,0.800000000,0.000000000
6.039000000,0.000000000,-0.800000000,1.200000000,0.000000000,0.800000000,0.000000000
6.060000000,0.000000000,-0.800000000,1.200000000,0.000000000,0.800000000,0.000000000
6.080000000,0.000000000,-0.800000000,1.200000000,0.000000000,0.800000000,0.000000000
6.100000000,0.000000000,-0.800000000,1.200000000,0.000000000,0.800000000,0.000000000
6.120000000,0.000000000,-0.800000000,1.200000000,0.000000000,0.800000000,0.000000000
6.140000000,0.000000000,-0.800000000,1.200000000,0.000000000,0.800000000,0.000000000
6.160000000,0.000000000,-0.800000000,1.200000000,0.000000000,0.800000000,0.000000000
6.180000000,0.000000000,-0.800000000,1.200000000,0.000000000,0.800000000,0.000000000
6.200000000,0.000000000,-0.800000000,1.200000000,0.000000000,0.800000000,0.000000000
6.220000000,0.000000000,-0.800000000,1.200000000,0.000000000,0.800000000,0.000000000
6.240000000,0.000000000,-0.800000000,1.200000000,0.000000000,0.800000000,0.000000000
6.260000000,0.000000000,-0.800000000,1.200000000,0.000000000,0.800000000,0.000000000
6.280000000,0.000000000,-0.800000000,1.200000000,0.000000000,0.800000000,0.000000000
6.300000000,0.000000000,-0.800000000,1.200000000,0.000000000,0.800000000,0.000000000
6.320000000,0.000000000,-0.800000000,1.200000000,0.000000000,0.800000000,0.000000000
6.340000000,0.000000000,-0.800000000,1.200000000,0.000000000,0.800000000,0.000000000
6.360000000,0.000000000,-0.800000000,1.200000000,0.000000000,0.800000000,0.000000000
6.380000000,0.000000000,-0.800000000,1.200000000,0.000000000,0.800000000,0.000000000
6.400000000,0.000000000,-0.800000000,1.200000000,0.000000000,0.800000000,0.000000000
6.420000000,0.000000000,-0.800000000,1.200000000,0.000000000,0.800000000,0.000000000
6.440000000,0.000000000,-0.800000000,1.200000000,0.000000000,0.800000000,0.000000000
6.460000000,0.000000000,-0.800000000,1.200000000,0.000000000,0.800000000,0.000000000
6.480000000,0.000000000,-0.800000000,1.200000000,0.000000000,0.800000000,0.000000000
6.500000000,0.000000000,-0.800000000,1.200000000,0.000000000,0.800000000,0.000000000
6.520000000,0.000000000,-0.800000000,1.200000000,0.000000000,0.800000000,0.000000000
6.540000000,0.000000000,-0.800000000,1.200000000,0.000000000,0.800000000,0.000000000
6.560000000,0.000000000,-0.800000000,1.200000000,0.000000000,0.800000000,0.000000000
6.580000000,0.000000000,-0.800000000,1.200000000,0.000000000,0.800000000,0.000000000
6.600000000,0.000000000,-0.800000000,1.200000000,0.000000000,0.800000000,0.000000000
6.620000000,0.000000000,-0.800000000,1.200000000,0.000000000,0.800000000,0.000000000
6.640000000,0.000000000,-0.800000000,1.200000000,0.000000000,0.800000000,0.000000000
6.660000000,0.000000000,-0.800000000,1.200000000,0.000000000,0.800000000,0.000000000
6.680000000,0.000000000,-0.800000000,1.200000000,0.000000000,0.800000000,0.000000000
6.700000000,0.000000000,-0.800000000,1.200000000,0.000000000,0.800000000,0.000000000
6.720000000,0.000000000,-0.800000000,1.200000000,0.000000000,0.800000000,0.000000000
6.740000000,0.000000000,-0.800000000,1.200000000,0.000000000,0.800000000,0.000000000
6.760000000,0.000000000,-0.800000000,1.200000000,0.000000000,0.800000000,0.000000000
6.779000000,0.000000000,-0.800000000,1.200000000,0.000000000,0.800000000,0.000000000
6.800000000,0.000000000,-0.800000000,1.200000000,0.000000000,0.800000000,0.000000000
6.820000000,0.000000000,-0.800000000,1.200000000,0.000000000,0.800000000,0.000000000
6.840000000,0.000000000,-0.800000000,1.200000000,0.000000000,0.800000000,0.000000000
6.860000000,0.000000000,-0.800000000,1.200000000,0.000000000,0.800000000,0.000000000
6.880000000,0.000000000,-0.800000000,1.200000000,0.000000000,0.800000000,0.000000000
6.900000000,0.000000000,-0.800000000,1.200000000,0.000000000,0.800000000,0.000000000
6.919000000,0.000000000,-0.800000000,1.200000000,0.000000000,0.800000000,0.000000000
6.940000000,0.000000000,-0.800000000,1.200000000,0.000000000,0.800000000,0.000000000
6.960000000,0.000000000,-0.800000000,1.200000000,0.000000000,0.800000000,0.000000000
6.980000000,0.000000000,-0.800000000,1.200000000,0.000000000,0.800000000,0.000000000
7.000000000,0.000000000,-0.800000000,1.200000000,0.000000000,0.800000000,0.000000000
7.020000000,0.000000000,-0.800000000,1.200000000,0.000000000,0.800000000,0.000000000
7.040000000,0.000000000,-0.800000000,1.200000000,0.000000000,0.800000000,0.000000000
7.060000000,0.000000000,-0.800000000,1.200000000,0.000000000,0.800000000,0.000000000
7.080000000,0.000000000,-0.800000000,1.200000000,0.000000000,0.800000000,0.000000000
7.100000000,0.000000000,-0.800000000,1.200000000,0.000000000,0.800000000,0.000000000
7.120000000,0.000000000,-0.800000000,1.200000000,0.000000000,0.800000000,0.000000000
7.140000000,0.000000000,-0.800000000,1.200000000,0.000000000,0.800000000,0.000000000
7.160000000,0.000000000,-0.800000000,1.200000000,0.000000000,0.800000000,0.000000000
7.180000000,0.000000000,-0.800000000,1.200000000,0.000000000,0.800000000,0.000000000
7.200000000,0.000000000,-0.800000000,1.200000000,0.000000000,0.800000000,0.000000000
7.220000000,0.000000000,-0.800000000,1.200000000,0.000000000,0.800000000,0.000000000
7.240000000,0.000000000,-0.800000000,1.200000000,0.000000000,0.800000000,0.000000000
7.260000000,0.000000000,-0.800000000,1.200000000,0.000000000,0.800000000,0.000000000
7.280000000,0.000000000,-0.800000000,1.200000000,0.000000000,0.800000000,0.000000000
7.300000000,0.000000000,-0.800000000,1.200000000,0.000000000,0.800000000,0.000000000
7.320000000,0.000000000,-0.800000000,1.200000000,0.000000000,0.800000000,0.000000000
7.340000000,0.000000000,-0.800000000,1.200000000,0.000000000,0.800000000,0.000000000
7.360000000,0.000000000,-0.800000000,1.200000000,0.000000000,0.800000000,0.000000000
7.380000000,0.000000000,-0.800000000,1.200000000,0.000000000,0.800000000,0.000000000
7.400000000,0.000000000,-0.800000000,1.200000000,0.000000000,0.800000000,0.000000000
7.420000000,0.000000000,-0.800000000,1.200000000,0.000000000,0.800000000,0.000000000
7.439000000,0.000000000,-0.800000000,1.200000000,0.000000000,0.800000000,0.000000000
7.460000000,0.000000000,-0.800000000,1.200000000,0.000000000,0.800000000,0.000000000
7.480000000,0.000000000,-0.800000000,1.200000000,0.000000000,0.800000000,0.000000000
7.500000000,0.000000000,-0.800000000,1.200000000,0.000000000,0.800000000,0.000000000
7.520000000,0.000000000,-0.800000000,1.200000000,0.000000000,0.800000000,0.000000000
7.540000000,0.000000000,-0.800000000,1.200000000,0.000000000,0.800000000,0.000000000
7.560000000,0.000000000,-0.800000000,1.200000000,0.000000000,0.800000000,0.000000000
7.580000000,0.000000000,-0.800000000,1.200000000,0.000000000,0.800000000,0.000000000
7.600000000,0.000000000,-0.800000000,1.200000000,0.000000000,0.800000000,0.000000000
7.620000000,0.000000000,-0.800000000,1.200000000,0.000000000,0.800000000,0.000000000
7.640000000,0.000000000,-0.800000000,1.200000000,0.000000000,0.800000000,0.000000000
7.660000000,0.000000000,-0.800000000,1.200000000,0.000000000,0.800000000,0.000000000
7.680000000,0.000000000,-0.800000000,1.200000000,0.000000000,0.800000000,0.000000000
7.700000000,0.000000000,-0.800000000,1.200000000,0.000000000,0.800000000,0.000000000
7.720000000,0.000000000,-0.800000000,1.200000000,0.000000000,0.800000000,0.000000000
7.740000000,0.000000000,-0.800000000,1.200000000,0.000000000,0.800000000,0.000000000
7.760000000,0.000000000,-0.800000000,1.200000000,0.000000000,0.800000000,0.000000000
7.779000000,0.000000000,-0.800000000,1.200000000,0.000000000,0.800000000,0.000000000
7.800000000,0.000000000,-0.800000000,1.200000000,0.000000000,0.800000000,0.000000000
7.820000000,0.000000000,-0.800000000,1.200000000,0.000000000,0.800000000,0.000000000
7.840000000,0.000000000,-0.800000000,1.200000000,0.000000000,0.800000000,0.000000000
7.860000000,0.000000000,-0.800000000,1.200000000,0.000000000,0.800000000,0.000000000
7.880000000,0.000000000,-0.800000000,1.200000000,0.000000000,0.800000000,0.000000000
7.900000000,0.000000000,-0.800000000,1.200000000,0.000000000,0.800000000,0.000000000
7.920000000,0.000000000,-0.800000000,1.200000000,0.000000000,0.800000000,0.000000000
7.940000000,0.000000000,-0.800000000,1.200000000,0.000000000,0.800000000,0.000000000
7.960000000,0.000000000,-0.800000000,1.200000000,0.000000000,0.800000000,0.000000000
7.980000000,0.000000000,-0.800000000,1.200000000,0.000000000,0.800000000,0.000000000
8.000000000,0.000000000,-0.800000000,1.200000000,0.000000000,0.800000000,0.000000000
8.020000000,0.000000000,-0.800000000,1.200000000,0.000000000,0.800000000,0.000000000
8.040000000,0.000000000,-0.800000000,1.200000000,0.000000000,0.800000000,0.000000000
8.060000000,0.000000000,-0.800000000,1.200000000,0.000000000,0.800000000,0.000000000
8.080000000,0.000000000,-0.800000000,1.200000000,0.000000000,0.800000000,0.000000000
8.100000000,0.000000000,-0.800000000,1.200000000,0.000000000,0.800000000,0.000000000
8.120000000,0.000000000,-0.800000000,1.200000000,0.000000000,0.800000000,0.000000000
8.140000000,0.000000000,-0.800000000,1.200000000,0.000000000,0.800000000,0.000000000
8.160000000,0.000000000,-0.800000000,1.200000000,0.000000000,0.800000000,0.000000000
8.180000000,0.000000000,-0.800000000,1.200000000,0.000000000,0.800000000,0.000000000
8.200000000,0.000000000,-0.800000000,1.200000000,0.000000000,0.800000000,0.000000000
8.220000000,0.000000000,-0.800000000,1.200000000,0.000000000,0.800000000,0.000000000
8.240000000,0.000000000,-0.800000000,1.200000000,0.000000000,0.800000000,0.000000000
8.260000000,0.000000000,-0.800000000,1.200000000,0.000000000,0.800000000,0.000000000
8.280000000,0.000000000,-0.800000000,1.200000000,0.000000000,0.800000000,0.000000000
8.300000000,0.000000000,-0.800000000,1.200000000,0.000000000,0.800000000,0.000000000
8.320000000,0.000000000,-0.800000000,1.200000000,0.000000000,0.800000000,0.000000000
8.340000000,0.000000000,-0.800000000,1.200000000,0.000000000,0.800000000,0.000000000
8.360000000,0.000000000,-0.800000000,1.200000000,0.000000000,0.800000000,0.000000000
8.380000000,0.000000000,-0.800000000,1.200000000,0.000000000,0.800000000,0.000000000
8.400000000,0.000000000,-0.800000000,1.200000000,0.000000000,0.800000000,0.000000000
8.420000000,0.000000000,-0.800000000,1.200000000,0.000000000,0.800000000,0.000000000
8.440000000,0.000000000,-0.800000000,1.200000000,0.000000000,0.800000000,0.000000000
8.460000000,0.000000000,-0.800000000,1.200000000,0.000000000,0.800000000,0.000000000
8.480000000,0.000000000,-0.800000000,1.200000000,0.000000000,0.800000000,0.000000000
8.499000000,0.000000000,-0.800000000,1.200000000,0.000000000,0.800000000,0.000000000
8.520000000,0.000000000,-0.800000000,1.200000000,0.000000000,0.800000000,0.000000000
8.540000000,0.000000000,-0.800000000,1.200000000,0.000000000,0.800000000,0.000000000
8.560000000,0.000000000,-0.800000000,1.200000000,0.000000000,0.800000000,0.000000000
8.580000000,0.000000000,-0.800000000,1.200000000,0.000000000,0.800000000,0.000000000
8.600000000,0.000000000,-0.800000000,1.200000000,0.000000000,0.800000000,0.000000000
8.620000000,0.000000000,-0.800000000,1.200000000,0.000000000,0.800000000,0.000000000
8.640000000,0.000000000,-0.800000000,1.200000000,0.000000000,0.800000000,0.000000000
8.660000000,0.000000000,-0.800000000,1.200000000,0.000000000,0.800000000,0.000000000
8.679000000,0.000000000,-0.800000000,1.200000000,0.000000000,0.800000000,0.000000000
8.700000000,0.000000000,-0.800000000,1.200000000,0.000000000,0.800000000,0.000000000
8.720000000,0.000000000,-0.800000000,1.200000000,0.000000000,0.800000000,0.000000000
8.740000000,0.000000000,-0.800000000,1.200000000,0.000000000,0.800000000,0.000000000
8.760000000,0.000000000,-0.800000000,1.200000000,0.000000000,0.800000000,0.000000000
8.780000000,0.000000000,-0.800000000,1.200000000,0.000000000,0.800000000,0.000000000
8.800000000,0.000000000,-0.800000000,1.200000000,0.000000000,0.800000000,0.000000000
8.820000000,0.000000000,-0.800000000,1.200000000,0.000000000,0.800000000,0.000000000
8.840000000,0.000000000,-0.800000000,1.200000000,0.000000000,0.800000000,0.000000000
8.860000000,0.000000000,-0.800000000,1.200000000,0.000000000,0.800000000,0.000000000
8.880000000,0.000000000,-0.800000000,1.200000000,0.000000000,0.800000000,0.000000000
8.900000000,0.000000000,-0.800000000,1.200000000,0.000000000,0.800000000,0.000000000
8.915000000,0.000000000,-0.800000000,1.200000000,0.000000000,0.800000000,0.000000000
8.940000000,0.000000000,-0.800000000,1.200000000,0.000000000,0.800000000,0.000000000
8.960000000,0.000000000,-0.800000000,1.200000000,0.000000000,0.800000000,0.000000000
8.980000000,0.000000000,-0.800000000,1.200000000,0.000000000,0.800000000,0.000000000
9.000000000,0.000000000,-0.800000000,1.200000000,0.000000000,0.800000000,0.000000000
9.020000000,0.000000000,-0.800000000,1.200000000,0.000000000,0.800000000,0.000000000
9.040000000,0.000000000,-0.800000000,1.200000000,0.000000000,0.800000000,0.000000000
9.060000000,0.000000000,-0.800000000,1.200000000,0.000000000,0.800000000,0.000000000
9.080000000,0.000000000,-0.800000000,1.200000000,0.000000000,0.800000000,0.000000000
9.100000000,0.000000000,-0.800000000,1.200000000,0.000000000,0.800000000,0.000000000
9.120000000,0.000000000,-0.800000000,1.200000000,0.000000000,0.800000000,0.000000000
9.140000000,0.000000000,-0.800000000,1.200000000,0.000000000,0.800000000,0.000000000
9.160000000,0.000000000,-0.800000000,1.200000000,0.000000000,0.800000000,0.000000000
9.180000000,0.000000000,-0.800000000,1.200000000,0.000000000,0.800000000,0.000000000
9.200000000,0.000000000,-0.800000000,1.200000000,0.000000000,0.800000000,0.000000000
9.220000000,0.000000000,-0.800000000,1.200000000,0.000000000,0.800000000,0.000000000
9.240000000,0.000000000,-0.800000000,1.200000000,0.000000000,0.800000000,0.000000000
9.260000000,0.000000000,-0.800000000,1.200000000,0.000000000,0.800000000,0.000000000
9.280000000,0.000000000,-0.800000000,1.200000000,0.000000000,0.800000000,0.000000000
9.300000000,0.000000000,-0.800000000,1.200000000,0.000000000,0.800000000,0.000000000
9.320000000,0.000000000,-0.800000000,1.200000000,0.000000000,0.800000000,0.000000000
9.340000000,0.000000000,-0.800000000,1.200000000,0.000000000,0.800000000,0.000000000
9.360000000,0.000000000,-0.800000000,1.200000000,0.000000000,0.800000000,0.000000000
9.380000000,0.000000000,-0.800000000,1.200000000,0.000000000,0.800000000,0.000000000
9.400000000,0.000000000,-0.800000000,1.200000000,0.000000000,0.800000000,0.000000000
9.420000000,0.000000000,-0.800000000,1.200000000,0.000000000,0.800000000,0.000000000
9.440000000,0.000000000,-0.800000000,1.200000000,0.000000000,0.800000000,0.000000000
9.460000000,0.000000000,-0.800000000,1.200000000,0.000000000,0.800000000,0.000000000
9.480000000,0.000000000,-0.800000000,1.200000000,0.000000000,0.800000000,0.000000000
9.500000000,0.000000000,-0.800000000,1.200000000,0.000000000,0.800000000,0.000000000
9.520000000,0.000000000,-0.800000000,1.200000000,0.000000000,0.800000000,0.000000000
9.540000000,0.000000000,-0.800000000,1.200000000,0.000000000,0.800000000,0.000000000
9.560000000,0.000000000,-0.800000000,1.200000000,0.000000000,0.800000000,0.000000000
9.580000000,0.000000000,-0.800000000,1.200000000,0.000000000,0.800000000,0.000000000
9.600000000,0.000000000,-0.800000000,1.200000000,0.000000000,0.800000000,0.000000000
9.620000000,0.000000000,-0.800000000,1.200000000,0.000000000,0.800000000,0.000000000
9.640000000,0.000000000,-0.800000000,1.200000000,0.000000000,0.800000000,0.000000000
9.660000000,0.000000000,-0.800000000,1.200000000,0.000000000,0.800000000,0.000000000
9.680000000,0.000000000,-0.800000000,1.200000000,0.000000000,0.800000000,0.000000000
9.700000000,0.000000000,-0.800000000,1.200000000,0.000000000,0.800000000,0.000000000
9.719000000,0.000000000,-0.800000000,1.200000000,0.000000000,0.800000000,0.000000000
9.740000000,0.000000000,-0.800000000,1.200000000,0.000000000,0.800000000,0.000000000
9.760000000,0.000000000,-0.800000000,1.200000000,0.000000000,0.800000000,0.000000000
9.780000000,0.000000000,-0.800000000,1.200000000,0.000000000,0.800000000,0.000000000
9.800000000,0.000000000,-0.800000000,1.200000000,0.000000000,0.800000000,0.000000000
9.820000000,0.000000000,-0.800000000,1.200000000,0.000000000,0.800000000,0.000000000
9.840000000,0.000000000,-0.800000000,1.200000000,0.000000000,0.800000000,0.000000000
9.860000000,0.000000000,-0.800000000,1.200000000,0.000000000,0.800000000,0.000000000
9.880000000,0.000000000,-0.800000000,1.200000000,0.000000000,0.800000000,0.000000000
9.900000000,0.000000000,-0.800000000,1.200000000,0.000000000,0.800000000,0.000000000
9.920000000,0.000000000,-0.800000000,1.200000000,0.000000000,0.800000000,0.000000000
9.940000000,0.000000000,-0.800000000,1.200000000,0.000000000,0.800000000,0.000000000
9.960000000,0.000000000,-0.800000000,1.200000000,0.000000000,0.800000000,0.000000000
9.980000000,0.000000000,-0.800000000,1.200000000,0.000000000,0.800000000,0.000000000
10.000000000,0.000000000,-0.800000000,1.200000000,0.000000000,0.800000000,0.000000000
10.020000000,0.000000000,-0.800000000,1.200000000,0.000000000,0.800000000,0.000000000
10.039000000,0.000000000,-0.800000000,1.200000000,0.000000000,0.800000000,0.000000000
10.060000000,0.000000000,-0.800000000,1.200000000,0.000000000,0.800000000,0.000000000
10.080000000,0.000000000,-0.800000000,1.200000000,0.000000000,0.800000000,0.000000000
10.100000000,0.000000000,-0.800000000,1.200000000,0.000000000,0.800000000,0.000000000
10.117000000,0.000000000,-0.800000000,1.200000000,0.000000000,0.800000000,0.000000000
10.140000000,0.000000000,-0.800000000,1.200000000,0.000000000,0.800000000,0.000000000
10.158000000,0.000000000,-0.800000000,1.200000000,0.000000000,0.800000000,0.000000000
10.180000000,0.000000000,-0.800000000,1.200000000,0.000000000,0.800000000,0.000000000
10.199000000,0.000000000,-0.800000000,1.200000000,0.000000000,0.800000000,0.000000000
10.220000000,0.000000000,-0.800000000,1.200000000,0.000000000,0.800000000,0.000000000
10.240000000,0.000000000,-0.800000000,1.200000000,0.000000000,0.800000000,0.000000000
10.260000000,0.000000000,-0.800000000,1.200000000,0.000000000,0.800000000,0.000000000
10.280000000,0.000000000,-0.800000000,1.200000000,0.000000000,0.800000000,0.000000000
10.300000000,0.000000000,-0.800000000,1.200000000,0.000000000,0.800000000,0.000000000
10.319000000,0.000000000,-0.800000000,1.200000000,0.000000000,0.800000000,0.000000000
10.340000000,0.000000000,-0.800000000,1.200000000,0.000000000,0.800000000,0.000000000
10.360000000,0.000000000,-0.800000000,1.200000000,0.000000000,0.800000000,0.000000000
10.380000000,0.000000000,-0.800000000,1.200000000,0.000000000,0.800000000,0.000000000
10.400000000,0.000000000,-0.800000000,1.200000000,0.000000000,0.800000000,0.000000000
10.420000000,0.000000000,-0.800000000,1.200000000,0.000000000,0.800000000,0.000000000
10.440000000,0.000000000,-0.800000000,1.200000000,0.000000000,0.800000000,0.000000000
10.460000000,0.000000000,-0.800000000,1.200000000,0.000000000,0.800000000,0.000000000
10.480000000,0.000000000,-0.800000000,1.200000000,0.000000000,0.800000000,0.000000000
10.500000000,0.000000000,-0.800000000,1.200000000,0.000000000,0.800000000,0.000000000
10.520000000,0.000000000,-0.800000000,1.200000000,0.000000000,0.800000000,0.000000000
10.540000000,0.000000000,-0.800000000,1.200000000,0.000000000,0.800000000,0.000000000
10.560000000,0.000000000,-0.800000000,1.200000000,0.000000000,0.800000000,0.000000000
10.580000000,0.000000000,-0.800000000,1.200000000,0.000000000,0.800000000,0.000000000
10.600000000,0.000000000,-0.800000000,1.200000000,0.000000000,0.800000000,0.000000000
10.620000000,0.000000000,-0.800000000,1.200000000,0.000000000,0.800000000,0.000000000
10.640000000,0.000000000,-0.800000000,1.200000000,0.000000000,0.800000000,0.000000000
10.660000000,0.000000000,-0.800000000,1.200000000,0.000000000,0.800000000,0.000000000
10.680000000,0.000000000,-0.800000000,1.200000000,0.000000000,0.800000000,0.000000000
10.700000000,0.000000000,-0.800000000,1.200000000,0.000000000,0.800000000,0.000000000
10.720000000,0.000000000,-0.800000000,1.200000000,0.000000000,0.800000000,0.000000000
10.740000000,0.000000000,-0.800000000,1.200000000,0.000000000,0.800000000,0.000000000
10.760000000,0.000000000,-0.800000000,1.200000000,0.000000000,0.800000000,0.000000000
10.779000000,0.000000000,-0.800000000,1.200000000,0.000000000,0.800000000,0.000000000
10.800000000,0.000000000,-0.800000000,1.200000000,0.000000000,0.800000000,0.000000000
10.820000000,0.000000000,-0.800000000,1.200000000,0.000000000,0.800000000,0.000000000
10.840000000,0.000000000,-0.800000000,1.200000000,0.000000000,0.800000000,0.000000000
10.860000000,0.000000000,-0.800000000,1.200000000,0.000000000,0.800000000,0.000000000
10.880000000,0.000000000,-0.800000000,1.200000000,0.000000000,0.800000000,0.000000000
10.899000000,0.000000000,-0.800000000,1.200000000,0.000000000,0.800000000,0.000000000
10.920000000,0.000000000,-0.800000000,1.200000000,0.000000000,0.800000000,0.000000000
10.939000000,0.000000000,-0.800000000,1.200000000,0.000000000,0.800000000,0.000000000
10.960000000,0.000000000,-0.800000000,1.200000000,0.000000000,0.800000000,0.000000000
10.980000000,0.000000000,-0.800000000,1.200000000,0.000000000,0.800000000,0.000000000
10.999000000,0.000000000,-0.800000000,1.200000000,0.000000000,0.800000000,0.000000000
11.020000000,0.000000000,-0.800000000,1.200000000,0.000000000,0.800000000,0.000000000
11.040000000,0.000000000,-0.800000000,1.200000000,0.000000000,0.800000000,0.000000000
11.060000000,0.000000000,-0.800000000,1.200000000,0.000000000,0.800000000,0.000000000
11.080000000,0.000000000,-0.800000000,1.200000000,0.000000000,0.800000000,0.000000000
11.100000000,0.000000000,-0.800000000,1.200000000,0.000000000,0.800000000,0.000000000
11.120000000,0.000000000,-0.800000000,1.200000000,0.000000000,0.800000000,0.000000000
11.140000000,0.000000000,-0.800000000,1.200000000,0.000000000,0.800000000,0.000000000
11.160000000,0.000000000,-0.800000000,1.200000000,0.000000000,0.800000000,0.000000000
11.180000000,0.000000000,-0.800000000,1.200000000,0.000000000,0.800000000,0.000000000
11.199000000,0.000000000,-0.800000000,1.200000000,0.000000000,0.800000000,0.000000000
11.220000000,0.000000000,-0.800000000,1.200000000,0.000000000,0.800000000,0.000000000
11.240000000,0.000000000,-0.800000000,1.200000000,0.000000000,0.800000000,0.000000000
11.260000000,0.000000000,-0.800000000,1.200000000,0.000000000,0.800000000,0.000000000
11.280000000,0.000000000,-0.800000000,1.200000000,0.000000000,0.800000000,0.000000000
11.300000000,0.000000000,-0.800000000,1.200000000,0.000000000,0.800000000,0.000000000
11.320000000,0.000000000,-0.800000000,1.200000000,0.000000000,0.800000000,0.000000000
11.340000000,0.000000000,-0.800000000,1.200000000,0.000000000,0.800000000,0.000000000
11.360000000,0.000000000,-0.800000000,1.200000000,0.000000000,0.800000000,0.000000000
11.380000000,0.000000000,-0.800000000,1.200000000,0.000000000,0.800000000,0.000000000
11.400000000,0.000000000,-0.800000000,1.200000000,0.000000000,0.800000000,0.000000000
11.420000000,0.000000000,-0.800000000,1.200000000,0.000000000,0.800000000,0.000000000
11.440000000,0.000000000,-0.800000000,1.200000000,0.000000000,0.800000000,0.000000000
11.460000000,0.000000000,-0.800000000,1.200000000,0.000000000,0.800000000,0.000000000
11.480000000,0.000000000,-0.800000000,1.200000000,0.000000000,0.800000000,0.000000000
11.500000000,0.000000000,-0.800000000,1.200000000,0.000000000,0.800000000,0.000000000
11.520000000,0.000000000,-0.800000000,1.200000000,0.000000000,0.800000000,0.000000000
11.540000000,0.000000000,-0.800000000,1.200000000,0.000000000,0.800000000,0.000000000
11.560000000,0.000000000,-0.800000000,1.200000000,0.000000000,0.800000000,0.000000000
11.580000000,0.000000000,-0.800000000,1.200000000,0.000000000,0.800000000,0.000000000
11.600000000,0.000000000,-0.800000000,1.200000000,0.000000000,0.800000000,0.000000000
11.620000000,0.000000000,-0.800000000,1.200000000,0.000000000,0.800000000,0.000000000
11.640000000,0.000000000,-0.800000000,1.200000000,0.000000000,0.800000000,0.000000000
11.660000000,0.000000000,-0.800000000,1.200000000,0.000000000,0.800000000,0.000000000
11.680000000,0.000000000,-0.800000000,1.200000000,0.000000000,0.800000000,0.000000000
11.700000000,0.000000000,-0.800000000,1.200000000,0.000000000,0.800000000,0.000000000
11.720000000,0.000000000,-0.800000000,1.200000000,0.000000000,0.800000000,0.000000000
11.740000000,0.000000000,-0.800000000,1.200000000,0.000000000,0.800000000,0.000000000
11.760000000,0.000000000,-0.800000000,1.200000000,0.000000000,0.800000000,0.000000000
11.780000000,0.000000000,-0.800000000,1.200000000,0.000000000,0.800000000,0.000000000
11.800000000,0.000000000,-0.800000000,1.200000000,0.000000000,0.800000000,0.000000000
11.820000000,0.000000000,-0.800000000,1.200000000,0.000000000,0.800000000,0.000000000
11.840000000,0.000000000,-0.800000000,1.200000000,0.000000000,0.800000000,0.000000000
11.860000000,0.000000000,-0.800000000,1.200000000,0.000000000,0.800000000,0.000000000
11.880000000,0.000000000,-0.800000000,1.200000000,0.000000000,0.800000000,0.000000000
11.900000000,0.000000000,-0.800000000,1.200000000,0.000000000,0.800000000,0.000000000
11.920000000,0.000000000,-0.800000000,1.200000000,0.000000000,0.800000000,0.000000000
11.940000000,0.000000000,-0.800000000,1.200000000,0.000000000,0.800000000,0.000000000
11.960000000,0.000000000,-0.800000000,1.200000000,0.000000000,0.800000000,0.000000000
11.980000000,0.000000000,-0.800000000,1.200000000,0.000000000,0.800000000,0.000000000
12.000000000,0.000000000,-0.800000000,1.200000000,0.000000000,0.800000000,0.000000000
12.020000000,0.000000000,-0.800000000,1.200000000,0.000000000,0.800000000,0.000000000
12.040000000,0.000000000,-0.800000000,1.200000000,0.000000000,0.800000000,0.000000000
12.060000000,0.000000000,-0.800000000,1.200000000,0.000000000,0.800000000,0.000000000
12.080000000,0.000000000,-0.800000000,1.200000000,0.000000000,0.800000000,0.000000000
12.100000000,0.000000000,-0.800000000,1.200000000,0.000000000,0.800000000,0.000000000
12.120000000,0.000000000,-0.800000000,1.200000000,0.000000000,0.800000000,0.000000000
12.140000000,0.000000000,-0.800000000,1.200000000,0.000000000,0.800000000,0.000000000
12.160000000,0.000000000,-0.800000000,1.200000000,0.000000000,0.800000000,0.000000000
12.180000000,0.000000000,-0.800000000,1.200000000,0.000000000,0.800000000,0.000000000
12.200000000,0.000000000,-0.800000000,1.200000000,0.000000000,0.800000000,0.000000000
12.220000000,0.000000000,-0.800000000,1.200000000,0.000000000,0.800000000,0.000000000
12.240000000,0.000000000,-0.800000000,1.200000000,0.000000000,0.800000000,0.000000000
12.260000000,0.000000000,-0.800000000,1.200000000,0.000000000,0.800000000,0.000000000
12.280000000,0.000000000,-0.800000000,1.200000000,0.000000000,0.800000000,0.000000000
12.300000000,0.000000000,-0.800000000,1.200000000,0.000000000,0.800000000,0.000000000
12.320000000,0.000000000,-0.800000000,1.200000000,0.000000000,0.800000000,0.000000000
12.337000000,0.000000000,-0.800000000,1.200000000,0.000000000,0.800000000,0.000000000
12.360000000,0.000000000,-0.800000000,1.200000000,0.000000000,0.800000000,0.000000000
12.380000000,0.000000000,-0.800000000,1.200000000,0.000000000,0.800000000,0.000000000
12.400000000,0.000000000,-0.800000000,1.200000000,0.000000000,0.800000000,0.000000000
12.420000000,0.000000000,-0.800000000,1.200000000,0.000000000,0.800000000,0.000000000
12.440000000,0.000000000,-0.800000000,1.200000000,0.000000000,0.800000000,0.000000000
12.460000000,0.000000000,-0.800000000,1.200000000,0.000000000,0.800000000,0.000000000
12.480000000,0.000000000,-0.800000000,1.200000000,0.000000000,0.800000000,0.000000000
12.500000000,0.000000000,-0.800000000,1.200000000,0.000000000,0.800000000,0.000000000
12.520000000,0.000000000,-0.800000000,1.200000000,0.000000000,0.800000000,0.000000000
12.540000000,0.000000000,-0.800000000,1.200000000,0.000000000,0.800000000,0.000000000
12.560000000,0.000000000,-0.800000000,1.200000000,0.000000000,0.800000000,0.000000000
12.580000000,0.000000000,-0.800000000,1.200000000,0.000000000,0.800000000,0.000000000
12.600000000,0.000000000,-0.800000000,1.200000000,0.000000000,0.800000000,0.000000000
12.620000000,0.000000000,-0.800000000,1.200000000,0.000000000,0.800000000,0.000000000
12.640000000,0.000000000,-0.800000000,1.200000000,0.000000000,0.800000000,0.000000000
12.660000000,0.000000000,-0.800000000,1.200000000,0.000000000,0.800000000,0.000000000
12.680000000,0.000000000,-0.800000000,1.200000000,0.000000000,0.800000000,0.000000000
12.700000000,0.000000000,-0.800000000,1.200000000,0.000000000,0.800000000,0.000000000
12.720000000,0.000000000,-0.800000000,1.200000000,0.000000000,0.800000000,0.000000000
12.740000000,0.000000000,-0.800000000,1.200000000,0.000000000,0.800000000,0.000000000
12.760000000,0.000000000,-0.800000000,1.200000000,0.000000000,0.800000000,0.000000000
12.780000000,0.000000000,-0.800000000,1.200000000,0.000000000,0.800000000,0.000000000
12.800000000,0.000000000,-0.800000000,1.200000000,0.000000000,0.800000000,0.000000000
12.820000000,0.000000000,-0.800000000,1.200000000,0.000000000,0.800000000,0.000000000
12.840000000,0.000000000,-0.800000000,1.200000000,0.000000000,0.800000000,0.000000000
12.860000000,0.000000000,-0.800000000,1.200000000,0.000000000,0.800000000,0.000000000
12.880000000,0.000000000,-0.800000000,1.200000000,0.000000000,0.800000000,0.000000000
12.900000000,0.000000000,-0.800000000,1.200000000,0.000000000,0.800000000,0.000000000
12.920000000,0.000000000,-0.800000000,1.200000000,0.000000000,0.800000000,0.000000000
12.940000000,0.000000000,-0.800000000,1.200000000,0.000000000,0.800000000,0.000000000
12.960000000,0.000000000,-0.800000000,1.200000000,0.000000000,0.800000000,0.000000000
12.980000000,0.000000000,-0.800000000,1.200000000,0.000000000,0.800000000,0.000000000
13.000000000,0.000000000,-0.800000000,1.200000000,0.000000000,0.800000000,0.000000000
13.020000000,0.000000000,-0.800000000,1.200000000,0.000000000,0.800000000,0.000000000
13.040000000,0.000000000,-0.800000000,1.200000000,0.000000000,0.800000000,0.000000000
13.060000000,0.000000000,-0.800000000,1.200000000,0.000000000,0.800000000,0.000000000
13.080000000,0.000000000,-0.800000000,1.200000000,0.000000000,0.800000000,0.000000000
13.100000000,0.000000000,-0.800000000,1.200000000,0.000000000,0.800000000,0.000000000
13.120000000,0.000000000,-0.800000000,1.200000000,0.000000000,0.800000000,0.000000000
13.140000000,0.000000000,-0.800000000,1.200000000,0.000000000,0.800000000,0.000000000
13.160000000,0.000000000,-0.800000000,1.200000000,0.000000000,0.800000000,0.000000000
13.180000000,0.000000000,-0.800000000,1.200000000,0.000000000,0.800000000,0.000000000
13.200000000,0.000000000,-0.800000000,1.200000000,0.000000000,0.800000000,0.000000000
13.220000000,0.000000000,-0.800000000,1.200000000,0.000000000,0.800000000,0.000000000
13.240000000,0.000000000,-0.800000000,1.200000000,0.000000000,0.800000000,0.000000000
13.260000000,0.000000000,-0.800000000,1.200000000,0.000000000,0.800000000,0.000000000
13.280000000,0.000000000,-0.800000000,1.200000000,0.000000000,0.800000000,0.000000000
13.300000000,0.000000000,-0.800000000,1.200000000,0.000000000,0.800000000,0.000000000
13.320000000,0.000000000,-0.800000000,1.200000000,0.000000000,0.800000000,0.000000000
13.340000000,0.000000000,-0.800000000,1.200000000,0.000000000,0.800000000,0.000000000
13.360000000,0.000000000,-0.800000000,1.200000000,0.000000000,0.800000000,0.000000000
13.380000000,0.000000000,-0.800000000,1.200000000,0.000000000,0.800000000,0.000000000
13.400000000,0.000000000,-0.800000000,1.200000000,0.000000000,0.800000000,0.000000000
13.420000000,0.000000000,-0.800000000,1.200000000,0.000000000,0.800000000,0.000000000
13.440000000,0.000000000,-0.800000000,1.200000000,0.000000000,0.800000000,0.000000000
13.460000000,0.000000000,-0.800000000,1.200000000,0.000000000,0.800000000,0.000000000
13.480000000,0.000000000,-0.800000000,1.200000000,0.000000000,0.800000000,0.000000000
13.500000000,0.000000000,-0.800000000,1.200000000,0.000000000,0.800000000,0.000000000
13.520000000,0.000000000,-0.800000000,1.200000000,0.000000000,0.800000000,0.000000000
13.540000000,0.000000000,-0.800000000,1.200000000,0.000000000,0.800000000,0.000000000
13.560000000,0.000000000,-0.800000000,1.200000000,0.000000000,0.800000000,0.000000000
13.580000000,0.000000000,-0.800000000,1.200000000,0.000000000,0.800000000,0.000000000
13.600000000,0.000000000,-0.800000000,1.200000000,0.000000000,0.800000000,0.000000000
13.620000000,0.000000000,-0.800000000,1.200000000,0.000000000,0.800000000,0.000000000
13.640000000,0.000000000,-0.800000000,1.200000000,0.000000000,0.800000000,0.000000000
13.660000000,0.000000000,-0.800000000,1.200000000,0.000000000,0.800000000,0.000000000
13.680000000,0.000000000,-0.800000000,1.200000000,0.000000000,0.800000000,0.000000000
13.700000000,0.000000000,-0.800000000,1.200000000,0.000000000,0.800000000,0.000000000
13.720000000,0.000000000,-0.800000000,1.200000000,0.000000000,0.800000000,0.000000000
13.740000000,0.000000000,-0.800000000,1.200000000,0.000000000,0.800000000,0.000000000
13.760000000,0.000000000,-0.800000000,1.200000000,0.000000000,0.800000000,0.000000000
13.780000000,0.000000000,-0.800000000,1.200000000,0.000000000,0.800000000,0.000000000
13.800000000,0.000000000,-0.800000000,1.200000000,0.000000000,0.800000000,0.000000000
13.820000000,0.000000000,-0.800000000,1.200000000,0.000000000,0.800000000,0.000000000
13.840000000,0.000000000,-0.800000000,1.200000000,0.000000000,0.800000000,0.000000000
13.860000000,0.000000000,-0.800000000,1.200000000,0.000000000,0.800000000,0.000000000
13.880000000,0.000000000,-0.800000000,1.200000000,0.000000000,0.800000000,0.000000000
13.900000000,0.000000000,-0.800000000,1.200000000,0.000000000,0.800000000,0.000000000
13.919000000,0.000000000,-0.800000000,1.200000000,0.000000000,0.800000000,0.000000000
13.940000000,0.000000000,-0.800000000,1.200000000,0.000000000,0.800000000,0.000000000
13.960000000,0.000000000,-0.800000000,1.200000000,0.000000000,0.800000000,0.000000000
13.980000000,0.000000000,-0.800000000,1.200000000,0.000000000,0.800000000,0.000000000
14.000000000,0.000000000,-0.800000000,1.200000000,0.000000000,0.800000000,0.000000000
14.020000000,0.000000000,-0.800000000,1.200000000,0.000000000,0.800000000,0.000000000
14.040000000,0.000000000,-0.800000000,1.200000000,0.000000000,0.800000000,0.000000000
14.060000000,0.000000000,-0.800000000,1.200000000,0.000000000,0.800000000,0.000000000
14.080000000,0.000000000,-0.800000000,1.200000000,0.000000000,0.800000000,0.000000000
14.099000000,0.000000000,-0.800000000,1.200000000,0.000000000,0.800000000,0.000000000
14.120000000,0.000000000,-0.800000000,1.200000000,0.000000000,0.800000000,0.000000000
14.140000000,0.000000000,-0.800000000,1.200000000,0.000000000,0.800000000,0.000000000
14.160000000,0.000000000,-0.800000000,1.200000000,0.000000000,0.800000000,0.000000000
14.180000000,0.000000000,-0.800000000,1.200000000,0.000000000,0.800000000,0.000000000
14.200000000,0.000000000,-0.800000000,1.200000000,0.000000000,0.800000000,0.000000000
14.220000000,0.000000000,-0.800000000,1.200000000,0.000000000,0.800000000,0.000000000
14.240000000,0.000000000,-0.800000000,1.200000000,0.000000000,0.800000000,0.000000000
14.260000000,0.000000000,-0.800000000,1.200000000,0.000000000,0.800000000,0.000000000
14.280000000,0.000000000,-0.800000000,1.200000000,0.000000000,0.800000000,0.000000000
14.299000000,0.000000000,-0.800000000,1.200000000,0.000000000,0.800000000,0.000000000
14.320000000,0.000000000,-0.800000000,1.200000000,0.000000000,0.800000000,0.000000000
14.340000000,0.000000000,-0.800000000,1.200000000,0.000000000,0.800000000,0.000000000
14.360000000,0.000000000,-0.800000000,1.200000000,0.000000000,0.800000000,0.000000000
14.380000000,0.000000000,-0.800000000,1.200000000,0.000000000,0.800000000,0.000000000
14.400000000,0.000000000,-0.800000000,1.200000000,0.000000000,0.800000000,0.000000000
14.420000000,0.000000000,-0.800000000,1.200000000,0.000000000,0.800000000,0.000000000
14.440000000,0.000000000,-0.800000000,1.200000000,0.000000000,0.800000000,0.000000000
14.460000000,0.000000000,-0.800000000,1.200000000,0.000000000,0.800000000,0.000000000
14.480000000,0.000000000,-0.800000000,1.200000000,0.000000000,0.800000000,0.000000000
14.500000000,0.000000000,-0.800000000,1.200000000,0.000000000,0.800000000,0.000000000
14.520000000,0.000000000,-0.800000000,1.200000000,0.000000000,0.800000000,0.000000000
14.540000000,0.000000000,-0.800000000,1.200000000,0.000000000,0.800000000,0.000000000
14.560000000,0.000000000,-0.800000000,1.200000000,0.000000000,0.800000000,0.000000000
14.580000000,0.000000000,-0.800000000,1.200000000,0.000000000,0.800000000,0.000000000
14.599000000,0.000000000,-0.800000000,1.200000000,0.000000000,0.800000000,0.000000000
14.620000000,0.000000000,-0.800000000,1.200000000,0.000000000,0.800000000,0.000000000
14.640000000,0.000000000,-0.800000000,1.200000000,0.000000000,0.800000000,0.000000000
14.660000000,0.000000000,-0.800000000,1.200000000,0.000000000,0.800000000,0.000000000
14.680000000,0.000000000,-0.800000000,1.200000000,0.000000000,0.800000000,0.000000000
14.699000000,0.000000000,-0.800000000,1.200000000,0.000000000,0.800000000,0.000000000
14.720000000,0.000000000,-0.800000000,1.200000000,0.000000000,0.800000000,0.000000000
14.740000000,0.000000000,-0.800000000,1.200000000,0.000000000,0.800000000,0.000000000
14.760000000,0.000000000,-0.800000000,1.200000000,0.000000000,0.800000000,0.000000000
14.780000000,0.000000000,-0.800000000,1.200000000,0.000000000,0.800000000,0.000000000
14.800000000,0.000000000,-0.800000000,1.200000000,0.000000000,0.800000000,0.000000000
14.818000000,0.000000000,-0.800000000,1.200000000,0.000000000,0.800000000,0.000000000
14.840000000,0.000000000,-0.800000000,1.200000000,0.000000000,0.800000000,0.000000000
14.860000000,0.000000000,-0.800000000,1.200000000,0.000000000,0.800000000,0.000000000
14.879000000,0.000000000,-0.800000000,1.200000000,0.000000000,0.800000000,0.000000000
14.900000000,0.000000000,-0.800000000,1.200000000,0.000000000,0.800000000,0.000000000
14.920000000,0.000000000,-0.800000000,1.200000000,0.000000000,0.800000000,0.000000000
14.936000000,0.000000000,-0.800000000,1.200000000,0.000000000,0.800000000,0.000000000
14.960000000,0.000000000,-0.800000000,1.200000000,0.000000000,0.800000000,0.000000000
14.980000000,0.000000000,-0.800000000,1.200000000,0.000000000,0.800000000,0.000000000
15.000000000,0.000000000,-0.800000000,1.200000000,0.000000000,0.800000000,0.000000000
15.020000000,0.000000000,-0.800000000,1.200000000,0.000000000,0.800000000,0.000000000
15.040000000,0.000000000,-0.800000000,1.200000000,0.000000000,0.800000000,0.000000000
15.060000000,0.000000000,-0.800000000,1.200000000,0.000000000,0.800000000,0.000000000
15.080000000,0.000000000,-0.800000000,1.200000000,0.000000000,0.800000000,0.000000000
15.100000000,0.000000000,-0.800000000,1.200000000,0.000000000,0.800000000,0.000000000
15.120000000,0.000000000,-0.800000000,1.200000000,0.000000000,0.800000000,0.000000000
15.140000000,0.000000000,-0.800000000,1.200000000,0.000000000,0.800000000,0.000000000
15.160000000,0.000000000,-0.800000000,1.200000000,0.000000000,0.800000000,0.000000000
15.180000000,0.000000000,-0.800000000,1.200000000,0.000000000,0.800000000,0.000000000
15.200000000,0.000000000,-0.800000000,1.200000000,0.000000000,0.800000000,0.000000000
15.220000000,0.000000000,-0.800000000,1.200000000,0.000000000,0.800000000,0.000000000
15.240000000,0.000000000,-0.800000000,1.200000000,0.000000000,0.800000000,0.000000000
15.260000000,0.000000000,-0.800000000,1.200000000,0.000000000,0.800000000,0.000000000
15.279000000,0.000000000,-0.800000000,1.200000000,0.000000000,0.800000000,0.000000000
15.299000000,0.000000000,-0.800000000,1.200000000,0.000000000,0.800000000,0.000000000
15.320000000,0.000000000,-0.800000000,1.200000000,0.000000000,0.800000000,0.000000000
15.340000000,0.000000000,-0.800000000,1.200000000,0.000000000,0.800000000,0.000000000
15.360000000,0.000000000,-0.800000000,1.200000000,0.000000000,0.800000000,0.000000000
15.380000000,0.000000000,-0.800000000,1.200000000,0.000000000,0.800000000,0.000000000
15.400000000,0.000000000,-0.800000000,1.200000000,0.000000000,0.800000000,0.000000000
15.420000000,0.000000000,-0.800000000,1.200000000,0.000000000,0.800000000,0.000000000
15.440000000,0.000000000,-0.800000000,1.200000000,0.000000000,0.800000000,0.000000000
15.460000000,0.000000000,-0.800000000,1.200000000,0.000000000,0.800000000,0.000000000
15.480000000,0.000000000,-0.800000000,1.200000000,0.000000000,0.800000000,0.000000000
15.498000000,0.000000000,-0.800000000,1.200000000,0.000000000,0.800000000,0.000000000
15.520000000,0.000000000,-0.800000000,1.200000000,0.000000000,0.800000000,0.000000000
15.540000000,0.000000000,-0.800000000,1.200000000,0.000000000,0.800000000,0.000000000
15.560000000,0.000000000,-0.800000000,1.200000000,0.000000000,0.800000000,0.000000000
15.580000000,0.000000000,-0.800000000,1.200000000,0.000000000,0.800000000,0.000000000
15.600000000,0.000000000,-0.800000000,1.200000000,0.000000000,0.800000000,0.000000000
15.620000000,0.000000000,-0.800000000,1.200000000,0.000000000,0.800000000,0.000000000
15.640000000,0.000000000,-0.800000000,1.200000000,0.000000000,0.800000000,0.000000000
15.660000000,0.000000000,-0.800000000,1.200000000,0.000000000,0.800000000,0.000000000
15.680000000,0.000000000,-0.800000000,1.200000000,0.000000000,0.800000000,0.000000000
15.700000000,0.000000000,-0.800000000,1.200000000,0.000000000,0.800000000,0.000000000
15.720000000,0.000000000,-0.800000000,1.200000000,0.000000000,0.800000000,0.000000000
15.740000000,0.000000000,-0.800000000,1.200000000,0.000000000,0.800000000,0.000000000
15.760000000,0.000000000,-0.800000000,1.200000000,0.000000000,0.800000000,0.000000000
15.780000000,0.000000000,-0.800000000,1.200000000,0.000000000,0.800000000,0.000000000
15.800000000,0.000000000,-0.800000000,1.200000000,0.000000000,0.800000000,0.000000000
15.820000000,0.000000000,-0.800000000,1.200000000,0.000000000,0.800000000,0.000000000
15.840000000,0.000000000,-0.800000000,1.200000000,0.000000000,0.800000000,0.000000000
15.860000000,0.000000000,-0.800000000,1.200000000,0.000000000,0.800000000,0.000000000
15.880000000,0.000000000,-0.800000000,1.200000000,0.000000000,0.800000000,0.000000000
15.900000000,0.000000000,-0.800000000,1.200000000,0.000000000,0.800000000,0.000000000
15.920000000,0.000000000,-0.800000000,1.200000000,0.000000000,0.800000000,0.000000000
15.940000000,0.000000000,-0.800000000,1.200000000,0.000000000,0.800000000,0.000000000
15.960000000,0.000000000,-0.800000000,1.200000000,0.000000000,0.800000000,0.000000000
15.980000000,0.000000000,-0.800000000,1.200000000,0.000000000,0.800000000,0.000000000
16.000000000,0.000000000,-0.800000000,1.200000000,0.000000000,0.800000000,0.000000000
16.020000000,0.000000000,-0.800000000,1.200000000,0.000000000,0.800000000,0.000000000
16.040000000,0.000000000,-0.800000000,1.200000000,0.000000000,0.800000000,0.000000000
16.060000000,0.000000000,-0.800000000,1.200000000,0.000000000,0.800000000,0.000000000
16.080000000,0.000000000,-0.800000000,1.200000000,0.000000000,0.800000000,0.000000000
16.100000000,0.000000000,-0.800000000,1.200000000,0.000000000,0.800000000,0.000000000
16.120000000,0.000000000,-0.800000000,1.200000000,0.000000000,0.800000000,0.000000000
16.140000000,0.000000000,-0.800000000,1.200000000,0.000000000,0.800000000,0.000000000
16.160000000,0.000000000,-0.800000000,1.200000000,0.000000000,0.800000000,0.000000000
16.180000000,0.000000000,-0.800000000,1.200000000,0.000000000,0.800000000,0.000000000
16.200000000,0.000000000,-0.800000000,1.200000000,0.000000000,0.800000000,0.000000000
16.220000000,0.000000000,-0.800000000,1.200000000,0.000000000,0.800000000,0.000000000
16.240000000,0.000000000,-0.800000000,1.200000000,0.000000000,0.800000000,0.000000000
16.260000000,0.000000000,-0.800000000,1.200000000,0.000000000,0.800000000,0.000000000
16.280000000,0.000000000,-0.800000000,1.200000000,0.000000000,0.800000000,0.000000000
16.300000000,0.000000000,-0.800000000,1.200000000,0.000000000,0.800000000,0.000000000
16.320000000,0.000000000,-0.800000000,1.200000000,0.000000000,0.800000000,0.000000000
16.340000000,0.000000000,-0.800000000,1.200000000,0.000000000,0.800000000,0.000000000
16.360000000,0.000000000,-0.800000000,1.200000000,0.000000000,0.800000000,0.000000000
16.380000000,0.000000000,-0.800000000,1.200000000,0.000000000,0.800000000,0.000000000
16.400000000,0.000000000,-0.800000000,1.200000000,0.000000000,0.800000000,0.000000000
16.420000000,0.000000000,-0.800000000,1.200000000,0.000000000,0.800000000,0.000000000
16.440000000,0.000000000,-0.800000000,1.200000000,0.000000000,0.800000000,0.000000000
16.460000000,0.000000000,-0.800000000,1.200000000,0.000000000,0.800000000,0.000000000
16.480000000,0.000000000,-0.800000000,1.200000000,0.000000000,0.800000000,0.000000000
16.500000000,0.000000000,-0.800000000,1.200000000,0.000000000,0.800000000,0.000000000
16.520000000,0.000000000,-0.800000000,1.200000000,0.000000000,0.800000000,0.000000000
16.540000000,0.000000000,-0.800000000,1.200000000,0.000000000,0.800000000,0.000000000
16.560000000,0.000000000,-0.800000000,1.200000000,0.000000000,0.800000000,0.000000000
16.580000000,0.000000000,-0.800000000,1.200000000,0.000000000,0.800000000,0.000000000
16.600000000,0.000000000,-0.800000000,1.200000000,0.000000000,0.800000000,0.000000000
16.620000000,0.000000000,-0.800000000,1.200000000,0.000000000,0.800000000,0.000000000
16.640000000,0.000000000,-0.800000000,1.200000000,0.000000000,0.800000000,0.000000000
16.660000000,0.000000000,-0.800000000,1.200000000,0.000000000,0.800000000,0.000000000
16.680000000,0.000000000,-0.800000000,1.200000000,0.000000000,0.800000000,0.000000000
16.700000000,0.000000000,-0.800000000,1.200000000,0.000000000,0.800000000,0.000000000
16.720000000,0.000000000,-0.800000000,1.200000000,0.000000000,0.800000000,0.000000000
16.740000000,0.000000000,-0.800000000,1.200000000,0.000000000,0.800000000,0.000000000
16.760000000,0.000000000,-0.800000000,1.200000000,0.000000000,0.800000000,0.000000000
16.780000000,0.000000000,-0.800000000,1.200000000,0.000000000,0.800000000,0.000000000
16.800000000,0.000000000,-0.800000000,1.200000000,0.000000000,0.800000000,0.000000000
16.820000000,0.000000000,-0.800000000,1.200000000,0.000000000,0.800000000,0.000000000
16.840000000,0.000000000,-0.800000000,1.200000000,0.000000000,0.800000000,0.000000000
16.860000000,0.000000000,-0.800000000,1.200000000,0.000000000,0.800000000,0.000000000
16.880000000,0.000000000,-0.800000000,1.200000000,0.000000000,0.800000000,0.000000000
16.900000000,0.000000000,-0.800000000,1.200000000,0.000000000,0.800000000,0.000000000
16.920000000,0.000000000,-0.800000000,1.200000000,0.000000000,0.800000000,0.000000000
16.939000000,0.000000000,-0.800000000,1.200000000,0.000000000,0.800000000,0.000000000
16.960000000,0.000000000,-0.800000000,1.200000000,0.000000000,0.800000000,0.000000000
16.980000000,0.000000000,-0.800000000,1.200000000,0.000000000,0.800000000,0.000000000
17.000000000,0.000000000,-0.800000000,1.200000000,0.000000000,0.800000000,0.000000000
17.020000000,0.000000000,-0.800000000,1.200000000,0.000000000,0.800000000,0.000000000
17.040000000,0.000000000,-0.800000000,1.200000000,0.000000000,0.800000000,0.000000000
17.060000000,0.000000000,-0.800000000,1.200000000,0.000000000,0.800000000,0.000000000
17.080000000,0.000000000,-0.800000000,1.200000000,0.000000000,0.800000000,0.000000000
17.100000000,0.000000000,-0.800000000,1.200000000,0.000000000,0.800000000,0.000000000
17.120000000,0.000000000,-0.800000000,1.200000000,0.000000000,0.800000000,0.000000000
17.140000000,0.000000000,-0.800000000,1.200000000,0.000000000,0.800000000,0.000000000
17.160000000,0.000000000,-0.800000000,1.200000000,0.000000000,0.800000000,0.000000000
17.180000000,0.000000000,-0.800000000,1.200000000,0.000000000,0.800000000,0.000000000
17.200000000,0.000000000,-0.800000000,1.200000000,0.000000000,0.800000000,0.000000000
17.220000000,0.000000000,-0.800000000,1.200000000,0.000000000,0.800000000,0.000000000
17.240000000,0.000000000,-0.800000000,1.200000000,0.000000000,0.800000000,0.000000000
17.260000000,0.000000000,-0.800000000,1.200000000,0.000000000,0.800000000,0.000000000
17.280000000,0.000000000,-0.800000000,1.200000000,0.000000000,0.800000000,0.000000000
17.300000000,0.000000000,-0.800000000,1.200000000,0.000000000,0.800000000,0.000000000
17.320000000,0.000000000,-0.800000000,1.200000000,0.000000000,0.800000000,0.000000000
17.340000000,0.000000000,-0.800000000,1.200000000,0.000000000,0.800000000,0.000000000
17.360000000,0.000000000,-0.800000000,1.200000000,0.000000000,0.800000000,0.000000000
17.380000000,0.000000000,-0.800000000,1.200000000,0.000000000,0.800000000,0.000000000
17.400000000,0.000000000,-0.800000000,1.200000000,0.000000000,0.800000000,0.000000000
17.420000000,0.000000000,-0.800000000,1.200000000,0.000000000,0.800000000,0.000000000
17.440000000,0.000000000,-0.800000000,1.200000000,0.000000000,0.800000000,0.000000000
17.460000000,0.000000000,-0.800000000,1.200000000,0.000000000,0.800000000,0.000000000
17.480000000,0.000000000,-0.800000000,1.200000000,0.000000000,0.800000000,0.000000000
17.500000000,0.000000000,-0.800000000,1.200000000,0.000000000,0.800000000,0.000000000
17.520000000,0.000000000,-0.800000000,1.200000000,0.000000000,0.800000000,0.000000000
17.540000000,0.000000000,-0.800000000,1.200000000,0.000000000,0.800000000,0.000000000
17.560000000,0.000000000,-0.800000000,1.200000000,0.000000000,0.800000000,0.000000000
17.580000000,0.000000000,-0.800000000,1.200000000,0.000000000,0.800000000,0.000000000
17.600000000,0.000000000,-0.800000000,1.200000000,0.000000000,0.800000000,0.000000000
17.620000000,0.000000000,-0.800000000,1.200000000,0.000000000,0.800000000,0.000000000
17.640000000,0.000000000,-0.800000000,1.200000000,0.000000000,0.800000000,0.000000000
17.660000000,0.000000000,-0.800000000,1.200000000,0.000000000,0.800000000,0.000000000
17.680000000,0.000000000,-0.800000000,1.200000000,0.000000000,0.800000000,0.000000000
17.700000000,0.000000000,-0.800000000,1.200000000,0.000000000,0.800000000,0.000000000
17.720000000,0.000000000,-0.800000000,1.200000000,0.000000000,0.800000000,0.000000000
17.740000000,0.000000000,-0.800000000,1.200000000,0.000000000,0.800000000,0.000000000
17.760000000,0.000000000,-0.800000000,1.200000000,0.000000000,0.800000000,0.000000000
17.780000000,0.000000000,-0.800000000,1.200000000,0.000000000,0.800000000,0.000000000
17.800000000,0.000000000,-0.800000000,1.200000000,0.000000000,0.800000000,0.000000000
17.820000000,0.000000000,-0.800000000,1.200000000,0.000000000,0.800000000,0.000000000
17.840000000,0.000000000,-0.800000000,1.200000000,0.000000000,0.800000000,0.000000000
17.860000000,0.000000000,-0.800000000,1.200000000,0.000000000,0.800000000,0.000000000
17.880000000,0.000000000,-0.800000000,1.200000000,0.000000000,0.800000000,0.000000000
17.900000000,0.000000000,-0.800000000,1.200000000,0.000000000,0.800000000,0.000000000
17.920000000,0.000000000,-0.800000000,1.200000000,0.000000000,0.800000000,0.000000000
17.940000000,0.000000000,-0.800000000,1.200000000,0.000000000,0.800000000,0.000000000
17.960000000,0.000000000,-0.800000000,1.200000000,0.000000000,0.800000000,0.000000000
17.980000000,0.000000000,-0.800000000,1.200000000,0.000000000,0.800000000,0.000000000
18.000000000,0.000000000,-0.800000000,1.200000000,0.000000000,0.800000000,0.000000000
18.020000000,0.000000000,-0.800000000,1.200000000,0.000000000,0.800000000,0.000000000
18.040000000,0.000000000,-0.800000000,1.200000000,0.000000000,0.800000000,0.000000000
18.060000000,0.000000000,-0.800000000,1.200000000,0.000000000,0.800000000,0.000000000
18.079000000,0.000000000,-0.800000000,1.200000000,0.000000000,0.800000000,0.000000000
18.100000000,0.000000000,-0.800000000,1.200000000,0.000000000,0.800000000,0.000000000
18.120000000,0.000000000,-0.800000000,1.200000000,0.000000000,0.800000000,0.000000000
18.140000000,0.000000000,-0.800000000,1.200000000,0.000000000,0.800000000,0.000000000
18.160000000,0.000000000,-0.800000000,1.200000000,0.000000000,0.800000000,0.000000000
18.180000000,0.000000000,-0.800000000,1.200000000,0.000000000,0.800000000,0.000000000
18.200000000,0.000000000,-0.800000000,1.200000000,0.000000000,0.800000000,0.000000000
18.220000000,0.000000000,-0.800000000,1.200000000,0.000000000,0.800000000,0.000000000
18.240000000,0.000000000,-0.800000000,1.200000000,0.000000000,0.800000000,0.000000000
18.260000000,0.000000000,-0.800000000,1.200000000,0.000000000,0.800000000,0.000000000
18.280000000,0.000000000,-0.800000000,1.200000000,0.000000000,0.800000000,0.000000000
18.300000000,0.000000000,-0.800000000,1.200000000,0.000000000,0.800000000,0.000000000
18.320000000,0.000000000,-0.800000000,1.200000000,0.000000000,0.800000000,0.000000000
18.340000000,0.000000000,-0.800000000,1.200000000,0.000000000,0.800000000,0.000000000
18.360000000,0.000000000,-0.800000000,1.200000000,0.000000000,0.800000000,0.000000000
18.380000000,0.000000000,-0.800000000,1.200000000,0.000000000,0.800000000,0.000000000
18.400000000,0.000000000,-0.800000000,1.200000000,0.000000000,0.800000000,0.000000000
18.419000000,0.000000000,-0.800000000,1.200000000,0.000000000,0.800000000,0.000000000
18.440000000,0.000000000,-0.800000000,1.200000000,0.000000000,0.800000000,0.000000000
18.460000000,0.000000000,-0.800000000,1.200000000,0.000000000,0.800000000,0.000000000
18.480000000,0.000000000,-0.800000000,1.200000000,0.000000000,0.800000000,0.000000000
18.498000000,0.000000000,-0.800000000,1.200000000,0.000000000,0.800000000,0.000000000
18.520000000,0.000000000,-0.800000000,1.200000000,0.000000000,0.800000000,0.000000000
18.540000000,0.000000000,-0.800000000,1.200000000,0.000000000,0.800000000,0.000000000
18.559000000,0.000000000,-0.800000000,1.200000000,0.000000000,0.800000000,0.000000000
18.580000000,0.000000000,-0.800000000,1.200000000,0.000000000,0.800000000,0.000000000
18.600000000,0.000000000,-0.800000000,1.200000000,0.000000000,0.800000000,0.000000000
18.620000000,0.000000000,-0.800000000,1.200000000,0.000000000,0.800000000,0.000000000
18.640000000,0.000000000,-0.800000000,1.200000000,0.000000000,0.800000000,0.000000000
18.660000000,0.000000000,-0.800000000,1.200000000,0.000000000,0.800000000,0.000000000
18.678000000,0.000000000,-0.800000000,1.200000000,0.000000000,0.800000000,0.000000000
18.700000000,0.000000000,-0.800000000,1.200000000,0.000000000,0.800000000,0.000000000
18.720000000,0.000000000,-0.800000000,1.200000000,0.000000000,0.800000000,0.000000000
18.739000000,0.000000000,-0.800000000,1.200000000,0.000000000,0.800000000,0.000000000
18.760000000,0.000000000,-0.800000000,1.200000000,0.000000000,0.800000000,0.000000000
18.780000000,0.000000000,-0.800000000,1.200000000,0.000000000,0.800000000,0.000000000
18.800000000,0.000000000,-0.800000000,1.200000000,0.000000000,0.800000000,0.000000000
18.820000000,0.000000000,-0.800000000,1.200000000,0.000000000,0.800000000,0.000000000
18.840000000,0.000000000,-0.800000000,1.200000000,0.000000000,0.800000000,0.000000000
18.860000000,0.000000000,-0.800000000,1.200000000,0.000000000,0.800000000,0.000000000
18.880000000,0.000000000,-0.800000000,1.200000000,0.000000000,0.800000000,0.000000000
18.900000000,0.000000000,-0.800000000,1.200000000,0.000000000,0.800000000,0.000000000
18.920000000,0.000000000,-0.800000000,1.200000000,0.000000000,0.800000000,0.000000000
18.940000000,0.000000000,-0.800000000,1.200000000,0.000000000,0.800000000,0.000000000
18.960000000,0.000000000,-0.800000000,1.200000000,0.000000000,0.800000000,0.000000000
18.980000000,0.000000000,-0.800000000,1.200000000,0.000000000,0.800000000,0.000000000
19.000000000,0.000000000,-0.800000000,1.200000000,0.000000000,0.800000000,0.000000000
19.020000000,0.000000000,-0.800000000,1.200000000,0.000000000,0.800000000,0.000000000
19.040000000,0.000000000,-0.800000000,1.200000000,0.000000000,0.800000000,0.000000000
19.060000000,0.000000000,-0.800000000,1.200000000,0.000000000,0.800000000,0.000000000
19.080000000,0.000000000,-0.800000000,1.200000000,0.000000000,0.800000000,0.000000000
19.100000000,0.000000000,-0.800000000,1.200000000,0.000000000,0.800000000,0.000000000
19.120000000,0.000000000,-0.800000000,1.200000000,0.000000000,0.800000000,0.000000000
19.140000000,0.000000000,-0.800000000,1.200000000,0.000000000,0.800000000,0.000000000
19.160000000,0.000000000,-0.800000000,1.200000000,0.000000000,0.800000000,0.000000000
19.180000000,0.000000000,-0.800000000,1.200000000,0.000000000,0.800000000,0.000000000
19.200000000,0.000000000,-0.800000000,1.200000000,0.000000000,0.800000000,0.000000000
19.220000000,0.000000000,-0.800000000,1.200000000,0.000000000,0.800000000,0.000000000
19.240000000,0.000000000,-0.800000000,1.200000000,0.000000000,0.800000000,0.000000000
19.260000000,0.000000000,-0.800000000,1.200000000,0.000000000,0.800000000,0.000000000
19.280000000,0.000000000,-0.800000000,1.200000000,0.000000000,0.800000000,0.000000000
19.300000000,0.000000000,-0.800000000,1.200000000,0.000000000,0.800000000,0.000000000
19.320000000,0.000000000,-0.800000000,1.200000000,0.000000000,0.800000000,0.000000000
19.340000000,0.000000000,-0.800000000,1.200000000,0.000000000,0.800000000,0.000000000
19.360000000,0.000000000,-0.800000000,1.200000000,0.000000000,0.800000000,0.000000000
19.380000000,0.000000000,-0.800000000,1.200000000,0.000000000,0.800000000,0.000000000
19.400000000,0.000000000,-0.800000000,1.200000000,0.000000000,0.800000000,0.000000000
19.419000000,0.000000000,-0.800000000,1.200000000,0.000000000,0.800000000,0.000000000
19.440000000,0.000000000,-0.800000000,1.200000000,0.000000000,0.800000000,0.000000000
19.460000000,0.000000000,-0.800000000,1.200000000,0.000000000,0.800000000,0.000000000
19.480000000,0.000000000,-0.800000000,1.200000000,0.000000000,0.800000000,0.000000000
19.500000000,0.000000000,-0.800000000,1.200000000,0.000000000,0.800000000,0.000000000
19.520000000,0.000000000,-0.800000000,1.200000000,0.000000000,0.800000000,0.000000000
19.540000000,0.000000000,-0.800000000,1.200000000,0.000000000,0.800000000,0.000000000
19.560000000,-0.000000000,-0.800000000,1.200000000,0.000000000,0.800000000,0.000000000
19.580000000,-0.000000000,-0.800000000,1.200000000,0.000000000,0.800000000,0.000000000
19.600000000,0.000000000,-0.800000000,1.200000000,0.000000000,0.800000000,0.000000000
19.620000000,-0.000000000,-0.800000000,1.200000000,0.000000000,0.800000000,0.000000000
19.640000000,-0.000000000,-0.800000000,1.200000000,0.000000000,0.800000000,0.000000000
19.660000000,-0.000000000,-0.800000000,1.200000000,0.000000000,0.800000000,0.000000000
19.680000000,-0.000000000,-0.800000000,1.200000000,0.000000000,0.800000000,0.000000000
19.700000000,-0.000000000,-0.800000000,1.200000000,0.000000000,0.800000000,0.000000000
19.720000000,-0.000000000,-0.800000000,1.200000000,0.000000000,0.800000000,0.000000000
19.740000000,-0.000000000,-0.800000000,1.200000000,0.000000000,0.800000000,0.000000000
19.760000000,-0.000000000,-0.800000000,1.200000000,0.000000000,0.800000000,0.000000000
19.780000000,-0.000000000,-0.800000000,1.200000000,0.000000000,0.800000000,0.000000000
19.800000000,-0.000000000,-0.800000000,1.200000000,0.000000000,0.800000000,0.000000000
19.820000000,-0.000000000,-0.800000000,1.200000000,0.000000000,0.800000000,0.000000000
19.840000000,-0.000000000,-0.800000000,1.200000000,0.000000000,0.800000000,0.000000000
19.860000000,-0.000000000,-0.800000000,1.200000000,0.000000000,0.800000000,0.000000000
19.880000000,-0.000000000,-0.800000000,1.200000000,0.000000000,0.800000000,0.000000000
19.900000000,-0.000000000,-0.800000000,1.200000000,0.000000000,0.800000000,0.000000000
19.920000000,-0.000000000,-0.800000000,1.200000000,0.000000000,0.800000000,0.000000000
19.940000000,-0.000000000,-0.800000000,1.200000000,0.000000000,0.800000000,0.000000000
19.959000000,-0.000000000,-0.800000000,1.200000000,0.000000000,0.800000000,0.000000000
19.980000000,-0.000000000,-0.800000000,1.200000000,0.000000000,0.800000000,0.000000000
20.000000000,-0.000000000,-0.800000000,1.200000000,0.000000000,0.800000000,0.000000000
20.020000000,-0.000000000,-0.800000000,1.200000000,0.000000000,0.800000000,0.000000000
20.040000000,-0.000000000,-0.800000000,1.200000000,0.000000000,0.800000000,0.000000000
20.060000000,-0.000000000,-0.800000000,1.200000000,0.000000000,0.800000000,0.000000000
20.080000000,-0.000000000,-0.800000000,1.200000000,0.000000000,0.800000000,0.000000000
20.100000000,-0.000000000,-0.800000000,1.200000000,0.000000000,0.800000000,0.000000000
20.120000000,-0.000000000,-0.800000000,1.200000000,0.000000000,0.800000000,0.000000000
20.140000000,-0.000000000,-0.800000000,1.200000000,0.000000000,0.800000000,0.000000000
20.160000000,-0.000000000,-0.800000000,1.200000000,0.000000000,0.800000000,0.000000000
20.180000000,-0.000000000,-0.800000000,1.200000000,0.000000000,0.800000000,0.000000000
20.200000000,-0.000000000,-0.800000000,1.200000000,0.000000000,0.800000000,0.000000000
20.220000000,-0.000000000,-0.800000000,1.200000000,0.000000000,0.800000000,0.000000000
20.240000000,-0.000000000,-0.800000000,1.200000000,0.000000000,0.800000000,0.000000000
20.260000000,-0.000000000,-0.800000000,1.200000000,0.000000000,0.800000000,0.000000000
20.280000000,-0.000000000,-0.800000000,1.200000000,0.000000000,0.800000000,0.000000000
20.299000000,-0.000000000,-0.800000000,1.200000000,0.000000000,0.800000000,0.000000000
20.320000000,-0.000000000,-0.800000000,1.200000000,0.000000000,0.800000000,0.000000000
20.340000000,-0.000000000,-0.800000000,1.200000000,0.000000000,0.800000000,0.000000000
20.360000000,-0.000000000,-0.800000000,1.200000000,0.000000000,0.800000000,0.000000000
20.380000000,-0.000000000,-0.800000000,1.200000000,0.000000000,0.800000000,0.000000000
20.399000000,-0.000000000,-0.800000000,1.200000000,0.000000000,0.800000000,0.000000000
20.420000000,-0.000000000,-0.800000000,1.200000000,0.000000000,0.800000000,0.000000000
20.440000000,-0.000000000,-0.800000000,1.200000000,0.000000000,0.800000000,0.000000000
20.460000000,-0.000000000,-0.800000000,1.200000000,0.000000000,0.800000000,0.000000000
20.480000000,-0.000000000,-0.800000000,1.200000000,0.000000000,0.800000000,0.000000000
20.500000000,-0.000000000,-0.800000000,1.200000000,0.000000000,0.800000000,0.000000000
20.520000000,-0.000000000,-0.800000000,1.200000000,0.000000000,0.800000000,0.000000000
20.540000000,-0.000000000,-0.800000000,1.200000000,0.000000000,0.800000000,0.000000000
20.560000000,-0.000000000,-0.800000000,1.200000000,0.000000000,0.800000000,0.000000000
20.580000000,-0.000000000,-0.800000000,1.200000000,0.000000000,0.800000000,0.000000000
20.599000000,-0.000000000,-0.800000000,1.200000000,0.000000000,0.800000000,0.000000000
20.620000000,-0.000000000,-0.800000000,1.200000000,0.000000000,0.800000000,0.000000000
20.640000000,-0.000000000,-0.800000000,1.200000000,0.000000000,0.800000000,0.000000000
20.660000000,-0.000000000,-0.800000000,1.200000000,0.000000000,0.800000000,0.000000000
20.680000000,-0.000000000,-0.800000000,1.200000000,0.000000000,0.800000000,0.000000000
20.700000000,-0.000000000,-0.800000000,1.200000000,0.000000000,0.800000000,0.000000000
20.720000000,-0.000000000,-0.800000000,1.200000000,0.000000000,0.800000000,0.000000000
20.740000000,-0.000000000,-0.800000000,1.200000000,0.000000000,0.800000000,0.000000000
20.760000000,-0.000000000,-0.800000000,1.200000000,0.000000000,0.800000000,0.000000000
20.780000000,-0.000000000,-0.800000000,1.200000000,0.000000000,0.800000000,0.000000000
20.800000000,-0.000000000,-0.800000000,1.200000000,0.000000000,0.800000000,0.000000000
20.820000000,-0.000000000,-0.800000000,1.200000000,0.000000000,0.800000000,0.000000000
20.840000000,-0.000000000,-0.800000000,1.200000000,0.000000000,0.800000000,0.000000000
20.860000000,-0.000000000,-0.800000000,1.200000000,0.000000000,0.800000000,0.000000000
20.880000000,-0.000000000,-0.800000000,1.200000000,0.000000000,0.800000000,0.000000000
20.900000000,-0.000000000,-0.800000000,1.200000000,0.000000000,0.800000000,0.000000000
20.920000000,-0.000000000,-0.800000000,1.200000000,0.000000000,0.800000000,0.000000000
20.940000000,-0.000000000,-0.800000000,1.200000000,0.000000000,0.800000000,0.000000000
20.960000000,-0.000000000,-0.800000000,1.200000000,0.000000000,0.800000000,0.000000000
20.980000000,-0.000000000,-0.800000000,1.200000000,0.000000000,0.800000000,0.000000000
21.000000000,-0.000000000,-0.800000000,1.200000000,0.000000000,0.800000000,0.000000000
21.020000000,-0.000000000,-0.800000000,1.200000000,0.000000000,0.800000000,0.000000000
21.040000000,-0.000000000,-0.800000000,1.200000000,0.000000000,0.800000000,0.000000000
21.060000000,-0.000000000,-0.800000000,1.200000000,0.000000000,0.800000000,0.000000000
21.080000000,-0.000000000,-0.800000000,1.200000000,0.000000000,0.800000000,0.000000000
21.100000000,-0.000000000,-0.800000000,1.200000000,0.000000000,0.800000000,0.000000000
21.120000000,-0.000000000,-0.800000000,1.200000000,0.000000000,0.800000000,0.000000000
21.140000000,-0.000000000,-0.800000000,1.200000000,0.000000000,0.800000000,0.000000000
21.160000000,-0.000000000,-0.800000000,1.200000000,0.000000000,0.800000000,0.000000000
21.179000000,-0.000000000,-0.800000000,1.200000000,0.000000000,0.800000000,0.000000000
21.200000000,-0.000000000,-0.800000000,1.200000000,0.000000000,0.800000000,0.000000000
21.220000000,-0.000000000,-0.800000000,1.200000000,0.000000000,0.800000000,0.000000000
21.240000000,-0.000000000,-0.800000000,1.200000000,0.000000000,0.800000000,0.000000000
21.260000000,-0.000000000,-0.800000000,1.200000000,0.000000000,0.800000000,0.000000000
21.280000000,-0.000000000,-0.800000000,1.200000000,0.000000000,0.800000000,0.000000000
21.300000000,-0.000000000,-0.800000000,1.200000000,0.000000000,0.800000000,0.000000000
21.320000000,-0.000000000,-0.800000000,1.200000000,0.000000000,0.800000000,0.000000000
21.340000000,-0.000000000,-0.800000000,1.200000000,0.000000000,0.800000000,0.000000000
21.360000000,-0.000000000,-0.800000000,1.200000000,0.000000000,0.800000000,0.000000000
21.380000000,-0.000000000,-0.800000000,1.200000000,0.000000000,0.800000000,0.000000000
21.400000000,-0.000000000,-0.800000000,1.200000000,0.000000000,0.800000000,0.000000000
21.420000000,-0.000000000,-0.800000000,1.200000000,0.000000000,0.800000000,0.000000000
21.440000000,-0.000000000,-0.800000000,1.200000000,0.000000000,0.800000000,0.000000000
21.460000000,-0.000000000,-0.800000000,1.200000000,0.000000000,0.800000000,0.000000000
21.480000000,-0.000000000,-0.800000000,1.200000000,0.000000000,0.800000000,0.000000000
21.500000000,-0.000000000,-0.800000000,1.200000000,0.000000000,0.800000000,0.000000000
21.520000000,-0.000000000,-0.800000000,1.200000000,0.000000000,0.800000000,0.000000000
21.540000000,-0.000000000,-0.800000000,1.200000000,0.000000000,0.800000000,0.000000000
21.560000000,-0.000000000,-0.800000000,1.200000000,0.000000000,0.800000000,0.000000000
21.580000000,-0.000000000,-0.800000000,1.200000000,0.000000000,0.800000000,0.000000000
21.600000000,-0.000000000,-0.800000000,1.200000000,0.000000000,0.800000000,0.000000000
21.620000000,-0.000000000,-0.800000000,1.200000000,0.000000000,0.800000000,0.000000000
21.640000000,-0.000000000,-0.800000000,1.200000000,0.000000000,0.800000000,0.000000000
21.660000000,-0.000000000,-0.800000000,1.200000000,0.000000000,0.800000000,0.000000000
21.680000000,-0.000000000,-0.800000000,1.200000000,0.000000000,0.800000000,0.000000000
21.700000000,-0.000000000,-0.800000000,1.200000000,0.000000000,0.800000000,0.000000000
21.720000000,-0.000000000,-0.800000000,1.200000000,0.000000000,0.800000000,0.000000000
21.740000000,-0.000000000,-0.800000000,1.200000000,0.000000000,0.800000000,0.000000000
21.760000000,-0.000000000,-0.800000000,1.200000000,0.000000000,0.800000000,0.000000000
21.780000000,-0.000000000,-0.800000000,1.200000000,0.000000000,0.800000000,0.000000000
21.800000000,-0.000000000,-0.800000000,1.200000000,0.000000000,0.800000000,0.000000000
21.819000000,-0.000000000,-0.800000000,1.200000000,0.000000000,0.800000000,0.000000000
21.840000000,-0.000000000,-0.800000000,1.200000000,0.000000000,0.800000000,0.000000000
21.860000000,-0.000000000,-0.800000000,1.200000000,0.000000000,0.800000000,0.000000000
21.880000000,-0.000000000,-0.800000000,1.200000000,0.000000000,0.800000000,0.000000000
21.900000000,-0.000000000,-0.800000000,1.200000000,0.000000000,0.800000000,0.000000000
21.920000000,-0.000000000,-0.800000000,1.200000000,0.000000000,0.800000000,0.000000000
21.940000000,-0.000000000,-0.800000000,1.200000000,0.000000000,0.800000000,0.000000000
21.960000000,-0.000000000,-0.800000000,1.200000000,0.000000000,0.800000000,0.000000000
21.980000000,-0.000000000,-0.800000000,1.200000000,0.000000000,0.800000000,0.000000000
22.000000000,-0.000000000,-0.800000000,1.200000000,0.000000000,0.800000000,0.000000000
22.020000000,-0.000000000,-0.800000000,1.200000000,0.000000000,0.800000000,0.000000000
22.040000000,-0.000000000,-0.800000000,1.200000000,0.000000000,0.800000000,0.000000000
22.060000000,-0.000000000,-0.800000000,1.200000000,0.000000000,0.800000000,0.000000000
22.080000000,-0.000000000,-0.800000000,1.200000000,0.000000000,0.800000000,0.000000000
22.100000000,-0.000000000,-0.800000000,1.200000000,0.000000000,0.800000000,0.000000000
22.120000000,-0.000000000,-0.800000000,1.200000000,0.000000000,0.800000000,0.000000000
22.139000000,-0.000000000,-0.800000000,1.200000000,0.000000000,0.800000000,0.000000000
22.160000000,-0.000000000,-0.800000000,1.200000000,0.000000000,0.800000000,0.000000000
22.179000000,-0.000000000,-0.800000000,1.200000000,0.000000000,0.800000000,0.000000000
22.199000000,-0.000000000,-0.800000000,1.200000000,0.000000000,0.800000000,0.000000000
22.220000000,-0.000000000,-0.800000000,1.200000000,0.000000000,0.800000000,0.000000000
22.239000000,-0.000000000,-0.800000000,1.200000000,0.000000000,0.800000000,0.000000000
22.260000000,-0.000000000,-0.800000000,1.200000000,0.000000000,0.800000000,0.000000000
22.280000000,-0.000000000,-0.800000000,1.200000000,0.000000000,0.800000000,0.000000000
22.300000000,-0.000000000,-0.800000000,1.200000000,0.000000000,0.800000000,0.000000000
22.318000000,-0.000000000,-0.800000000,1.200000000,0.000000000,0.800000000,0.000000000
22.340000000,-0.000000000,-0.800000000,1.200000000,0.000000000,0.800000000,0.000000000
22.360000000,-0.000000000,-0.800000000,1.200000000,0.000000000,0.800000000,0.000000000
22.380000000,-0.000000000,-0.800000000,1.200000000,0.000000000,0.800000000,0.000000000
22.400000000,-0.000000000,-0.800000000,1.200000000,0.000000000,0.800000000,0.000000000
22.420000000,-0.000000000,-0.800000000,1.200000000,0.000000000,0.800000000,0.000000000
22.440000000,-0.000000000,-0.800000000,1.200000000,0.000000000,0.800000000,0.000000000
22.460000000,0.000166667,-0.800000000,1.200000000,0.000000000,0.800000000,0.000000000
22.480000000,0.000483333,-0.800000000,1.200000000,0.000000000,0.800000000,0.000000000
22.500000000,0.000935000,-0.800000000,1.200000000,0.000000000,0.800000000,0.000000000
22.520000000,0.001508167,-0.800000000,1.200000000,0.000000000,0.800000000,0.000000000
22.540000000,0.002190683,-0.800000000,1.200000000,0.000000000,0.800000000,0.000000000
22.560000000,0.002971615,-0.800000000,1.200000000,0.000000000,0.800000000,0.000000000
22.580000000,0.003841120,-0.800000000,1.200000000,0.000000000,0.800000000,0.000000000
22.600000000,0.004790341,-0.800000000,1.200000000,0.000000000,0.800000000,0.000000000
22.620000000,0.005811307,-0.800000000,1.200000000,0.000000000,0.800000000,0.000000000
22.640000000,0.006896843,-0.800000000,1.200000000,0.000000000,0.800000000,0.000000000
22.660000000,0.008040492,-0.800000000,1.200000000,0.000000000,0.800000000,0.000000000
22.680000000,0.009236443,-0.800000000,1.200000000,0.000000000,0.800000000,0.000000000
22.700000000,0.010479465,-0.800000000,1.200000000,0.000000000,0.800000000,0.000000000
22.720000000,0.011764852,-0.800000000,1.200000000,0.000000000,0.800000000,0.000000000
22.740000000,0.013088367,-0.800000000,1.200000000,0.000000000,0.800000000,0.000000000
22.760000000,0.014446197,-0.800000000,1.200000000,0.000000000,0.800000000,0.000000000
22.780000000,0.015834911,-0.800000000,1.200000000,0.000000000,0.800000000,0.000000000
22.800000000,0.017251420,-0.800000000,1.200000000,0.000000000,0.800000000,0.000000000
22.820000000,0.018692944,-0.800000000,1.200000000,0.000000000,0.800000000,0.000000000
22.840000000,0.020156983,-0.800000000,1.200000000,0.000000000,0.800000000,0.000000000
22.860000000,0.021641285,-0.800000000,1.200000000,0.000000000,0.800000000,0.000000000
22.880000000,0.023143823,-0.800000000,1.200000000,0.000000000,0.800000000,0.000000000
22.900000000,0.024662774,-0.800000000,1.200000000,0.000000000,0.800000000,0.000000000
22.920000000,0.026196497,-0.800000000,1.200000000,0.000000000,0.800000000,0.000000000
22.940000000,0.027743514,-0.800000000,1.200000000,0.000000000,0.800000000,0.000000000
22.960000000,0.029302496,-0.800000000,1.200000000,0.000000000,0.800000000,0.000000000
22.980000000,0.030872246,-0.800000000,1.200000000,0.000000000,0.800000000,0.000000000
23.000000000,0.032451688,-0.800000000,1.200000000,0.000000000,0.800000000,0.000000000
23.020000000,0.034039853,-0.800000000,1.200000000,0.000000000,0.800000000,0.000000000
23.040000000,0.035635867,-0.800000000,1.200000000,0.000000000,0.800000000,0.000000000
23.060000000,0.037238947,-0.800000000,1.200000000,0.000000000,0.800000000,0.000000000
23.080000000,0.038848386,-0.800000000,1.200000000,0.000000000,0.800000000,0.000000000
23.100000000,0.040463547,-0.800000000,1.200000000,0.000000000,0.800000000,0.000000000
23.120000000,0.042083859,-0.800000000,1.200000000,0.000000000,0.800000000,0.000000000
23.140000000,0.043708807,-0.800000000,1.200000000,0.000000000,0.800000000,0.000000000
23.160000000,0.045337926,-0.800000000,1.200000000,0.000000000,0.800000000,0.000000000
23.180000000,0.046970800,-0.800000000,1.200000000,0.000000000,0.800000000,0.000000000
23.200000000,0.048607053,-0.800000000,1.200000000,0.000000000,0.800000000,0.000000000
23.220000000,0.050246348,-0.800000000,1.200000000,0.000000000,0.800000000,0.000000000
23.240000000,0.051888380,-0.800000000,1.200000000,0.000000000,0.800000000,0.000000000
23.260000000,0.053532875,-0.800000000,1.200000000,0.000000000,0.800000000,0.000000000
23.280000000,0.055179588,-0.800000000,1.200000000,0.000000000,0.800000000,0.000000000
23.300000000,0.056828296,-0.800000000,1.200000000,0.000000000,0.800000000,0.000000000
23.320000000,0.058478799,-0.800000000,1.200000000,0.000000000,0.800000000,0.000000000
23.340000000,0.060130919,-0.800000000,1.200000000,0.000000000,0.800000000,0.000000000
23.360000000,0.061784494,-0.800000000,1.200000000,0.000000000,0.800000000,0.000000000
23.380000000,0.063439378,-0.800000000,1.200000000,0.000000000,0.800000000,0.000000000
23.400000000,0.065095440,-0.800000000,1.200000000,0.000000000,0.800000000,0.000000000
23.420000000,0.066752563,-0.800000000,1.200000000,0.000000000,0.800000000,0.000000000
23.440000000,0.068410640,-0.800000000,1.200000000,0.000000000,0.800000000,0.000000000
23.460000000,0.070069576,-0.800000000,1.200000000,0.000000000,0.800000000,0.000000000
23.480000000,0.071729285,-0.800000000,1.200000000,0.000000000,0.800000000,0.000000000
23.500000000,0.073389690,-0.800000000,1.200000000,0.000000000,0.800000000,0.000000000
23.520000000,0.075050721,-0.800000000,1.200000000,0.000000000,0.800000000,0.000000000
23.540000000,0.076712315,-0.800000000,1.200000000,0.000000000,0.800000000,0.000000000
23.560000000,0.078374417,-0.800000000,1.200000000,0.000000000,0.800000000,0.000000000
23.580000000,0.080036976,-0.800000000,1.200000000,0.000000000,0.800000000,0.000000000
23.600000000,0.081699945,-0.800000000,1.200000000,0.000000000,0.800000000,0.000000000
23.620000000,0.083363284,-0.800000000,1.200000000,0.000000000,0.800000000,0.000000000
23.640000000,0.085026955,-0.800000000,1.200000000,0.000000000,0.800000000,0.000000000
23.660000000,0.086690926,-0.800000000,1.200000000,0.000000000,0.800000000,0.000000000
23.680000000,0.088355167,-0.800000000,1.200000000,0.000000000,0.800000000,0.000000000
23.700000000,0.090019650,-0.800000000,1.200000000,0.000000000,0.800000000,0.000000000
23.720000000,0.091684352,-0.800000000,1.200000000,0.000000000,0.800000000,0.000000000
23.740000000,0.093349250,-0.800000000,1.200000000,0.000000000,0.800000000,0.000000000
23.760000000,0.095014325,-0.800000000,1.200000000,0.000000000,0.800000000,0.000000000
23.780000000,0.096679559,-0.800000000,1.200000000,0.000000000,0.800000000,0.000000000
23.800000000,0.098344937,-0.800000000,1.200000000,0.000000000,0.800000000,0.000000000
23.820000000,0.100010443,-0.800000000,1.200000000,0.000000000,0.800000000,0.000000000
23.840000000,0.101676065,-0.800000000,1.200000000,0.000000000,0.800000000,0.000000000
23.860000000,0.103341792,-0.800000000,1.200000000,0.000000000,0.800000000,0.000000000
23.880000000,0.105007613,-0.800000000,1.200000000,0.000000000,0.800000000,0.000000000
23.900000000,0.106673518,-0.800000000,1.200000000,0.000000000,0.800000000,0.000000000
23.920000000,0.108339500,-0.800000000,1.200000000,0.000000000,0.800000000,0.000000000
23.940000000,0.110005550,-0.800000000,1.200000000,0.000000000,0.800000000,0.000000000
23.960000000,0.111671662,-0.800000000,1.200000000,0.000000000,0.800000000,0.000000000
23.980000000,0.113337829,-0.800000000,1.200000000,0.000000000,0.800000000,0.000000000
24.000000000,0.115004046,-0.800000000,1.200000000,0.000000000,0.800000000,0.000000000
24.020000000,0.116670308,-0.800000000,1.200000000,0.000000000,0.800000000,0.000000000
24.040000000,0.118336610,-0.800000000,1.200000000,0.000000000,0.800000000,0.000000000
24.060000000,0.120002949,-0.800000000,1.200000000,0.000000000,0.800000000,0.000000000
24.080000000,0.121669321,-0.800000000,1.200000000,0.000000000,0.800000000,0.000000000
24.100000000,0.123335722,-0.800000000,1.200000000,0.000000000,0.800000000,0.000000000
24.120000000,0.125002150,-0.800000000,1.200000000,0.000000000,0.800000000,0.000000000
24.140000000,0.126668602,-0.800000000,1.200000000,0.000000000,0.800000000,0.000000000
24.160000000,0.128335075,-0.800000000,1.200000000,0.000000000,0.800000000,0.000000000
24.180000000,0.130001567,-0.800000000,1.200000000,0.000000000,0.800000000,0.000000000
24.200000000,0.131668077,-0.800000000,1.200000000,0.000000000,0.800000000,0.000000000
24.220000000,0.133334603,-0.800000000,1.200000000,0.000000000,0.800000000,0.000000000
24.240000000,0.135001143,-0.800000000,1.200000000,0.000000000,0.800000000,0.000000000
24.260000000,0.136667695,-0.800000000,1.200000000,0.000000000,0.800000000,0.000000000
24.280000000,0.138334259,-0.800000000,1.200000000,0.000000000,0.800000000,0.000000000
24.300000000,0.140000833,-0.800000000,1.200000000,0.000000000,0.800000000,0.000000000
24.320000000,0.141667416,-0.800000000,1.200000000,0.000000000,0.800000000,0.000000000
24.340000000,0.143334008,-0.800000000,1.200000000,0.000000000,0.800000000,0.000000000
24.360000000,0.145000607,-0.800000000,1.200000000,0.000000000,0.800000000,0.000000000
24.380000000,0.146667213,-0.800000000,1.200000000,0.000000000,0.800000000,0.000000000
24.400000000,0.148333825,-0.800000000,1.200000000,0.000000000,0.800000000,0.000000000
24.420000000,0.150000443,-0.800000000,1.200000000,0.000000000,0.800000000,0.000000000
24.440000000,0.151667065,-0.800000000,1.200000000,0.000000000,0.800000000,0.000000000
24.460000000,0.153333692,-0.800000000,1.200000000,0.000000000,0.800000000,0.000000000
24.480000000,0.155000323,-0.800000000,1.200000000,0.000000000,0.800000000,0.000000000
24.500000000,0.156666957,-0.800000000,1.200000000,0.000000000,0.800000000,0.000000000
24.520000000,0.158333595,-0.800000000,1.200000000,0.000000000,0.800000000,0.000000000
24.540000000,0.160000235,-0.800000000,1.200000000,0.000000000,0.800000000,0.000000000
24.560000000,0.161666878,-0.800000000,1.200000000,0.000000000,0.800000000,0.000000000
