Omar-H-Khedr/robotics_project/ros2_ws/install/experiment_manager/lib/python3.12/site-packages/results/baseline_trials/trial_20260514_165429/joint_states.csv
ros_time_sec,joint_1,joint_2,joint_3,joint_4,joint_5,joint_6
3.362000000,-0.000000590,-0.799990635,1.200001832,0.000009971,0.799990619,-0.000001132
3.516000000,-0.000000590,-0.799990635,1.200001832,0.000009971,0.799990619,-0.000001132
3.564000000,-0.000000590,-0.799990635,1.200001832,0.000009971,0.799990619,-0.000001132
3.577000000,-0.000000590,-0.799990635,1.200001832,0.000009971,0.799990619,-0.000001132
3.592000000,-0.000000590,-0.799990635,1.200001832,0.000009971,0.799990619,-0.000001132
3.604000000,-0.000000590,-0.799990635,1.200001832,0.000009971,0.799990619,-0.000001132
3.621000000,-0.000000590,-0.799990635,1.200001832,0.000009971,0.799990619,-0.000001132
3.647000000,-0.000000590,-0.799990635,1.200001832,0.000009971,0.799990619,-0.000001132
3.668000000,-0.000000590,-0.799990635,1.200001832,0.000009971,0.799990619,-0.000001132
3.691000000,-0.000000590,-0.799990635,1.200001832,0.000009971,0.799990619,-0.000001132
3.706000000,-0.000000590,-0.799990635,1.200001832,0.000009971,0.799990619,-0.000001132
3.723000000,-0.000000590,-0.799990635,1.200001832,0.000009971,0.799990619,-0.000001132
3.744000000,-0.000000590,-0.799990635,1.200001832,0.000009971,0.799990619,-0.000001132
3.766000000,-0.000000590,-0.799990635,1.200001832,0.000009971,0.799990619,-0.000001132
3.783000000,-0.000000590,-0.799990635,1.200001832,0.000009971,0.799990619,-0.000001132
3.805000000,-0.000000590,-0.799990635,1.200001832,0.000009971,0.799990619,-0.000001132
3.812000000,-0.000000590,-0.799990635,1.200001832,0.000009971,0.799990619,-0.000001132
3.834000000,-0.000000590,-0.799990635,1.200001832,0.000009971,0.799990619,-0.000001132
3.852000000,-0.000000590,-0.799990635,1.200001832,0.000009971,0.799990619,-0.000001132
3.870000000,-0.000000590,-0.799990635,1.200001832,0.000009971,0.799990619,-0.000001132
3.906000000,-0.000000590,-0.799990635,1.200001832,0.000009971,0.799990619,-0.000001132
3.925000000,-0.000000590,-0.799990635,1.200001832,0.000009971,0.799990619,-0.000001132
3.948000000,-0.000000590,-0.799990635,1.200001832,0.000009971,0.799990619,-0.000001132
3.972000000,-0.000000590,-0.799990635,1.200001832,0.000009971,0.799990619,-0.000001132
3.987000000,-0.000000590,-0.799990635,1.200001832,0.000009971,0.799990619,-0.000001132
4.035000000,-0.000000590,-0.799990635,1.200001832,0.000009971,0.799990619,-0.000001132
4.079000000,-0.000000590,-0.799990635,1.200001832,0.000009971,0.799990619,-0.000001132
4.104000000,-0.000000590,-0.799990635,1.200001832,0.000009971,0.799990619,-0.000001132
4.134000000,-0.000000590,-0.799990635,1.200001832,0.000009971,0.799990619,-0.000001132
4.147000000,-0.000000590,-0.799990635,1.200001832,0.000009971,0.799990619,-0.000001132
4.175000000,-0.000000590,-0.799990635,1.200001832,0.000009971,0.799990619,-0.000001132
4.197000000,-0.000000590,-0.799990635,1.200001832,0.000009971,0.799990619,-0.000001132
4.206000000,-0.000000590,-0.799990635,1.200001832,0.000009971,0.799990619,-0.000001132
4.220000000,-0.000000590,-0.799990635,1.200001832,0.000009971,0.799990619,-0.000001132
4.241000000,-0.000000590,-0.799990635,1.200001832,0.000009971,0.799990619,-0.000001132
4.266000000,-0.000000590,-0.799990635,1.200001832,0.000009971,0.799990619,-0.000001132
4.284000000,-0.000000590,-0.799990635,1.200001832,0.000009971,0.799990619,-0.000001132
4.300000000,-0.000000590,-0.799990635,1.200001832,0.000009971,0.799990619,-0.000001132
4.316000000,-0.000000590,-0.799990635,1.200001832,0.000009971,0.799990619,-0.000001132
4.329000000,-0.000000590,-0.799990635,1.200001832,0.000009971,0.799990619,-0.000001132
4.368000000,-0.000000590,-0.799990635,1.200001832,0.000009971,0.799990619,-0.000001132
4.400000000,-0.000000590,-0.799990635,1.200001832,0.000009971,0.799990619,-0.000001132
4.419000000,-0.000000590,-0.799990635,1.200001832,0.000009971,0.799990619,-0.000001132
4.439000000,-0.000000590,-0.799990635,1.200001832,0.000009971,0.799990619,-0.000001132
4.451000000,-0.000000590,-0.799990635,1.200001832,0.000009971,0.799990619,-0.000001132
4.487000000,-0.000000590,-0.799990635,1.200001832,0.000009971,0.799990619,-0.000001132
4.494000000,-0.000000590,-0.799990635,1.200001832,0.000009971,0.799990619,-0.000001132
4.517000000,-0.000000590,-0.799990635,1.200001832,0.000009971,0.799990619,-0.000001132
4.550000000,-0.000000590,-0.799990635,1.200001832,0.000009971,0.799990619,-0.000001132
4.574000000,-0.000000590,-0.799990635,1.200001832,0.000009971,0.799990619,-0.000001132
4.600000000,-0.000000590,-0.799990635,1.200001832,0.000009971,0.799990619,-0.000001132
4.622000000,-0.000000590,-0.799990635,1.200001832,0.000009971,0.799990619,-0.000001132
4.642000000,-0.000000590,-0.799990635,1.200001832,0.000009971,0.799990619,-0.000001132
4.653000000,-0.000000590,-0.799990635,1.200001832,0.000009971,0.799990619,-0.000001132
4.684000000,-0.000000590,-0.799990635,1.200001832,0.000009971,0.799990619,-0.000001132
4.701000000,-0.000000590,-0.799990635,1.200001832,0.000009971,0.799990619,-0.000001132
4.713000000,-0.000000590,-0.799990635,1.200001832,0.000009971,0.799990619,-0.000001132
4.734000000,-0.000000590,-0.799990635,1.200001832,0.000009971,0.799990619,-0.000001132
4.754000000,-0.000000590,-0.799990635,1.200001832,0.000009971,0.799990619,-0.000001132
4.766000000,-0.000000590,-0.799990635,1.200001832,0.000009971,0.799990619,-0.000001132
4.786000000,-0.000000590,-0.799990635,1.200001832,0.000009971,0.799990619,-0.000001132
4.798000000,-0.000000590,-0.799990635,1.200001832,0.000009971,0.799990619,-0.000001132
4.815000000,-0.000000590,-0.799990635,1.200001832,0.000009971,0.799990619,-0.000001132
4.833000000,-0.000000590,-0.799990635,1.200001832,0.000009971,0.799990619,-0.000001132
4.857000000,-0.000000590,-0.799990635,1.200001832,0.000009971,0.799990619,-0.000001132
4.875000000,-0.000000590,-0.799990635,1.200001832,0.000009971,0.799990619,-0.000001132
4.887000000,-0.000000590,-0.799990635,1.200001832,0.000009971,0.799990619,-0.000001132
4.907000000,-0.000000590,-0.799990635,1.200001832,0.000009971,0.799990619,-0.000001132
4.930000000,-0.000000590,-0.799990635,1.200001832,0.000009971,0.799990619,-0.000001132
4.957000000,-0.000000590,-0.799990635,1.200001832,0.000009971,0.799990619,-0.000001132
4.986000000,-0.000000590,-0.799990635,1.200001832,0.000009971,0.799990619,-0.000001132
5.008000000,-0.000000590,-0.799990635,1.200001832,0.000009971,0.799990619,-0.000001132
5.028000000,-0.000000590,-0.799990635,1.200001832,0.000009971,0.799990619,-0.000001132
5.063000000,-0.000000590,-0.799990635,1.200001832,0.000009971,0.799990619,-0.000001132
5.071000000,-0.000000590,-0.799990635,1.200001832,0.000009971,0.799990619,-0.000001132
5.124000000,-0.000000590,-0.799990635,1.200001832,0.000009971,0.799990619,-0.000001132
5.166000000,-0.000000590,-0.799990635,1.200001832,0.000009971,0.799990619,-0.000001132
5.184000000,-0.000000590,-0.799990635,1.200001832,0.000009971,0.799990619,-0.000001132
5.219000000,-0.000000590,-0.799990635,1.200001832,0.000009971,0.799990619,-0.000001132
5.255000000,-0.000000590,-0.799990635,1.200001832,0.000009971,0.799990619,-0.000001132
5.284000000,-0.000000590,-0.799990635,1.200001832,0.000009971,0.799990619,-0.000001132
5.299000000,-0.000000590,-0.799990635,1.200001832,0.000009971,0.799990619,-0.000001132
5.342000000,-0.000000590,-0.799990635,1.200001832,0.000009971,0.799990619,-0.000001132
5.366000000,-0.000000590,-0.799990635,1.200001832,0.000009971,0.799990619,-0.000001132
5.400000000,-0.000000590,-0.799990635,1.200001832,0.000009971,0.799990619,-0.000001132
5.424000000,-0.000000590,-0.799990635,1.200001832,0.000009971,0.799990619,-0.000001132
5.450000000,-0.000000590,-0.799990635,1.200001832,0.000009971,0.799990619,-0.000001132
5.473000000,-0.000000590,-0.799990635,1.200001832,0.000009971,0.799990619,-0.000001132
5.493000000,-0.000000590,-0.799990635,1.200001832,0.000009971,0.799990619,-0.000001132
5.495000000,-0.000000590,-0.799990635,1.200001832,0.000009971,0.799990619,-0.000001132
5.512000000,-0.000000590,-0.799990635,1.200001832,0.000009971,0.799990619,-0.000001132
5.540000000,-0.000000590,-0.799990635,1.200001832,0.000009971,0.799990619,-0.000001132
5.561000000,-0.000000590,-0.799990635,1.200001832,0.000009971,0.799990619,-0.000001132
5.587000000,-0.000000590,-0.799990635,1.200001832,0.000009971,0.799990619,-0.000001132
5.613000000,-0.000000590,-0.799990635,1.200001832,0.000009971,0.799990619,-0.000001132
5.653000000,-0.000000590,-0.799990635,1.200001832,0.000009971,0.799990619,-0.000001132
5.677000000,-0.000000590,-0.799990635,1.200001832,0.000009971,0.799990619,-0.000001132
5.710000000,-0.000000590,-0.799990635,1.200001832,0.000009971,0.799990619,-0.000001132
5.725000000,-0.000000590,-0.799990635,1.200001832,0.000009971,0.799990619,-0.000001132
5.745000000,-0.000000590,-0.799990635,1.200001832,0.000009971,0.799990619,-0.000001132
5.755000000,-0.000000590,-0.799990635,1.200001832,0.000009971,0.799990619,-0.000001132
5.772000000,-0.000000590,-0.799990635,1.200001832,0.000009971,0.799990619,-0.000001132
5.786000000,-0.000000590,-0.799990635,1.200001832,0.000009971,0.799990619,-0.000001132
5.808000000,-0.000000590,-0.799990635,1.200001832,0.000009971,0.799990619,-0.000001132
5.838000000,-0.000000590,-0.799990635,1.200001832,0.000009971,0.799990619,-0.000001132
5.857000000,-0.000000590,-0.799990635,1.200001832,0.000009971,0.799990619,-0.000001132
5.885000000,-0.000000590,-0.799990635,1.200001832,0.000009971,0.799990619,-0.000001132
5.893000000,-0.000000590,-0.799990635,1.200001832,0.000009971,0.799990619,-0.000001132
5.913000000,-0.000000590,-0.799990635,1.200001832,0.000009971,0.799990619,-0.000001132
5.922000000,-0.000000590,-0.799990635,1.200001832,0.000009971,0.799990619,-0.000001132
5.966000000,-0.000000590,-0.799990635,1.200001832,0.000009971,0.799990619,-0.000001132
5.996000000,-0.000000590,-0.799990635,1.200001832,0.000009971,0.799990619,-0.000001132
6.014000000,-0.000000590,-0.799990635,1.200001832,0.000009971,0.799990619,-0.000001132
6.027000000,-0.000000590,-0.799990635,1.200001832,0.000009971,0.799990619,-0.000001132
6.054000000,-0.000000590,-0.799990635,1.200001832,0.000009971,0.799990619,-0.000001132
6.063000000,-0.000000590,-0.799990635,1.200001832,0.000009971,0.799990619,-0.000001132
6.085000000,-0.000000590,-0.799990635,1.200001832,0.000009971,0.799990619,-0.000001132
6.114000000,-0.000000590,-0.799990635,1.200001832,0.000009971,0.799990619,-0.000001132
6.136000000,-0.000000590,-0.799990635,1.200001832,0.000009971,0.799990619,-0.000001132
6.159000000,-0.000000590,-0.799990635,1.200001832,0.000009971,0.799990619,-0.000001132
6.169000000,-0.000000590,-0.799990635,1.200001832,0.000009971,0.799990619,-0.000001132
6.187000000,-0.000000590,-0.799990635,1.200001832,0.000009971,0.799990619,-0.000001132
6.213000000,-0.000000590,-0.799990635,1.200001832,0.000009971,0.799990619,-0.000001132
6.250000000,-0.000000590,-0.799990635,1.200001832,0.000009971,0.799990619,-0.000001132
6.266000000,-0.000000590,-0.799990635,1.200001832,0.000009971,0.799990619,-0.000001132
6.292000000,-0.000000590,-0.799990635,1.200001832,0.000009971,0.799990619,-0.000001132
6.346000000,-0.000000590,-0.799990635,1.200001832,0.000009971,0.799990619,-0.000001132
6.368000000,-0.000000590,-0.799990635,1.200001832,0.000009971,0.799990619,-0.000001132
6.398000000,-0.000000590,-0.799990635,1.200001832,0.000009971,0.799990619,-0.000001132
6.425000000,-0.000000590,-0.799990635,1.200001832,0.000009971,0.799990619,-0.000001132
6.444000000,-0.000000590,-0.799990635,1.200001832,0.000009971,0.799990619,-0.000001132
6.465000000,-0.000000590,-0.799990635,1.200001832,0.000009971,0.799990619,-0.000001132
6.481000000,-0.000000590,-0.799990635,1.200001832,0.000009971,0.799990619,-0.000001132
6.492000000,-0.000000590,-0.799990635,1.200001832,0.000009971,0.799990619,-0.000001132
6.512000000,-0.000000590,-0.799990635,1.200001832,0.000009971,0.799990619,-0.000001132
6.533000000,-0.000000590,-0.799990635,1.200001832,0.000009971,0.799990619,-0.000001132
6.563000000,-0.000000590,-0.799990635,1.200001832,0.000009971,0.799990619,-0.000001132
6.570000000,-0.000000590,-0.799990635,1.200001832,0.000009971,0.799990619,-0.000001132
6.586000000,-0.000000590,-0.799990635,1.200001832,0.000009971,0.799990619,-0.000001132
6.610000000,-0.000000590,-0.799990635,1.200001832,0.000009971,0.799990619,-0.000001132
6.634000000,-0.000000590,-0.799990635,1.200001832,0.000009971,0.799990619,-0.000001132
6.650000000,-0.000000590,-0.799990635,1.200001832,0.000009971,0.799990619,-0.000001132
6.679000000,-0.000000590,-0.799990635,1.200001832,0.000009971,0.799990619,-0.000001132
6.691000000,-0.000000590,-0.799990635,1.200001832,0.000009971,0.799990619,-0.000001132
6.707000000,-0.000000590,-0.799990635,1.200001832,0.000009971,0.799990619,-0.000001132
6.726000000,-0.000000590,-0.799990635,1.200001832,0.000009971,0.799990619,-0.000001132
6.740000000,-0.000000590,-0.799990635,1.200001832,0.000009971,0.799990619,-0.000001132
6.783000000,-0.000000590,-0.799990635,1.200001832,0.000009971,0.799990619,-0.000001132
6.803000000,-0.000000590,-0.799990635,1.200001832,0.000009971,0.799990619,-0.000001132
6.827000000,-0.000000590,-0.799990635,1.200001832,0.000009971,0.799990619,-0.000001132
6.857000000,-0.000000590,-0.799990635,1.200001832,0.000009971,0.799990619,-0.000001132
6.881000000,-0.000000590,-0.799990635,1.200001832,0.000009971,0.799990619,-0.000001132
6.895000000,-0.000000590,-0.799990635,1.200001832,0.000009971,0.799990619,-0.000001132
6.921000000,-0.000000590,-0.799990635,1.200001832,0.000009971,0.799990619,-0.000001132
6.935000000,-0.000000590,-0.799990635,1.200001832,0.000009971,0.799990619,-0.000001132
6.945000000,-0.000000590,-0.799990635,1.200001832,0.000009971,0.799990619,-0.000001132
6.957000000,-0.000000590,-0.799990635,1.200001832,0.000009971,0.799990619,-0.000001132
6.977000000,-0.000000590,-0.799990635,1.200001832,0.000009971,0.799990619,-0.000001132
6.984000000,-0.000000590,-0.799990635,1.200001832,0.000009971,0.799990619,-0.000001132
7.002000000,-0.000000590,-0.799990635,1.200001832,0.000009971,0.799990619,-0.000001132
7.021000000,-0.000000590,-0.799990635,1.200001832,0.000009971,0.799990619,-0.000001132
7.030000000,-0.000000590,-0.799990635,1.200001832,0.000009971,0.799990619,-0.000001132
7.045000000,-0.000000590,-0.799990635,1.200001832,0.000009971,0.799990619,-0.000001132
7.075000000,-0.000000590,-0.799990635,1.200001832,0.000009971,0.799990619,-0.000001132
7.104000000,-0.000000590,-0.799990635,1.200001832,0.000009971,0.799990619,-0.000001132
7.123000000,-0.000000590,-0.799990635,1.200001832,0.000009971,0.799990619,-0.000001132
7.160000000,-0.000000590,-0.799990635,1.200001832,0.000009971,0.799990619,-0.000001132
7.182000000,-0.000000590,-0.799990635,1.200001832,0.000009971,0.799990619,-0.000001132
7.211000000,-0.000000590,-0.799990635,1.200001832,0.000009971,0.799990619,-0.000001132
7.234000000,-0.000000590,-0.799990635,1.200001832,0.000009971,0.799990619,-0.000001132
7.246000000,-0.000000590,-0.799990635,1.200001832,0.000009971,0.799990619,-0.000001132
7.272000000,-0.000000590,-0.799990635,1.200001832,0.000009971,0.799990619,-0.000001132
7.294000000,-0.000000590,-0.799990635,1.200001832,0.000009971,0.799990619,-0.000001132
7.312000000,-0.000000590,-0.799990635,1.200001832,0.000009971,0.799990619,-0.000001132
7.326000000,-0.000000590,-0.799990635,1.200001832,0.000009971,0.799990619,-0.000001132
7.356000000,-0.000000590,-0.799990635,1.200001832,0.000009971,0.799990619,-0.000001132
7.387000000,-0.000000590,-0.799990635,1.200001832,0.000009971,0.799990619,-0.000001132
7.422000000,-0.000000590,-0.799990635,1.200001832,0.000009971,0.799990619,-0.000001132
7.450000000,-0.000000590,-0.799990635,1.200001832,0.000009971,0.799990619,-0.000001132
7.472000000,-0.000000590,-0.799990635,1.200001832,0.000009971,0.799990619,-0.000001132
7.507000000,-0.000000590,-0.799990635,1.200001832,0.000009971,0.799990619,-0.000001132
7.515000000,-0.000000590,-0.799990635,1.200001832,0.000009971,0.799990619,-0.000001132
7.545000000,-0.000000590,-0.799990635,1.200001832,0.000009971,0.799990619,-0.000001132
7.556000000,-0.000000590,-0.799990635,1.200001832,0.000009971,0.799990619,-0.000001132
7.587000000,-0.000000590,-0.799990635,1.200001832,0.000009971,0.799990619,-0.000001132
7.615000000,-0.000000590,-0.799990635,1.200001832,0.000009971,0.799990619,-0.000001132
7.630000000,-0.000000590,-0.799990635,1.200001832,0.000009971,0.799990619,-0.000001132
7.639000000,-0.000000590,-0.799990635,1.200001832,0.000009971,0.799990619,-0.000001132
7.656000000,-0.000000590,-0.799990635,1.200001832,0.000009971,0.799990619,-0.000001132
7.675000000,-0.000000590,-0.799990635,1.200001832,0.000009971,0.799990619,-0.000001132
7.688000000,-0.000000590,-0.799990635,1.200001832,0.000009971,0.799990619,-0.000001132
7.706000000,-0.000000590,-0.799990635,1.200001832,0.000009971,0.799990619,-0.000001132
7.733000000,-0.000000590,-0.799990635,1.200001832,0.000009971,0.799990619,-0.000001132
7.753000000,-0.000000590,-0.799990635,1.200001832,0.000009971,0.799990619,-0.000001132
7.778000000,-0.000000590,-0.799990635,1.200001832,0.000009971,0.799990619,-0.000001132
7.795000000,-0.000000590,-0.799990635,1.200001832,0.000009971,0.799990619,-0.000001132
7.811000000,-0.000000590,-0.799990635,1.200001832,0.000009971,0.799990619,-0.000001132
7.840000000,-0.000000590,-0.799990635,1.200001832,0.000009971,0.799990619,-0.000001132
7.877000000,-0.000000590,-0.799990635,1.200001832,0.000009971,0.799990619,-0.000001132
7.878000000,-0.000000590,-0.799990635,1.200001832,0.000009971,0.799990619,-0.000001132
7.904000000,-0.000000590,-0.799990635,1.200001832,0.000009971,0.799990619,-0.000001132
7.919000000,-0.000000590,-0.799990635,1.200001832,0.000009971,0.799990619,-0.000001132
7.945000000,-0.000000590,-0.799990635,1.200001832,0.000009971,0.799990619,-0.000001132
7.964000000,-0.000000590,-0.799990635,1.200001832,0.000009971,0.799990619,-0.000001132
7.983000000,-0.000000590,-0.799990635,1.200001832,0.000009971,0.799990619,-0.000001132
8.007000000,-0.000000590,-0.799990635,1.200001832,0.000009971,0.799990619,-0.000001132
8.023000000,-0.000000590,-0.799990635,1.200001832,0.000009971,0.799990619,-0.000001132
8.040000000,-0.000000590,-0.799990635,1.200001832,0.000009971,0.799990619,-0.000001132
8.061000000,-0.000000590,-0.799990635,1.200001832,0.000009971,0.799990619,-0.000001132
8.074000000,-0.000000590,-0.799990635,1.200001832,0.000009971,0.799990619,-0.000001132
8.089000000,-0.000000590,-0.799990635,1.200001832,0.000009971,0.799990619,-0.000001132
8.111000000,-0.000000590,-0.799990635,1.200001832,0.000009971,0.799990619,-0.000001132
8.125000000,-0.000000590,-0.799990635,1.200001832,0.000009971,0.799990619,-0.000001132
8.138000000,-0.000000590,-0.799990635,1.200001832,0.000009971,0.799990619,-0.000001132
8.158000000,-0.000000590,-0.799990635,1.200001832,0.000009971,0.799990619,-0.000001132
8.169000000,-0.000000590,-0.799990635,1.200001832,0.000009971,0.799990619,-0.000001132
8.210000000,-0.000000590,-0.799990635,1.200001832,0.000009971,0.799990619,-0.000001132
8.232000000,-0.000000590,-0.799990635,1.200001832,0.000009971,0.799990619,-0.000001132
8.256000000,-0.000000590,-0.799990635,1.200001832,0.000009971,0.799990619,-0.000001132
8.273000000,-0.000000590,-0.799990635,1.200001832,0.000009971,0.799990619,-0.000001132
8.295000000,-0.000000590,-0.799990635,1.200001832,0.000009971,0.799990619,-0.000001132
8.308000000,-0.000000590,-0.799990635,1.200001832,0.000009971,0.799990619,-0.000001132
8.321000000,-0.000000590,-0.799990635,1.200001832,0.000009971,0.799990619,-0.000001132
8.341000000,-0.000000590,-0.799990635,1.200001832,0.000009971,0.799990619,-0.000001132
8.369000000,-0.000000590,-0.799990635,1.200001832,0.000009971,0.799990619,-0.000001132
8.387000000,-0.000000590,-0.799990635,1.200001832,0.000009971,0.799990619,-0.000001132
8.413000000,-0.000000590,-0.799990635,1.200001832,0.000009971,0.799990619,-0.000001132
8.436000000,-0.000000590,-0.799990635,1.200001832,0.000009971,0.799990619,-0.000001132
8.456000000,-0.000000590,-0.799990635,1.200001832,0.000009971,0.799990619,-0.000001132
8.473000000,-0.000000590,-0.799990635,1.200001832,0.000009971,0.799990619,-0.000001132
8.486000000,-0.000000590,-0.799990635,1.200001832,0.000009971,0.799990619,-0.000001132
8.507000000,-0.000000590,-0.799990635,1.200001832,0.000009971,0.799990619,-0.000001132
8.537000000,-0.000000590,-0.799990635,1.200001832,0.000009971,0.799990619,-0.000001132
8.557000000,-0.000000590,-0.799990635,1.200001832,0.000009971,0.799990619,-0.000001132
8.575000000,-0.000000590,-0.799990635,1.200001832,0.000009971,0.799990619,-0.000001132
8.588000000,-0.000000590,-0.799990635,1.200001832,0.000009971,0.799990619,-0.000001132
8.617000000,-0.000000590,-0.799990635,1.200001832,0.000009971,0.799990619,-0.000001132
8.635000000,-0.000000590,-0.799990635,1.200001832,0.000009971,0.799990619,-0.000001132
8.659000000,-0.000000590,-0.799990635,1.200001832,0.000009971,0.799990619,-0.000001132
8.679000000,-0.000000590,-0.799990635,1.200001832,0.000009971,0.799990619,-0.000001132
8.706000000,-0.000000590,-0.799990635,1.200001832,0.000009971,0.799990619,-0.000001132
8.723000000,-0.000000590,-0.799990635,1.200001832,0.000009971,0.799990619,-0.000001132
8.737000000,-0.000000590,-0.799990635,1.200001832,0.000009971,0.799990619,-0.000001132
8.749000000,-0.000000590,-0.799990635,1.200001832,0.000009971,0.799990619,-0.000001132
8.767000000,-0.000000590,-0.799990635,1.200001832,0.000009971,0.799990619,-0.000001132
8.801000000,-0.000000590,-0.799990635,1.200001832,0.000009971,0.799990619,-0.000001132
8.818000000,-0.000000590,-0.799990635,1.200001832,0.000009971,0.799990619,-0.000001132
8.831000000,-0.000000590,-0.799990635,1.200001832,0.000009971,0.799990619,-0.000001132
8.847000000,-0.000000590,-0.799990635,1.200001832,0.000009971,0.799990619,-0.000001132
8.864000000,-0.000000590,-0.799990635,1.200001832,0.000009971,0.799990619,-0.000001132
8.884000000,-0.000000590,-0.799990635,1.200001832,0.000009971,0.799990619,-0.000001132
8.911000000,-0.000000590,-0.799990635,1.200001832,0.000009971,0.799990619,-0.000001132
8.931000000,-0.000000590,-0.799990635,1.200001832,0.000009971,0.799990619,-0.000001132
8.934000000,-0.000000590,-0.799990635,1.200001832,0.000009971,0.799990619,-0.000001132
8.949000000,-0.000000590,-0.799990635,1.200001832,0.000009971,0.799990619,-0.000001132
8.970000000,-0.000000590,-0.799990635,1.200001832,0.000009971,0.799990619,-0.000001132
8.991000000,-0.000000590,-0.799990635,1.200001832,0.000009971,0.799990619,-0.000001132
9.013000000,-0.000000590,-0.799990635,1.200001832,0.000009971,0.799990619,-0.000001132
9.030000000,-0.000000590,-0.799990635,1.200001832,0.000009971,0.799990619,-0.000001132
9.066000000,-0.000000590,-0.799990635,1.200001832,0.000009971,0.799990619,-0.000001132
9.075000000,-0.000000590,-0.799990635,1.200001832,0.000009971,0.799990619,-0.000001132
9.092000000,-0.000000590,-0.799990635,1.200001832,0.000009971,0.799990619,-0.000001132
9.096000000,-0.000000590,-0.799990635,1.200001832,0.000009971,0.799990619,-0.000001132
9.117000000,-0.000000590,-0.799990635,1.200001832,0.000009971,0.799990619,-0.000001132
9.136000000,-0.000000590,-0.799990635,1.200001832,0.000009971,0.799990619,-0.000001132
9.166000000,-0.000000590,-0.799990635,1.200001832,0.000009971,0.799990619,-0.000001132
9.197000000,-0.000000590,-0.799990635,1.200001832,0.000009971,0.799990619,-0.000001132
9.217000000,-0.000000590,-0.799990635,1.200001832,0.000009971,0.799990619,-0.000001132
9.245000000,-0.000000590,-0.799990635,1.200001832,0.000009971,0.799990619,-0.000001132
9.262000000,-0.000000590,-0.799990635,1.200001832,0.000009971,0.799990619,-0.000001132
9.274000000,-0.000000590,-0.799990635,1.200001832,0.000009971,0.799990619,-0.000001132
9.284000000,-0.000000590,-0.799990635,1.200001832,0.000009971,0.799990619,-0.000001132
9.300000000,-0.000000590,-0.799990635,1.200001832,0.000009971,0.799990619,-0.000001132
9.322000000,-0.000000590,-0.799990635,1.200001832,0.000009971,0.799990619,-0.000001132
9.342000000,-0.000000590,-0.799990635,1.200001832,0.000009971,0.799990619,-0.000001132
9.363000000,-0.000000590,-0.799990635,1.200001832,0.000009971,0.799990619,-0.000001132
9.384000000,-0.000000590,-0.799990635,1.200001832,0.000009971,0.799990619,-0.000001132
9.430000000,-0.000000590,-0.799990635,1.200001832,0.000009971,0.799990619,-0.000001132
9.443000000,-0.000000590,-0.799990635,1.200001832,0.000009971,0.799990619,-0.000001132
9.470000000,-0.000000590,-0.799990635,1.200001832,0.000009971,0.799990619,-0.000001132
9.485000000,-0.000000590,-0.799990635,1.200001832,0.000009971,0.799990619,-0.000001132
9.501000000,-0.000000590,-0.799990635,1.200001832,0.000009971,0.799990619,-0.000001132
9.514000000,-0.000000590,-0.799990635,1.200001832,0.000009971,0.799990619,-0.000001132
9.537000000,-0.000000590,-0.799990635,1.200001832,0.000009971,0.799990619,-0.000001132
9.541000000,-0.000000590,-0.799990635,1.200001832,0.000009971,0.799990619,-0.000001132
9.551000000,-0.000000590,-0.799990635,1.200001832,0.000009971,0.799990619,-0.000001132
9.572000000,-0.000000590,-0.799990635,1.200001832,0.000009971,0.799990619,-0.000001132
9.588000000,-0.000000590,-0.799990635,1.200001832,0.000009971,0.799990619,-0.000001132
9.614000000,-0.000000590,-0.799990635,1.200001832,0.000009971,0.799990619,-0.000001132
9.640000000,-0.000000590,-0.799990635,1.200001832,0.000009971,0.799990619,-0.000001132
9.666000000,-0.000000590,-0.799990635,1.200001832,0.000009971,0.799990619,-0.000001132
9.688000000,-0.000000590,-0.799990635,1.200001832,0.000009971,0.799990619,-0.000001132
9.705000000,-0.000000590,-0.799990635,1.200001832,0.000009971,0.799990619,-0.000001132
9.741000000,-0.000000590,-0.799990635,1.200001832,0.000009971,0.799990619,-0.000001132
9.759000000,-0.000000590,-0.799990635,1.200001832,0.000009971,0.799990619,-0.000001132
9.773000000,-0.000000590,-0.799990635,1.200001832,0.000009971,0.799990619,-0.000001132
9.798000000,-0.000000590,-0.799990635,1.200001832,0.000009971,0.799990619,-0.000001132
9.829000000,-0.000000590,-0.799990635,1.200001832,0.000009971,0.799990619,-0.000001132
9.851000000,-0.000000590,-0.799990635,1.200001832,0.000009971,0.799990619,-0.000001132
9.875000000,-0.000000590,-0.799990635,1.200001832,0.000009971,0.799990619,-0.000001132
9.904000000,-0.000000590,-0.799990635,1.200001832,0.000009971,0.799990619,-0.000001132
9.917000000,-0.000000590,-0.799990635,1.200001832,0.000009971,0.799990619,-0.000001132
9.938000000,-0.000000590,-0.799990635,1.200001832,0.000009971,0.799990619,-0.000001132
9.959000000,-0.000000590,-0.799990635,1.200001832,0.000009971,0.799990619,-0.000001132
9.980000000,-0.000000590,-0.799990635,1.200001832,0.000009971,0.799990619,-0.000001132
9.981000000,-0.000000590,-0.799990635,1.200001832,0.000009971,0.799990619,-0.000001132
10.001000000,-0.000000590,-0.799990635,1.200001832,0.000009971,0.799990619,-0.000001132
10.019000000,-0.000000590,-0.799990635,1.200001832,0.000009971,0.799990619,-0.000001132
10.033000000,-0.000000590,-0.799990635,1.200001832,0.000009971,0.799990619,-0.000001132
10.047000000,-0.000000590,-0.799990635,1.200001832,0.000009971,0.799990619,-0.000001132
10.064000000,-0.000000590,-0.799990635,1.200001832,0.000009971,0.799990619,-0.000001132
10.096000000,-0.000000590,-0.799990635,1.200001832,0.000009971,0.799990619,-0.000001132
10.123000000,-0.000000590,-0.799990635,1.200001832,0.000009971,0.799990619,-0.000001132
10.142000000,-0.000000590,-0.799990635,1.200001832,0.000009971,0.799990619,-0.000001132
10.173000000,-0.000000590,-0.799990635,1.200001832,0.000009971,0.799990619,-0.000001132
10.197000000,-0.000000590,-0.799990635,1.200001832,0.000009971,0.799990619,-0.000001132
10.209000000,-0.000000590,-0.799990635,1.200001832,0.000009971,0.799990619,-0.000001132
10.226000000,-0.000000590,-0.799990635,1.200001832,0.000009971,0.799990619,-0.000001132
10.264000000,-0.000000590,-0.799990635,1.200001832,0.000009971,0.799990619,-0.000001132
10.282000000,-0.000000590,-0.799990635,1.200001832,0.000009971,0.799990619,-0.000001132
10.304000000,-0.000000590,-0.799990635,1.200001832,0.000009971,0.799990619,-0.000001132
10.315000000,-0.000000590,-0.799990635,1.200001832,0.000009971,0.799990619,-0.000001132
10.352000000,-0.000000590,-0.799990635,1.200001832,0.000009971,0.799990619,-0.000001132
10.383000000,-0.000000590,-0.799990635,1.200001832,0.000009971,0.799990619,-0.000001132
10.411000000,-0.000000590,-0.799990635,1.200001832,0.000009971,0.799990619,-0.000001132
10.433000000,-0.000000590,-0.799990635,1.200001832,0.000009971,0.799990619,-0.000001132
10.450000000,-0.000000590,-0.799990635,1.200001832,0.000009971,0.799990619,-0.000001132
10.462000000,-0.000000590,-0.799990635,1.200001832,0.000009971,0.799990619,-0.000001132
10.495000000,-0.000000590,-0.799990635,1.200001832,0.000009971,0.799990619,-0.000001132
10.520000000,-0.000000590,-0.799990635,1.200001832,0.000009971,0.799990619,-0.000001132
10.537000000,-0.000000590,-0.799990635,1.200001832,0.000009971,0.799990619,-0.000001132
10.561000000,-0.000000590,-0.799990635,1.200001832,0.000009971,0.799990619,-0.000001132
10.575000000,-0.000000590,-0.799990635,1.200001832,0.000009971,0.799990619,-0.000001132
10.594000000,-0.000000590,-0.799990635,1.200001832,0.000009971,0.799990619,-0.000001132
10.614000000,-0.000000590,-0.799990635,1.200001832,0.000009971,0.799990619,-0.000001132
10.625000000,-0.000000590,-0.799990635,1.200001832,0.000009971,0.799990619,-0.000001132
10.648000000,-0.000000590,-0.799990635,1.200001832,0.000009971,0.799990619,-0.000001132
10.661000000,-0.000000590,-0.799990635,1.200001832,0.000009971,0.799990619,-0.000001132
10.688000000,-0.000000590,-0.799990635,1.200001832,0.000009971,0.799990619,-0.000001132
10.703000000,-0.000000590,-0.799990635,1.200001832,0.000009971,0.799990619,-0.000001132
10.721000000,-0.000000590,-0.799990635,1.200001832,0.000009971,0.799990619,-0.000001132
10.741000000,-0.000000590,-0.799990635,1.200001832,0.000009971,0.799990619,-0.000001132
10.774000000,-0.000000590,-0.799990635,1.200001832,0.000009971,0.799990619,-0.000001132
10.792000000,-0.000000590,-0.799990635,1.200001832,0.000009971,0.799990619,-0.000001132
10.809000000,-0.000000590,-0.799990635,1.200001832,0.000009971,0.799990619,-0.000001132
10.824000000,-0.000000590,-0.799990635,1.200001832,0.000009971,0.799990619,-0.000001132
10.871000000,-0.000000590,-0.799990635,1.200001832,0.000009971,0.799990619,-0.000001132
10.903000000,-0.000000590,-0.799990635,1.200001832,0.000009971,0.799990619,-0.000001132
10.934000000,-0.000000590,-0.799990635,1.200001832,0.000009971,0.799990619,-0.000001132
10.960000000,-0.000000590,-0.799990635,1.200001832,0.000009971,0.799990619,-0.000001132
10.984000000,-0.000000590,-0.799990635,1.200001832,0.000009971,0.799990619,-0.000001132
11.005000000,-0.000000590,-0.799990635,1.200001832,0.000009971,0.799990619,-0.000001132
11.009000000,-0.000000590,-0.799990635,1.200001832,0.000009971,0.799990619,-0.000001132
11.023000000,-0.000000590,-0.799990635,1.200001832,0.000009971,0.799990619,-0.000001132
11.036000000,-0.000000590,-0.799990635,1.200001832,0.000009971,0.799990619,-0.000001132
11.053000000,-0.000000590,-0.799990635,1.200001832,0.000009971,0.799990619,-0.000001132
11.073000000,-0.000000590,-0.799990635,1.200001832,0.000009971,0.799990619,-0.000001132
11.086000000,-0.000000590,-0.799990635,1.200001832,0.000009971,0.799990619,-0.000001132
11.098000000,-0.000000590,-0.799990635,1.200001832,0.000009971,0.799990619,-0.000001132
11.126000000,-0.000000590,-0.799990635,1.200001832,0.000009971,0.799990619,-0.000001132
11.145000000,-0.000000590,-0.799990635,1.200001832,0.000009971,0.799990619,-0.000001132
11.162000000,-0.000000590,-0.799990635,1.200001832,0.000009971,0.799990619,-0.000001132
11.170000000,-0.000000590,-0.799990635,1.200001832,0.000009971,0.799990619,-0.000001132
11.199000000,-0.000000590,-0.799990635,1.200001832,0.000009971,0.799990619,-0.000001132
11.220000000,-0.000000590,-0.799990635,1.200001832,0.000009971,0.799990619,-0.000001132
11.240000000,-0.000000590,-0.799990635,1.200001832,0.000009971,0.799990619,-0.000001132
11.262000000,-0.000000590,-0.799990635,1.200001832,0.000009971,0.799990619,-0.000001132
11.280000000,-0.000000590,-0.799990635,1.200001832,0.000009971,0.799990619,-0.000001132
11.302000000,-0.000000590,-0.799990635,1.200001832,0.000009971,0.799990619,-0.000001132
11.321000000,-0.000000590,-0.799990635,1.200001832,0.000009971,0.799990619,-0.000001132
11.333000000,-0.000000590,-0.799990635,1.200001832,0.000009971,0.799990619,-0.000001132
11.348000000,-0.000000590,-0.799990635,1.200001832,0.000009971,0.799990619,-0.000001132
11.377000000,-0.000000590,-0.799990635,1.200001832,0.000009971,0.799990619,-0.000001132
11.392000000,-0.000000590,-0.799990635,1.200001832,0.000009971,0.799990619,-0.000001132
11.408000000,-0.000000590,-0.799990635,1.200001832,0.000009971,0.799990619,-0.000001132
11.437000000,-0.000000590,-0.799990635,1.200001832,0.000009971,0.799990619,-0.000001132
11.466000000,-0.000000590,-0.799990635,1.200001832,0.000009971,0.799990619,-0.000001132
11.490000000,-0.000000590,-0.799990635,1.200001832,0.000009971,0.799990619,-0.000001132
11.520000000,-0.000000590,-0.799990635,1.200001832,0.000009971,0.799990619,-0.000001132
11.533000000,-0.000000590,-0.799990635,1.200001832,0.000009971,0.799990619,-0.000001132
11.568000000,-0.000000590,-0.799990635,1.200001832,0.000009971,0.799990619,-0.000001132
11.596000000,-0.000000590,-0.799990635,1.200001832,0.000009971,0.799990619,-0.000001132
11.617000000,-0.000000590,-0.799990635,1.200001832,0.000009971,0.799990619,-0.000001132
11.644000000,-0.000000590,-0.799990635,1.200001832,0.000009971,0.799990619,-0.000001132
11.672000000,-0.000000590,-0.799990635,1.200001832,0.000009971,0.799990619,-0.000001132
11.693000000,-0.000000590,-0.799990635,1.200001832,0.000009971,0.799990619,-0.000001132
11.706000000,-0.000000590,-0.799990635,1.200001832,0.000009971,0.799990619,-0.000001132
11.734000000,-0.000000590,-0.799990635,1.200001832,0.000009971,0.799990619,-0.000001132
11.749000000,-0.000000590,-0.799990635,1.200001832,0.000009971,0.799990619,-0.000001132
11.768000000,-0.000000590,-0.799990635,1.200001832,0.000009971,0.799990619,-0.000001132
11.789000000,-0.000000590,-0.799990635,1.200001832,0.000009971,0.799990619,-0.000001132
11.826000000,-0.000000590,-0.799990635,1.200001832,0.000009971,0.799990619,-0.000001132
11.829000000,-0.000000590,-0.799990635,1.200001832,0.000009971,0.799990619,-0.000001132
11.852000000,-0.000000590,-0.799990635,1.200001832,0.000009971,0.799990619,-0.000001132
11.882000000,-0.000000590,-0.799990635,1.200001832,0.000009971,0.799990619,-0.000001132
11.901000000,-0.000000590,-0.799990635,1.200001832,0.000009971,0.799990619,-0.000001132
11.926000000,-0.000000590,-0.799990635,1.200001832,0.000009971,0.799990619,-0.000001132
11.946000000,-0.000000590,-0.799990635,1.200001832,0.000009971,0.799990619,-0.000001132
11.962000000,-0.000000590,-0.799990635,1.200001832,0.000009971,0.799990619,-0.000001132
11.972000000,-0.000000590,-0.799990635,1.200001832,0.000009971,0.799990619,-0.000001132
12.002000000,-0.000000590,-0.799990635,1.200001832,0.000009971,0.799990619,-0.000001132
12.013000000,-0.000000590,-0.799990635,1.200001832,0.000009971,0.799990619,-0.000001132
12.038000000,-0.000000590,-0.799990635,1.200001832,0.000009971,0.799990619,-0.000001132
12.055000000,-0.000000590,-0.799990635,1.200001832,0.000009971,0.799990619,-0.000001132
12.084000000,-0.000000590,-0.799990635,1.200001832,0.000009971,0.799990619,-0.000001132
12.107000000,-0.000000590,-0.799990635,1.200001832,0.000009971,0.799990619,-0.000001132
12.153000000,-0.000000590,-0.799990635,1.200001832,0.000009971,0.799990619,-0.000001132
12.168000000,-0.000000590,-0.799990635,1.200001832,0.000009971,0.799990619,-0.000001132
12.200000000,-0.000000590,-0.799990635,1.200001832,0.000009971,0.799990619,-0.000001132
12.231000000,-0.000000590,-0.799990635,1.200001832,0.000009971,0.799990619,-0.000001132
12.253000000,-0.000000590,-0.799990635,1.200001832,0.000009971,0.799990619,-0.000001132
12.283000000,-0.000000590,-0.799990635,1.200001832,0.000009971,0.799990619,-0.000001132
12.308000000,-0.000000590,-0.799990635,1.200001832,0.000009971,0.799990619,-0.000001132
12.318000000,-0.000000590,-0.799990635,1.200001832,0.000009971,0.799990619,-0.000001132
12.344000000,-0.000000590,-0.799990635,1.200001832,0.000009971,0.799990619,-0.000001132
12.375000000,-0.000000590,-0.799990635,1.200001832,0.000009971,0.799990619,-0.000001132
12.399000000,-0.000000590,-0.799990635,1.200001832,0.000009971,0.799990619,-0.000001132
12.419000000,-0.000000590,-0.799990635,1.200001832,0.000009971,0.799990619,-0.000001132
12.448000000,-0.000000590,-0.799990635,1.200001832,0.000009971,0.799990619,-0.000001132
12.469000000,-0.000000590,-0.799990635,1.200001832,0.000009971,0.799990619,-0.000001132
12.484000000,-0.000000590,-0.799990635,1.200001832,0.000009971,0.799990619,-0.000001132
12.507000000,-0.000000590,-0.799990635,1.200001832,0.000009971,0.799990619,-0.000001132
12.529000000,-0.000000590,-0.799990635,1.200001832,0.000009971,0.799990619,-0.000001132
12.569000000,-0.000000590,-0.799990635,1.200001832,0.000009971,0.799990619,-0.000001132
12.586000000,-0.000000590,-0.799990635,1.200001832,0.000009971,0.799990619,-0.000001132
12.611000000,-0.000000590,-0.799990635,1.200001832,0.000009971,0.799990619,-0.000001132
12.629000000,-0.000000590,-0.799990635,1.200001832,0.000009971,0.799990619,-0.000001132
12.658000000,-0.000000590,-0.799990635,1.200001832,0.000009971,0.799990619,-0.000001132
12.691000000,-0.000000590,-0.799990635,1.200001832,0.000009971,0.799990619,-0.000001132
12.716000000,-0.000000590,-0.799990635,1.200001832,0.000009971,0.799990619,-0.000001132
12.750000000,-0.000000590,-0.799990635,1.200001832,0.000009971,0.799990619,-0.000001132
12.783000000,-0.000000590,-0.799990635,1.200001832,0.000009971,0.799990619,-0.000001132
12.794000000,-0.000000590,-0.799990635,1.200001832,0.000009971,0.799990619,-0.000001132
12.816000000,-0.000000590,-0.799990635,1.200001832,0.000009971,0.799990619,-0.000001132
12.829000000,-0.000000590,-0.799990635,1.200001832,0.000009971,0.799990619,-0.000001132
12.856000000,-0.000000590,-0.799990635,1.200001832,0.000009971,0.799990619,-0.000001132
12.879000000,-0.000000590,-0.799990635,1.200001832,0.000009971,0.799990619,-0.000001132
12.895000000,-0.000000590,-0.799990635,1.200001832,0.000009971,0.799990619,-0.000001132
12.899000000,-0.000000590,-0.799990635,1.200001832,0.000009971,0.799990619,-0.000001132
12.917000000,-0.000000590,-0.799990635,1.200001832,0.000009971,0.799990619,-0.000001132
12.927000000,-0.000000590,-0.799990635,1.200001832,0.000009971,0.799990619,-0.000001132
12.945000000,-0.000000590,-0.799990635,1.200001832,0.000009971,0.799990619,-0.000001132
12.963000000,-0.000000590,-0.799990635,1.200001832,0.000009971,0.799990619,-0.000001132
12.978000000,-0.000000590,-0.799990635,1.200001832,0.000009971,0.799990619,-0.000001132
12.996000000,-0.000000590,-0.799990635,1.200001832,0.000009971,0.799990619,-0.000001132
13.027000000,-0.000000590,-0.799990635,1.200001832,0.000009971,0.799990619,-0.000001132
13.050000000,-0.000000590,-0.799990635,1.200001832,0.000009971,0.799990619,-0.000001132
13.070000000,-0.000000590,-0.799990635,1.200001832,0.000009971,0.799990619,-0.000001132
13.076000000,-0.000000590,-0.799990635,1.200001832,0.000009971,0.799990619,-0.000001132
13.083000000,-0.000000590,-0.799990635,1.200001832,0.000009971,0.799990619,-0.000001132
13.107000000,-0.000000590,-0.799990635,1.200001832,0.000009971,0.799990619,-0.000001132
13.134000000,-0.000000590,-0.799990635,1.200001832,0.000009971,0.799990619,-0.000001132
13.153000000,-0.000000590,-0.799990635,1.200001832,0.000009971,0.799990619,-0.000001132
13.181000000,-0.000000590,-0.799990635,1.200001832,0.000009971,0.799990619,-0.000001132
13.211000000,-0.000000590,-0.799990635,1.200001832,0.000009971,0.799990619,-0.000001132
13.231000000,-0.000000590,-0.799990635,1.200001832,0.000009971,0.799990619,-0.000001132
13.250000000,-0.000000590,-0.799990635,1.200001832,0.000009971,0.799990619,-0.000001132
13.266000000,-0.000000590,-0.799990635,1.200001832,0.000009971,0.799990619,-0.000001132
13.273000000,-0.000000590,-0.799990635,1.200001832,0.000009971,0.799990619,-0.000001132
13.288000000,-0.000000590,-0.799990635,1.200001832,0.000009971,0.799990619,-0.000001132
13.298000000,-0.000000590,-0.799990635,1.200001832,0.000009971,0.799990619,-0.000001132
13.314000000,-0.000000590,-0.799990635,1.200001832,0.000009971,0.799990619,-0.000001132
13.330000000,-0.000000590,-0.799990635,1.200001832,0.000009971,0.799990619,-0.000001132
13.350000000,-0.000000590,-0.799990635,1.200001832,0.000009971,0.799990619,-0.000001132
13.377000000,-0.000000590,-0.799990635,1.200001832,0.000009971,0.799990619,-0.000001132
13.406000000,-0.000000590,-0.799990635,1.200001832,0.000009971,0.799990619,-0.000001132
13.420000000,-0.000000590,-0.799990635,1.200001832,0.000009971,0.799990619,-0.000001132
13.447000000,-0.000000590,-0.799990635,1.200001832,0.000009971,0.799990619,-0.000001132
13.478000000,-0.000000590,-0.799990635,1.200001832,0.000009971,0.799990619,-0.000001132
13.511000000,-0.000000590,-0.799990635,1.200001832,0.000009971,0.799990619,-0.000001132
13.532000000,-0.000000590,-0.799990635,1.200001832,0.000009971,0.799990619,-0.000001132
13.560000000,-0.000000590,-0.799990635,1.200001832,0.000009971,0.799990619,-0.000001132
13.598000000,-0.000000590,-0.799990635,1.200001832,0.000009971,0.799990619,-0.000001132
13.608000000,-0.000000590,-0.799990635,1.200001832,0.000009971,0.799990619,-0.000001132
13.621000000,-0.000000590,-0.799990635,1.200001832,0.000009971,0.799990619,-0.000001132
13.646000000,-0.000000590,-0.799990635,1.200001832,0.000009971,0.799990619,-0.000001132
13.661000000,-0.000000590,-0.799990635,1.200001832,0.000009971,0.799990619,-0.000001132
13.694000000,-0.000000590,-0.799990635,1.200001832,0.000009971,0.799990619,-0.000001132
13.716000000,-0.000000590,-0.799990635,1.200001832,0.000009971,0.799990619,-0.000001132
13.738000000,-0.000000590,-0.799990635,1.200001832,0.000009971,0.799990619,-0.000001132
13.743000000,-0.000000590,-0.799990635,1.200001832,0.000009971,0.799990619,-0.000001132
13.769000000,-0.000000590,-0.799990635,1.200001832,0.000009971,0.799990619,-0.000001132
13.782000000,-0.000000590,-0.799990635,1.200001832,0.000009971,0.799990619,-0.000001132
13.798000000,-0.000000590,-0.799990635,1.200001832,0.000009971,0.799990619,-0.000001132
13.812000000,-0.000000590,-0.799990635,1.200001832,0.000009971,0.799990619,-0.000001132
13.834000000,-0.000000590,-0.799990635,1.200001832,0.000009971,0.799990619,-0.000001132
13.850000000,-0.000000590,-0.799990635,1.200001832,0.000009971,0.799990619,-0.000001132
13.888000000,-0.000000590,-0.799990635,1.200001832,0.000009971,0.799990619,-0.000001132
13.922000000,-0.000000590,-0.799990635,1.200001832,0.000009971,0.799990619,-0.000001132
13.935000000,-0.000000590,-0.799990635,1.200001832,0.000009971,0.799990619,-0.000001132
13.972000000,-0.000000590,-0.799990635,1.200001832,0.000009971,0.799990619,-0.000001132
14.000000000,-0.000000590,-0.799990635,1.200001832,0.000009971,0.799990619,-0.000001132
14.012000000,-0.000000590,-0.799990635,1.200001832,0.000009971,0.799990619,-0.000001132
14.030000000,-0.000000590,-0.799990635,1.200001832,0.000009971,0.799990619,-0.000001132
14.048000000,-0.000000590,-0.799990635,1.200001832,0.000009971,0.799990619,-0.000001132
14.069000000,-0.000000590,-0.799990635,1.200001832,0.000009971,0.799990619,-0.000001132
14.098000000,-0.000000590,-0.799990635,1.200001832,0.000009971,0.799990619,-0.000001132
14.108000000,-0.000000590,-0.799990635,1.200001832,0.000009971,0.799990619,-0.000001132
14.127000000,-0.000000590,-0.799990635,1.200001832,0.000009971,0.799990619,-0.000001132
14.157000000,-0.000000590,-0.799990635,1.200001832,0.000009971,0.799990619,-0.000001132
14.180000000,-0.000000590,-0.799990635,1.200001832,0.000009971,0.799990619,-0.000001132
14.200000000,-0.000000590,-0.799990635,1.200001832,0.000009971,0.799990619,-0.000001132
14.223000000,-0.000000590,-0.799990635,1.200001832,0.000009971,0.799990619,-0.000001132
14.247000000,-0.000000590,-0.799990635,1.200001832,0.000009971,0.799990619,-0.000001132
14.262000000,-0.000000590,-0.799990635,1.200001832,0.000009971,0.799990619,-0.000001132
14.285000000,-0.000000590,-0.799990635,1.200001832,0.000009971,0.799990619,-0.000001132
14.301000000,-0.000000590,-0.799990635,1.200001832,0.000009971,0.799990619,-0.000001132
14.307000000,-0.000000590,-0.799990635,1.200001832,0.000009971,0.799990619,-0.000001132
14.324000000,-0.000000590,-0.799990635,1.200001832,0.000009971,0.799990619,-0.000001132
14.334000000,-0.000000590,-0.799990635,1.200001832,0.000009971,0.799990619,-0.000001132
14.380000000,-0.000000590,-0.799990635,1.200001832,0.000009971,0.799990619,-0.000001132
14.407000000,-0.000000590,-0.799990635,1.200001832,0.000009971,0.799990619,-0.000001132
14.428000000,-0.000000590,-0.799990635,1.200001832,0.000009971,0.799990619,-0.000001132
14.458000000,-0.000000590,-0.799990635,1.200001832,0.000009971,0.799990619,-0.000001132
14.482000000,-0.000000590,-0.799990635,1.200001832,0.000009971,0.799990619,-0.000001132
14.505000000,-0.000000590,-0.799990635,1.200001832,0.000009971,0.799990619,-0.000001132
14.518000000,-0.000000590,-0.799990635,1.200001832,0.000009971,0.799990619,-0.000001132
14.534000000,-0.000000590,-0.799990635,1.200001832,0.000009971,0.799990619,-0.000001132
14.549000000,-0.000000590,-0.799990635,1.200001832,0.000009971,0.799990619,-0.000001132
14.567000000,-0.000000590,-0.799990635,1.200001832,0.000009971,0.799990619,-0.000001132
14.584000000,-0.000000590,-0.799990635,1.200001832,0.000009971,0.799990619,-0.000001132
14.608000000,-0.000000590,-0.799990635,1.200001832,0.000009971,0.799990619,-0.000001132
14.636000000,-0.000000590,-0.799990635,1.200001832,0.000009971,0.799990619,-0.000001132
14.654000000,-0.000000590,-0.799990635,1.200001832,0.000009971,0.799990619,-0.000001132
14.678000000,-0.000000590,-0.799990635,1.200001832,0.000009971,0.799990619,-0.000001132
14.704000000,-0.000000590,-0.799990635,1.200001832,0.000009971,0.799990619,-0.000001132
14.736000000,-0.000000590,-0.799990635,1.200001832,0.000009971,0.799990619,-0.000001132
14.781000000,-0.000000590,-0.799990635,1.200001832,0.000009971,0.799990619,-0.000001132
14.789000000,-0.000000590,-0.799990635,1.200001832,0.000009971,0.799990619,-0.000001132
14.810000000,-0.000000590,-0.799990635,1.200001832,0.000009971,0.799990619,-0.000001132
14.839000000,-0.000000590,-0.799990635,1.200001832,0.000009971,0.799990619,-0.000001132
14.859000000,-0.000000590,-0.799990635,1.200001832,0.000009971,0.799990619,-0.000001132
14.877000000,-0.000000590,-0.799990635,1.200001832,0.000009971,0.799990619,-0.000001132
14.914000000,-0.000000590,-0.799990635,1.200001832,0.000009971,0.799990619,-0.000001132
14.935000000,-0.000000590,-0.799990635,1.200001832,0.000009971,0.799990619,-0.000001132
14.979000000,-0.000000590,-0.799990635,1.200001832,0.000009971,0.799990619,-0.000001132
14.995000000,-0.000000590,-0.799990635,1.200001832,0.000009971,0.799990619,-0.000001132
15.031000000,-0.000000590,-0.799990635,1.200001832,0.000009971,0.799990619,-0.000001132
15.057000000,-0.000000590,-0.799990635,1.200001832,0.000009971,0.799990619,-0.000001132
15.075000000,-0.000000590,-0.799990635,1.200001832,0.000009971,0.799990619,-0.000001132
15.094000000,-0.000000590,-0.799990635,1.200001832,0.000009971,0.799990619,-0.000001132
15.106000000,-0.000000590,-0.799990635,1.200001832,0.000009971,0.799990619,-0.000001132
15.136000000,-0.000000590,-0.799990635,1.200001832,0.000009971,0.799990619,-0.000001132
15.156000000,-0.000000590,-0.799990635,1.200001832,0.000009971,0.799990619,-0.000001132
15.189000000,-0.000000590,-0.799990635,1.200001832,0.000009971,0.799990619,-0.000001132
15.216000000,-0.000000590,-0.799990635,1.200001832,0.000009971,0.799990619,-0.000001132
15.230000000,-0.000000590,-0.799990635,1.200001832,0.000009971,0.799990619,-0.000001132
15.273000000,-0.000000590,-0.799990635,1.200001832,0.000009971,0.799990619,-0.000001132
15.303000000,-0.000000590,-0.799990635,1.200001832,0.000009971,0.799990619,-0.000001132
15.337000000,-0.000000590,-0.799990635,1.200001832,0.000009971,0.799990619,-0.000001132
15.352000000,-0.000000590,-0.799990635,1.200001832,0.000009971,0.799990619,-0.000001132
15.377000000,-0.000000590,-0.799990635,1.200001832,0.000009971,0.799990619,-0.000001132
15.399000000,-0.000000590,-0.799990635,1.200001832,0.000009971,0.799990619,-0.000001132
15.425000000,-0.000000590,-0.799990635,1.200001832,0.000009971,0.799990619,-0.000001132
15.459000000,-0.000000590,-0.799990635,1.200001832,0.000009971,0.799990619,-0.000001132
15.481000000,-0.000000590,-0.799990635,1.200001832,0.000009971,0.799990619,-0.000001132
15.507000000,-0.000000590,-0.799990635,1.200001832,0.000009971,0.799990619,-0.000001132
15.523000000,-0.000000590,-0.799990635,1.200001832,0.000009971,0.799990619,-0.000001132
15.545000000,-0.000000590,-0.799990635,1.200001832,0.000009971,0.799990619,-0.000001132
15.566000000,-0.000000590,-0.799990635,1.200001832,0.000009971,0.799990619,-0.000001132
15.609000000,-0.000000590,-0.799990635,1.200001832,0.000009971,0.799990619,-0.000001132
15.628000000,-0.000000590,-0.799990635,1.200001832,0.000009971,0.799990619,-0.000001132
15.649000000,-0.000000590,-0.799990635,1.200001832,0.000009971,0.799990619,-0.000001132
15.680000000,-0.000000590,-0.799990635,1.200001832,0.000009971,0.799990619,-0.000001132
15.704000000,-0.000000590,-0.799990635,1.200001832,0.000009971,0.799990619,-0.000001132
15.722000000,-0.000000590,-0.799990635,1.200001832,0.000009971,0.799990619,-0.000001132
15.745000000,-0.000000590,-0.799990635,1.200001832,0.000009971,0.799990619,-0.000001132
15.760000000,-0.000000590,-0.799990635,1.200001832,0.000009971,0.799990619,-0.000001132
15.785000000,-0.000000590,-0.799990635,1.200001832,0.000009971,0.799990619,-0.000001132
15.816000000,-0.000000590,-0.799990635,1.200001832,0.000009971,0.799990619,-0.000001132
15.849000000,-0.000000590,-0.799990635,1.200001832,0.000009971,0.799990619,-0.000001132
15.880000000,-0.000000590,-0.799990635,1.200001832,0.000009971,0.799990619,-0.000001132
15.913000000,-0.000000590,-0.799990635,1.200001832,0.000009971,0.799990619,-0.000001132
15.927000000,-0.000000590,-0.799990635,1.200001832,0.000009971,0.799990619,-0.000001132
15.952000000,-0.000000590,-0.799990635,1.200001832,0.000009971,0.799990619,-0.000001132
15.982000000,-0.000000590,-0.799990635,1.200001832,0.000009971,0.799990619,-0.000001132
16.028000000,-0.000000590,-0.799990635,1.200001832,0.000009971,0.799990619,-0.000001132
16.052000000,-0.000000590,-0.799990635,1.200001832,0.000009971,0.799990619,-0.000001132
16.066000000,-0.000000590,-0.799990635,1.200001832,0.000009971,0.799990619,-0.000001132
16.104000000,-0.000000590,-0.799990635,1.200001832,0.000009971,0.799990619,-0.000001132
16.140000000,-0.000000590,-0.799990635,1.200001832,0.000009971,0.799990619,-0.000001132
16.173000000,-0.000000590,-0.799990635,1.200001832,0.000009971,0.799990619,-0.000001132
16.202000000,-0.000000590,-0.799990635,1.200001832,0.000009971,0.799990619,-0.000001132
16.224000000,-0.000000590,-0.799990635,1.200001832,0.000009971,0.799990619,-0.000001132
16.248000000,-0.000000590,-0.799990635,1.200001832,0.000009971,0.799990619,-0.000001132
16.271000000,-0.000000590,-0.799990635,1.200001832,0.000009971,0.799990619,-0.000001132
16.292000000,-0.000000590,-0.799990635,1.200001832,0.000009971,0.799990619,-0.000001132
16.315000000,-0.000000590,-0.799990635,1.200001832,0.000009971,0.799990619,-0.000001132
16.336000000,-0.000000590,-0.799990635,1.200001832,0.000009971,0.799990619,-0.000001132
16.348000000,-0.000000590,-0.799990635,1.200001832,0.000009971,0.799990619,-0.000001132
16.366000000,-0.000000590,-0.799990635,1.200001832,0.000009971,0.799990619,-0.000001132
16.383000000,-0.000000590,-0.799990635,1.200001832,0.000009971,0.799990619,-0.000001132
16.392000000,-0.000000590,-0.799990635,1.200001832,0.000009971,0.799990619,-0.000001132
16.429000000,-0.000000590,-0.799990635,1.200001832,0.000009971,0.799990619,-0.000001132
16.439000000,-0.000000590,-0.799990635,1.200001832,0.000009971,0.799990619,-0.000001132
16.467000000,-0.000000590,-0.799990635,1.200001832,0.000009971,0.799990619,-0.000001132
16.500000000,-0.000000590,-0.799990635,1.200001832,0.000009971,0.799990619,-0.000001132
16.512000000,-0.000000590,-0.799990635,1.200001832,0.000009971,0.799990619,-0.000001132
16.542000000,-0.000000590,-0.799990635,1.200001832,0.000009971,0.799990619,-0.000001132
16.578000000,-0.000000590,-0.799990635,1.200001832,0.000009971,0.799990619,-0.000001132
16.620000000,-0.000000590,-0.799990635,1.200001832,0.000009971,0.799990619,-0.000001132
16.685000000,-0.000000590,-0.799990635,1.200001832,0.000009971,0.799990619,-0.000001132
16.700000000,-0.000000590,-0.799990635,1.200001832,0.000009971,0.799990619,-0.000001132
16.718000000,-0.000000590,-0.799990635,1.200001832,0.000009971,0.799990619,-0.000001132
16.740000000,-0.000000590,-0.799990635,1.200001832,0.000009971,0.799990619,-0.000001132
16.758000000,-0.000000590,-0.799990635,1.200001832,0.000009971,0.799990619,-0.000001132
16.772000000,-0.000000590,-0.799990635,1.200001832,0.000009971,0.799990619,-0.000001132
16.784000000,-0.000000590,-0.799990635,1.200001832,0.000009971,0.799990619,-0.000001132
16.807000000,-0.000000590,-0.799990635,1.200001832,0.000009971,0.799990619,-0.000001132
16.824000000,-0.000000590,-0.799990635,1.200001832,0.000009971,0.799990619,-0.000001132
16.842000000,-0.000000590,-0.799990635,1.200001832,0.000009971,0.799990619,-0.000001132
16.858000000,-0.000000590,-0.799990635,1.200001832,0.000009971,0.799990619,-0.000001132
16.875000000,-0.000000590,-0.799990635,1.200001832,0.000009971,0.799990619,-0.000001132
16.894000000,-0.000000590,-0.799990635,1.200001832,0.000009971,0.799990619,-0.000001132
16.911000000,-0.000000590,-0.799990635,1.200001832,0.000009971,0.799990619,-0.000001132
16.933000000,-0.000000590,-0.799990635,1.200001832,0.000009971,0.799990619,-0.000001132
16.936000000,-0.000000590,-0.799990635,1.200001832,0.000009971,0.799990619,-0.000001132
16.961000000,-0.000000590,-0.799990635,1.200001832,0.000009971,0.799990619,-0.000001132
16.982000000,-0.000000590,-0.799990635,1.200001832,0.000009971,0.799990619,-0.000001132
17.026000000,-0.000000590,-0.799990635,1.200001832,0.000009971,0.799990619,-0.000001132
17.052000000,-0.000000590,-0.799990635,1.200001832,0.000009971,0.799990619,-0.000001132
17.071000000,-0.000000590,-0.799990635,1.200001832,0.000009971,0.799990619,-0.000001132
17.095000000,-0.000000590,-0.799990635,1.200001832,0.000009971,0.799990619,-0.000001132
17.123000000,-0.000000590,-0.799990635,1.200001832,0.000009971,0.799990619,-0.000001132
17.145000000,-0.000000590,-0.799990635,1.200001832,0.000009971,0.799990619,-0.000001132
17.166000000,-0.000000590,-0.799990635,1.200001832,0.000009971,0.799990619,-0.000001132
17.180000000,-0.000000590,-0.799990635,1.200001832,0.000009971,0.799990619,-0.000001132
17.232000000,-0.000000590,-0.799990635,1.200001832,0.000009971,0.799990619,-0.000001132
17.262000000,-0.000000590,-0.799990635,1.200001832,0.000009971,0.799990619,-0.000001132
17.272000000,-0.000000590,-0.799990635,1.200001832,0.000009971,0.799990619,-0.000001132
17.282000000,-0.000000590,-0.799990635,1.200001832,0.000009971,0.799990619,-0.000001132
17.333000000,-0.000000590,-0.799990635,1.200001832,0.000009971,0.799990619,-0.000001132
17.346000000,-0.000000590,-0.799990635,1.200001832,0.000009971,0.799990619,-0.000001132
17.372000000,-0.000000590,-0.799990635,1.200001832,0.000009971,0.799990619,-0.000001132
17.400000000,-0.000000590,-0.799990635,1.200001832,0.000009971,0.799990619,-0.000001132
17.422000000,-0.000000590,-0.799990635,1.200001832,0.000009971,0.799990619,-0.000001132
17.449000000,-0.000000590,-0.799990635,1.200001832,0.000009971,0.799990619,-0.000001132
17.488000000,-0.000000590,-0.799990635,1.200001832,0.000009971,0.799990619,-0.000001132
17.521000000,-0.000000590,-0.799990635,1.200001832,0.000009971,0.799990619,-0.000001132
17.530000000,-0.000000590,-0.799990635,1.200001832,0.000009971,0.799990619,-0.000001132
17.559000000,-0.000000590,-0.799990635,1.200001832,0.000009971,0.799990619,-0.000001132
17.581000000,-0.000000590,-0.799990635,1.200001832,0.000009971,0.799990619,-0.000001132
17.602000000,-0.000000590,-0.799990635,1.200001832,0.000009971,0.799990619,-0.000001132
17.626000000,-0.000000590,-0.799990635,1.200001832,0.000009971,0.799990619,-0.000001132
17.679000000,-0.000000590,-0.799990635,1.200001832,0.000009971,0.799990619,-0.000001132
17.700000000,-0.000000590,-0.799990635,1.200001832,0.000009971,0.799990619,-0.000001132
17.721000000,-0.000000590,-0.799990635,1.200001832,0.000009971,0.799990619,-0.000001132
17.745000000,-0.000000590,-0.799990635,1.200001832,0.000009971,0.799990619,-0.000001132
17.765000000,-0.000000590,-0.799990635,1.200001832,0.000009971,0.799990619,-0.000001132
17.781000000,-0.000000590,-0.799990635,1.200001832,0.000009971,0.799990619,-0.000001132
17.805000000,-0.000000590,-0.799990635,1.200001832,0.000009971,0.799990619,-0.000001132
17.821000000,-0.000000590,-0.799990635,1.200001832,0.000009971,0.799990619,-0.000001132
17.851000000,-0.000000590,-0.799990635,1.200001832,0.000009971,0.799990619,-0.000001132
17.862000000,-0.000000590,-0.799990635,1.200001832,0.000009971,0.799990619,-0.000001132
17.883000000,-0.000000590,-0.799990635,1.200001832,0.000009971,0.799990619,-0.000001132
17.895000000,-0.000000590,-0.799990635,1.200001832,0.000009971,0.799990619,-0.000001132
17.923000000,-0.000000590,-0.799990635,1.200001832,0.000009971,0.799990619,-0.000001132
17.941000000,-0.000000590,-0.799990635,1.200001832,0.000009971,0.799990619,-0.000001132
17.954000000,-0.000000590,-0.799990635,1.200001832,0.000009971,0.799990619,-0.000001132
17.962000000,-0.000000590,-0.799990635,1.200001832,0.000009971,0.799990619,-0.000001132
17.993000000,-0.000000590,-0.799990635,1.200001832,0.000009971,0.799990619,-0.000001132
18.031000000,-0.000000590,-0.799990635,1.200001832,0.000009971,0.799990619,-0.000001132
18.059000000,-0.000000590,-0.799990635,1.200001832,0.000009971,0.799990619,-0.000001132
18.097000000,-0.000000590,-0.799990635,1.200001832,0.000009971,0.799990619,-0.000001132
18.115000000,-0.000000590,-0.799990635,1.200001832,0.000009971,0.799990619,-0.000001132
18.140000000,-0.000000590,-0.799990635,1.200001832,0.000009971,0.799990619,-0.000001132
18.158000000,-0.000000590,-0.799990635,1.200001832,0.000009971,0.799990619,-0.000001132
18.171000000,-0.000000590,-0.799990635,1.200001832,0.000009971,0.799990619,-0.000001132
18.190000000,-0.000000590,-0.799990635,1.200001832,0.000009971,0.799990619,-0.000001132
18.211000000,-0.000000590,-0.799990635,1.200001832,0.000009971,0.799990619,-0.000001132
18.242000000,-0.000000590,-0.799990635,1.200001832,0.000009971,0.799990619,-0.000001132
18.250000000,-0.000000590,-0.799990635,1.200001832,0.000009971,0.799990619,-0.000001132
18.277000000,-0.000000590,-0.799990635,1.200001832,0.000009971,0.799990619,-0.000001132
18.303000000,-0.000000590,-0.799990635,1.200001832,0.000009971,0.799990619,-0.000001132
18.327000000,-0.000000590,-0.799990635,1.200001832,0.000009971,0.799990619,-0.000001132
18.352000000,-0.000000590,-0.799990635,1.200001832,0.000009971,0.799990619,-0.000001132
18.375000000,-0.000000590,-0.799990635,1.200001832,0.000009971,0.799990619,-0.000001132
18.402000000,-0.000000590,-0.799990635,1.200001832,0.000009971,0.799990619,-0.000001132
18.417000000,-0.000000590,-0.799990635,1.200001832,0.000009971,0.799990619,-0.000001132
18.453000000,-0.000000590,-0.799990635,1.200001832,0.000009971,0.799990619,-0.000001132
18.477000000,-0.000000590,-0.799990635,1.200001832,0.000009971,0.799990619,-0.000001132
18.493000000,-0.000000590,-0.799990635,1.200001832,0.000009971,0.799990619,-0.000001132
18.511000000,-0.000000590,-0.799990635,1.200001832,0.000009971,0.799990619,-0.000001132
18.543000000,-0.000000590,-0.799990635,1.200001832,0.000009971,0.799990619,-0.000001132
18.589000000,-0.000000590,-0.799990635,1.200001832,0.000009971,0.799990619,-0.000001132
18.615000000,-0.000000590,-0.799990635,1.200001832,0.000009971,0.799990619,-0.000001132
18.636000000,-0.000000590,-0.799990635,1.200001832,0.000009971,0.799990619,-0.000001132
18.662000000,-0.000000590,-0.799990635,1.200001832,0.000009971,0.799990619,-0.000001132
18.683000000,-0.000000590,-0.799990635,1.200001832,0.000009971,0.799990619,-0.000001132
18.700000000,-0.000000590,-0.799990635,1.200001832,0.000009971,0.799990619,-0.000001132
18.709000000,-0.000000590,-0.799990635,1.200001832,0.000009971,0.799990619,-0.000001132
18.718000000,-0.000000590,-0.799990635,1.200001832,0.000009971,0.799990619,-0.000001132
18.739000000,-0.000000590,-0.799990635,1.200001832,0.000009971,0.799990619,-0.000001132
18.764000000,-0.000000590,-0.799990635,1.200001832,0.000009971,0.799990619,-0.000001132
18.773000000,-0.000000590,-0.799990635,1.200001832,0.000009971,0.799990619,-0.000001132
18.795000000,-0.000000590,-0.799990635,1.200001832,0.000009971,0.799990619,-0.000001132
18.840000000,-0.000000590,-0.799990635,1.200001832,0.000009971,0.799990619,-0.000001132
18.863000000,-0.000000590,-0.799990635,1.200001832,0.000009971,0.799990619,-0.000001132
18.875000000,-0.000000590,-0.799990635,1.200001832,0.000009971,0.799990619,-0.000001132
18.889000000,-0.000000590,-0.799990635,1.200001832,0.000009971,0.799990619,-0.000001132
18.906000000,-0.000000590,-0.799990635,1.200001832,0.000009971,0.799990619,-0.000001132
18.942000000,-0.000000590,-0.799990635,1.200001832,0.000009971,0.799990619,-0.000001132
18.983000000,-0.000000590,-0.799990635,1.200001832,0.000009971,0.799990619,-0.000001132
19.000000000,-0.000000590,-0.799990635,1.200001832,0.000009971,0.799990619,-0.000001132
19.014000000,-0.000000590,-0.799990635,1.200001832,0.000009971,0.799990619,-0.000001132
19.063000000,-0.000000590,-0.799990635,1.200001832,0.000009971,0.799990619,-0.000001132
19.095000000,-0.000000590,-0.799990635,1.200001832,0.000009971,0.799990619,-0.000001132
19.125000000,-0.000000590,-0.799990635,1.200001832,0.000009971,0.799990619,-0.000001132
19.160000000,-0.000000590,-0.799990635,1.200001832,0.000009971,0.799990619,-0.000001132
19.199000000,-0.000000590,-0.799990635,1.200001832,0.000009971,0.799990619,-0.000001132
19.212000000,-0.000000590,-0.799990635,1.200001832,0.000009971,0.799990619,-0.000001132
19.226000000,-0.000000590,-0.799990635,1.200001832,0.000009971,0.799990619,-0.000001132
19.246000000,-0.000000590,-0.799990635,1.200001832,0.000009971,0.799990619,-0.000001132
19.265000000,-0.000000590,-0.799990635,1.200001832,0.000009971,0.799990619,-0.000001132
19.288000000,-0.000000590,-0.799990635,1.200001832,0.000009971,0.799990619,-0.000001132
19.304000000,-0.000000590,-0.799990635,1.200001832,0.000009971,0.799990619,-0.000001132
19.320000000,-0.000000590,-0.799990635,1.200001832,0.000009971,0.799990619,-0.000001132
19.347000000,-0.000000590,-0.799990635,1.200001832,0.000009971,0.799990619,-0.000001132
19.377000000,-0.000000590,-0.799990635,1.200001832,0.000009971,0.799990619,-0.000001132
19.402000000,-0.000000590,-0.799990635,1.200001832,0.000009971,0.799990619,-0.000001132
19.425000000,-0.000000590,-0.799990635,1.200001832,0.000009971,0.799990619,-0.000001132
19.450000000,-0.000000590,-0.799990635,1.200001832,0.000009971,0.799990619,-0.000001132
19.465000000,-0.000000590,-0.799990635,1.200001832,0.000009971,0.799990619,-0.000001132
19.496000000,-0.000000590,-0.799990635,1.200001832,0.000009971,0.799990619,-0.000001132
19.514000000,-0.000000590,-0.799990635,1.200001832,0.000009971,0.799990619,-0.000001132
19.540000000,-0.000000590,-0.799990635,1.200001832,0.000009971,0.799990619,-0.000001132
19.579000000,-0.000000590,-0.799990635,1.200001832,0.000009971,0.799990619,-0.000001132
19.592000000,-0.000000590,-0.799990635,1.200001832,0.000009971,0.799990619,-0.000001132
19.616000000,-0.000000590,-0.799990635,1.200001832,0.000009971,0.799990619,-0.000001132
19.649000000,-0.000000590,-0.799990635,1.200001832,0.000009971,0.799990619,-0.000001132
19.675000000,-0.000000590,-0.799990635,1.200001832,0.000009971,0.799990619,-0.000001132
19.698000000,-0.000000590,-0.799990635,1.200001832,0.000009971,0.799990619,-0.000001132
19.742000000,-0.000000590,-0.799990635,1.200001832,0.000009971,0.799990619,-0.000001132
19.762000000,-0.000000590,-0.799990635,1.200001832,0.000009971,0.799990619,-0.000001132
19.787000000,-0.000000590,-0.799990635,1.200001832,0.000009971,0.799990619,-0.000001132
19.807000000,-0.000000590,-0.799990635,1.200001832,0.000009971,0.799990619,-0.000001132
19.843000000,-0.000000590,-0.799990635,1.200001832,0.000009971,0.799990619,-0.000001132
19.856000000,-0.000000590,-0.799990635,1.200001832,0.000009971,0.799990619,-0.000001132
19.860000000,-0.000000590,-0.799990635,1.200001832,0.000009971,0.799990619,-0.000001132
19.883000000,-0.000000590,-0.799990635,1.200001832,0.000009971,0.799990619,-0.000001132
19.907000000,-0.000000590,-0.799990635,1.200001832,0.000009971,0.799990619,-0.000001132
19.938000000,-0.000000590,-0.799990635,1.200001832,0.000009971,0.799990619,-0.000001132
19.968000000,-0.000000590,-0.799990635,1.200001832,0.000009971,0.799990619,-0.000001132
20.006000000,-0.000000590,-0.799990635,1.200001832,0.000009971,0.799990619,-0.000001132
20.026000000,-0.000000590,-0.799990635,1.200001832,0.000009971,0.799990619,-0.000001132
20.042000000,-0.000000590,-0.799990635,1.200001832,0.000009971,0.799990619,-0.000001132
20.059000000,-0.000000590,-0.799990635,1.200001832,0.000009971,0.799990619,-0.000001132
20.068000000,-0.000000590,-0.799990635,1.200001832,0.000009971,0.799990619,-0.000001132
20.095000000,-0.000000590,-0.799990635,1.200001832,0.000009971,0.799990619,-0.000001132
20.121000000,-0.000000590,-0.799990635,1.200001832,0.000009971,0.799990619,-0.000001132
20.152000000,-0.000000590,-0.799990635,1.200001832,0.000009971,0.799990619,-0.000001132
20.181000000,-0.000000590,-0.799990635,1.200001832,0.000009971,0.799990619,-0.000001132
20.219000000,-0.000000590,-0.799990635,1.200001832,0.000009971,0.799990619,-0.000001132
20.247000000,-0.000000590,-0.799990635,1.200001832,0.000009971,0.799990619,-0.000001132
20.262000000,-0.000000590,-0.799990635,1.200001832,0.000009971,0.799990619,-0.000001132
20.277000000,-0.000000590,-0.799990635,1.200001832,0.000009971,0.799990619,-0.000001132
20.321000000,-0.000000590,-0.799990635,1.200001832,0.000009971,0.799990619,-0.000001132
20.344000000,-0.000000590,-0.799990635,1.200001832,0.000009971,0.799990619,-0.000001132
20.365000000,-0.000000590,-0.799990635,1.200001832,0.000009971,0.799990619,-0.000001132
20.381000000,-0.000000590,-0.799990635,1.200001832,0.000009971,0.799990619,-0.000001132
20.392000000,-0.000000590,-0.799990635,1.200001832,0.000009971,0.799990619,-0.000001132
20.415000000,-0.000000590,-0.799990635,1.200001832,0.000009971,0.799990619,-0.000001132
20.427000000,-0.000000590,-0.799990635,1.200001832,0.000009971,0.799990619,-0.000001132
20.452000000,-0.000000590,-0.799990635,1.200001832,0.000009971,0.799990619,-0.000001132
20.470000000,-0.000000590,-0.799990635,1.200001832,0.000009971,0.799990619,-0.000001132
20.502000000,-0.000000590,-0.799990635,1.200001832,0.000009971,0.799990619,-0.000001132
20.539000000,-0.000000590,-0.799990635,1.200001832,0.000009971,0.799990619,-0.000001132
20.562000000,-0.000000590,-0.799990635,1.200001832,0.000009971,0.799990619,-0.000001132
20.580000000,-0.000000590,-0.799990635,1.200001832,0.000009971,0.799990619,-0.000001132
20.603000000,-0.000000590,-0.799990635,1.200001832,0.000009971,0.799990619,-0.000001132
20.613000000,-0.000000590,-0.799990635,1.200001832,0.000009971,0.799990619,-0.000001132
20.627000000,-0.000000590,-0.799990635,1.200001832,0.000009971,0.799990619,-0.000001132
20.639000000,-0.000000590,-0.799990635,1.200001832,0.000009971,0.799990619,-0.000001132
20.651000000,-0.000000590,-0.799990635,1.200001832,0.000009971,0.799990619,-0.000001132
20.666000000,-0.000000590,-0.799990635,1.200001832,0.000009971,0.799990619,-0.000001132
20.679000000,-0.000000590,-0.799990635,1.200001832,0.000009971,0.799990619,-0.000001132
20.713000000,-0.000000590,-0.799990635,1.200001832,0.000009971,0.799990619,-0.000001132
20.738000000,-0.000000590,-0.799990635,1.200001832,0.000009971,0.799990619,-0.000001132
20.779000000,-0.000000590,-0.799990635,1.200001832,0.000009971,0.799990619,-0.000001132
20.800000000,-0.000000590,-0.799990635,1.200001832,0.000009971,0.799990619,-0.000001132
20.822000000,-0.000000590,-0.799990635,1.200001832,0.000009971,0.799990619,-0.000001132
20.843000000,-0.000000590,-0.799990635,1.200001832,0.000009971,0.799990619,-0.000001132
20.892000000,-0.000000590,-0.799990635,1.200001832,0.000009971,0.799990619,-0.000001132
20.901000000,-0.000000590,-0.799990635,1.200001832,0.000009971,0.799990619,-0.000001132
20.937000000,-0.000000590,-0.799990635,1.200001832,0.000009971,0.799990619,-0.000001132
20.947000000,-0.000000590,-0.799990635,1.200001832,0.000009971,0.799990619,-0.000001132
20.968000000,-0.000000590,-0.799990635,1.200001832,0.000009971,0.799990619,-0.000001132
21.000000000,-0.000000590,-0.799990635,1.200001832,0.000009971,0.799990619,-0.000001132
21.015000000,-0.000000590,-0.799990635,1.200001832,0.000009971,0.799990619,-0.000001132
21.031000000,-0.000000590,-0.799990635,1.200001832,0.000009971,0.799990619,-0.000001132
21.054000000,-0.000000590,-0.799990635,1.200001832,0.000009971,0.799990619,-0.000001132
21.073000000,-0.000000590,-0.799990635,1.200001832,0.000009971,0.799990619,-0.000001132
21.107000000,-0.000000590,-0.799990635,1.200001832,0.000009971,0.799990619,-0.000001132
21.122000000,-0.000000590,-0.799990635,1.200001832,0.000009971,0.799990619,-0.000001132
21.136000000,-0.000000590,-0.799990635,1.200001832,0.000009971,0.799990619,-0.000001132
21.177000000,-0.000000590,-0.799990635,1.200001832,0.000009971,0.799990619,-0.000001132
21.214000000,-0.000000590,-0.799990635,1.200001832,0.000009971,0.799990619,-0.000001132
21.230000000,-0.000000590,-0.799990635,1.200001832,0.000009971,0.799990619,-0.000001132
21.245000000,-0.000000590,-0.799990635,1.200001832,0.000009971,0.799990619,-0.000001132
21.272000000,-0.000000590,-0.799990635,1.200001832,0.000009971,0.799990619,-0.000001132
21.302000000,-0.000000590,-0.799990635,1.200001832,0.000009971,0.799990619,-0.000001132
21.316000000,-0.000000590,-0.799990635,1.200001832,0.000009971,0.799990619,-0.000001132
21.339000000,-0.000000590,-0.799990635,1.200001832,0.000009971,0.799990619,-0.000001132
21.361000000,-0.000000590,-0.799990635,1.200001832,0.000009971,0.799990619,-0.000001132
21.375000000,-0.000000590,-0.799990635,1.200001832,0.000009971,0.799990619,-0.000001132
21.400000000,-0.000000590,-0.799990635,1.200001832,0.000009971,0.799990619,-0.000001132
21.423000000,-0.000000590,-0.799990635,1.200001832,0.000009971,0.799990619,-0.000001132
21.453000000,-0.000000590,-0.799990635,1.200001832,0.000009971,0.799990619,-0.000001132
21.471000000,-0.000000590,-0.799990635,1.200001832,0.000009971,0.799990619,-0.000001132
21.520000000,-0.000000590,-0.799990635,1.200001832,0.000009971,0.799990619,-0.000001132
21.549000000,-0.000000590,-0.799990635,1.200001832,0.000009971,0.799990619,-0.000001132
21.581000000,-0.000000590,-0.799990635,1.200001832,0.000009971,0.799990619,-0.000001132
21.605000000,-0.000000590,-0.799990635,1.200001832,0.000009971,0.799990619,-0.000001132
21.634000000,-0.000000590,-0.799990635,1.200001832,0.000009971,0.799990619,-0.000001132
21.645000000,-0.000000590,-0.799990635,1.200001832,0.000009971,0.799990619,-0.000001132
21.659000000,-0.000000590,-0.799990635,1.200001832,0.000009971,0.799990619,-0.000001132
21.687000000,-0.000000590,-0.799990635,1.200001832,0.000009971,0.799990619,-0.000001132
21.714000000,-0.000000590,-0.799990635,1.200001832,0.000009971,0.799990619,-0.000001132
21.738000000,-0.000000590,-0.799990635,1.200001832,0.000009971,0.799990619,-0.000001132
21.749000000,-0.000000590,-0.799990635,1.200001832,0.000009971,0.799990619,-0.000001132
21.754000000,-0.000000590,-0.799990635,1.200001832,0.000009971,0.799990619,-0.000001132
21.774000000,-0.000000590,-0.799990635,1.200001832,0.000009971,0.799990619,-0.000001132
21.785000000,-0.000000590,-0.799990635,1.200001832,0.000009971,0.799990619,-0.000001132
21.800000000,-0.000000590,-0.799990635,1.200001832,0.000009971,0.799990619,-0.000001132
21.826000000,-0.000000590,-0.799990635,1.200001832,0.000009971,0.799990619,-0.000001132
21.854000000,-0.000000590,-0.799990635,1.200001832,0.000009971,0.799990619,-0.000001132
21.877000000,-0.000000590,-0.799990635,1.200001832,0.000009971,0.799990619,-0.000001132
21.883000000,-0.000000590,-0.799990635,1.200001832,0.000009971,0.799990619,-0.000001132
21.905000000,-0.000000590,-0.799990635,1.200001832,0.000009971,0.799990619,-0.000001132
21.931000000,-0.000000590,-0.799990635,1.200001832,0.000009971,0.799990619,-0.000001132
21.981000000,-0.000000590,-0.799990635,1.200001832,0.000009971,0.799990619,-0.000001132
22.002000000,-0.000000590,-0.799990635,1.200001832,0.000009971,0.799990619,-0.000001132
22.016000000,-0.000000590,-0.799990635,1.200001832,0.000009971,0.799990619,-0.000001132
22.028000000,-0.000000590,-0.799990635,1.200001832,0.000009971,0.799990619,-0.000001132
22.044000000,-0.000000590,-0.799990635,1.200001832,0.000009971,0.799990619,-0.000001132
22.062000000,-0.000000590,-0.799990635,1.200001832,0.000009971,0.799990619,-0.000001132
22.082000000,-0.000000590,-0.799990635,1.200001832,0.000009971,0.799990619,-0.000001132
22.105000000,-0.000000590,-0.799990635,1.200001832,0.000009971,0.799990619,-0.000001132
22.134000000,-0.000000590,-0.799990635,1.200001832,0.000009971,0.799990619,-0.000001132
22.152000000,-0.000000590,-0.799990635,1.200001832,0.000009971,0.799990619,-0.000001132
22.189000000,-0.000000590,-0.799990635,1.200001832,0.000009971,0.799990619,-0.000001132
22.222000000,-0.000000590,-0.799990635,1.200001832,0.000009971,0.799990619,-0.000001132
22.251000000,-0.000000590,-0.799990635,1.200001832,0.000009971,0.799990619,-0.000001132
22.275000000,-0.000000590,-0.799990635,1.200001832,0.000009971,0.799990619,-0.000001132
22.299000000,-0.000000590,-0.799990635,1.200001832,0.000009971,0.799990619,-0.000001132
22.330000000,-0.000000590,-0.799990635,1.200001832,0.000009971,0.799990619,-0.000001132
22.347000000,-0.000000590,-0.799990635,1.200001832,0.000009971,0.799990619,-0.000001132
22.368000000,-0.000000590,-0.799990635,1.200001832,0.000009971,0.799990619,-0.000001132
22.384000000,-0.000000590,-0.799990635,1.200001832,0.000009971,0.799990619,-0.000001132
22.408000000,-0.000000590,-0.799990635,1.200001832,0.000009971,0.799990619,-0.000001132
22.426000000,-0.000000590,-0.799990635,1.200001832,0.000009971,0.799990619,-0.000001132
22.446000000,-0.000000590,-0.799990635,1.200001832,0.000009971,0.799990619,-0.000001132
22.480000000,-0.000000590,-0.799990635,1.200001832,0.000009971,0.799990619,-0.000001132
22.487000000,-0.000000590,-0.799990635,1.200001832,0.000009971,0.799990619,-0.000001132
22.530000000,-0.000000590,-0.799990635,1.200001832,0.000009971,0.799990619,-0.000001132
22.566000000,-0.000000590,-0.799990635,1.200001832,0.000009971,0.799990619,-0.000001132
22.599000000,-0.000000590,-0.799990635,1.200001832,0.000009971,0.799990619,-0.000001132
22.622000000,-0.000000590,-0.799990635,1.200001832,0.000009971,0.799990619,-0.000001132
22.649000000,-0.000000590,-0.799990635,1.200001832,0.000009971,0.799990619,-0.000001132
22.675000000,-0.000000590,-0.799990635,1.200001832,0.000009971,0.799990619,-0.000001132
22.694000000,-0.000000590,-0.799990635,1.200001832,0.000009971,0.799990619,-0.000001132
22.711000000,-0.000000590,-0.799990635,1.200001832,0.000009971,0.799990619,-0.000001132
22.743000000,-0.000000590,-0.799990635,1.200001832,0.000009971,0.799990619,-0.000001132
22.786000000,-0.000000590,-0.799990635,1.200001832,0.000009971,0.799990619,-0.000001132
22.819000000,-0.000000590,-0.799990635,1.200001832,0.000009971,0.799990619,-0.000001132
22.839000000,-0.000000590,-0.799990635,1.200001832,0.000009971,0.799990619,-0.000001132
22.864000000,-0.000000590,-0.799990635,1.200001832,0.000009971,0.799990619,-0.000001132
22.877000000,-0.000000590,-0.799990635,1.200001832,0.000009971,0.799990619,-0.000001132
22.895000000,-0.000000590,-0.799990635,1.200001832,0.000009971,0.799990619,-0.000001132
22.923000000,-0.000000590,-0.799990635,1.200001832,0.000009971,0.799990619,-0.000001132
22.949000000,-0.000000590,-0.799990635,1.200001832,0.000009971,0.799990619,-0.000001132
22.983000000,-0.000000590,-0.799990635,1.200001832,0.000009971,0.799990619,-0.000001132
22.997000000,-0.000000590,-0.799990635,1.200001832,0.000009971,0.799990619,-0.000001132
23.007000000,-0.000000590,-0.799990635,1.200001832,0.000009971,0.799990619,-0.000001132
23.022000000,-0.000000590,-0.799990635,1.200001832,0.000009971,0.799990619,-0.000001132
23.037000000,-0.000000590,-0.799990635,1.200001832,0.000009971,0.799990619,-0.000001132
23.052000000,-0.000000590,-0.799990635,1.200001832,0.000009971,0.799990619,-0.000001132
23.077000000,-0.000000590,-0.799990635,1.200001832,0.000009971,0.799990619,-0.000001132
23.088000000,-0.000000590,-0.799990635,1.200001832,0.000009971,0.799990619,-0.000001132
23.126000000,-0.000000590,-0.799990635,1.200001832,0.000009971,0.799990619,-0.000001132
23.149000000,-0.000000590,-0.799990635,1.200001832,0.000009971,0.799990619,-0.000001132
23.167000000,-0.000000590,-0.799990635,1.200001832,0.000009971,0.799990619,-0.000001132
23.189000000,-0.000000590,-0.799990635,1.200001832,0.000009971,0.799990619,-0.000001132
23.206000000,-0.000000590,-0.799990635,1.200001832,0.000009971,0.799990619,-0.000001132
23.208000000,-0.000000590,-0.799990635,1.200001832,0.000009971,0.799990619,-0.000001132
23.229000000,-0.000000590,-0.799990635,1.200001832,0.000009971,0.799990619,-0.000001132
23.256000000,-0.000000590,-0.799990635,1.200001832,0.000009971,0.799990619,-0.000001132
23.280000000,-0.000000590,-0.799990635,1.200001832,0.000009971,0.799990619,-0.000001132
23.293000000,-0.000000590,-0.799990635,1.200001832,0.000009971,0.799990619,-0.000001132
23.343000000,-0.000000590,-0.799990635,1.200001832,0.000009971,0.799990619,-0.000001132
23.373000000,-0.000000590,-0.799990635,1.200001832,0.000009971,0.799990619,-0.000001132
23.397000000,-0.000000590,-0.799990635,1.200001832,0.000009971,0.799990619,-0.000001132
23.437000000,-0.000000590,-0.799990635,1.200001832,0.000009971,0.799990619,-0.000001132
23.469000000,-0.000000590,-0.799990635,1.200001832,0.000009971,0.799990619,-0.000001132
23.490000000,-0.000000590,-0.799990635,1.200001832,0.000009971,0.799990619,-0.000001132
23.502000000,-0.000000590,-0.799990635,1.200001832,0.000009971,0.799990619,-0.000001132
23.538000000,-0.000000590,-0.799990635,1.200001832,0.000009971,0.799990619,-0.000001132
23.551000000,-0.000000590,-0.799990635,1.200001832,0.000009971,0.799990619,-0.000001132
23.589000000,-0.000000590,-0.799990635,1.200001832,0.000009971,0.799990619,-0.000001132
23.596000000,-0.000000590,-0.799990635,1.200001832,0.000009971,0.799990619,-0.000001132
23.623000000,-0.000000590,-0.799990635,1.200001832,0.000009971,0.799990619,-0.000001132
23.649000000,-0.000000590,-0.799990635,1.200001832,0.000009971,0.799990619,-0.000001132
23.670000000,-0.000000590,-0.799990635,1.200001832,0.000009971,0.799990619,-0.000001132
23.682000000,-0.000000590,-0.799990635,1.200001832,0.000009971,0.799990619,-0.000001132
23.713000000,-0.000000590,-0.799990635,1.200001832,0.000009971,0.799990619,-0.000001132
23.738000000,-0.000000590,-0.799990635,1.200001832,0.000009971,0.799990619,-0.000001132
23.758000000,-0.000000590,-0.799990635,1.200001832,0.000009971,0.799990619,-0.000001132
23.783000000,-0.000000590,-0.799990635,1.200001832,0.000009971,0.799990619,-0.000001132
23.801000000,-0.000000590,-0.799990635,1.200001832,0.000009971,0.799990619,-0.000001132
23.823000000,-0.000000590,-0.799990635,1.200001832,0.000009971,0.799990619,-0.000001132
23.844000000,-0.000000590,-0.799990635,1.200001832,0.000009971,0.799990619,-0.000001132
23.887000000,-0.000000590,-0.799990635,1.200001832,0.000009971,0.799990619,-0.000001132
23.904000000,-0.000000590,-0.799990635,1.200001832,0.000009971,0.799990619,-0.000001132
23.930000000,-0.000000590,-0.799990635,1.200001832,0.000009971,0.799990619,-0.000001132
23.953000000,-0.000000590,-0.799990635,1.200001832,0.000009971,0.799990619,-0.000001132
23.975000000,-0.000000590,-0.799990635,1.200001832,0.000009971,0.799990619,-0.000001132
23.995000000,-0.000000590,-0.799990635,1.200001832,0.000009971,0.799990619,-0.000001132
24.004000000,-0.000000590,-0.799990635,1.200001832,0.000009971,0.799990619,-0.000001132
24.026000000,-0.000000590,-0.799990635,1.200001832,0.000009971,0.799990619,-0.000001132
24.046000000,-0.000000590,-0.799990635,1.200001832,0.000009971,0.799990619,-0.000001132
24.061000000,-0.000000590,-0.799990635,1.200001832,0.000009971,0.799990619,-0.000001132
24.070000000,-0.000000590,-0.799990635,1.200001832,0.000009971,0.799990619,-0.000001132
24.091000000,-0.000000590,-0.799990635,1.200001832,0.000009971,0.799990619,-0.000001132
24.124000000,-0.000000590,-0.799990635,1.200001832,0.000009971,0.799990619,-0.000001132
24.165000000,-0.000000590,-0.799990635,1.200001832,0.000009971,0.799990619,-0.000001132
24.193000000,-0.000000590,-0.799990635,1.200001832,0.000009971,0.799990619,-0.000001132
24.217000000,-0.000000590,-0.799990635,1.200001832,0.000009971,0.799990619,-0.000001132
24.243000000,-0.000000590,-0.799990635,1.200001832,0.000009971,0.799990619,-0.000001132
24.259000000,-0.000000590,-0.799990635,1.200001832,0.000009971,0.799990619,-0.000001132
24.282000000,-0.000000590,-0.799990635,1.200001832,0.000009971,0.799990619,-0.000001132
24.292000000,-0.000000590,-0.799990635,1.200001832,0.000009971,0.799990619,-0.000001132
24.312000000,-0.000000590,-0.799990635,1.200001832,0.000009971,0.799990619,-0.000001132
24.325000000,-0.000000590,-0.799990635,1.200001832,0.000009971,0.799990619,-0.000001132
24.338000000,-0.000000590,-0.799990635,1.200001832,0.000009971,0.799990619,-0.000001132
24.363000000,-0.000000590,-0.799990635,1.200001832,0.000009971,0.799990619,-0.000001132
24.376000000,-0.000000590,-0.799990635,1.200001832,0.000009971,0.799990619,-0.000001132
24.402000000,-0.000000590,-0.799990635,1.200001832,0.000009971,0.799990619,-0.000001132
24.412000000,-0.000000590,-0.799990635,1.200001832,0.000009971,0.799990619,-0.000001132
24.435000000,-0.000000590,-0.799990635,1.200001832,0.000009971,0.799990619,-0.000001132
24.452000000,-0.000000590,-0.799990635,1.200001832,0.000009971,0.799990619,-0.000001132
24.490000000,-0.000000590,-0.799990635,1.200001832,0.000009971,0.799990619,-0.000001132
24.511000000,-0.000000590,-0.799990635,1.200001832,0.000009971,0.799990619,-0.000001132
24.517000000,-0.000000590,-0.799990635,1.200001832,0.000009971,0.799990619,-0.000001132
24.568000000,-0.000000590,-0.799990635,1.200001832,0.000009971,0.799990619,-0.000001132
24.587000000,-0.000000590,-0.799990635,1.200001832,0.000009971,0.799990619,-0.000001132
24.610000000,-0.000000590,-0.799990635,1.200001832,0.000009971,0.799990619,-0.000001132
24.623000000,-0.000000590,-0.799990635,1.200001832,0.000009971,0.799990619,-0.000001132
24.645000000,-0.000000590,-0.799990635,1.200001832,0.000009971,0.799990619,-0.000001132
24.668000000,-0.000000590,-0.799990635,1.200001832,0.000009971,0.799990619,-0.000001132
24.688000000,-0.000000590,-0.799990635,1.200001832,0.000009971,0.799990619,-0.000001132
24.708000000,-0.000000590,-0.799990635,1.200001832,0.000009971,0.799990619,-0.000001132
24.739000000,-0.000000590,-0.799990635,1.200001832,0.000009971,0.799990619,-0.000001132
24.752000000,-0.000000590,-0.799990635,1.200001832,0.000009971,0.799990619,-0.000001132
24.772000000,-0.000000590,-0.799990635,1.200001832,0.000009971,0.799990619,-0.000001132
24.802000000,-0.000000590,-0.799990635,1.200001832,0.000009971,0.799990619,-0.000001132
24.823000000,-0.000000590,-0.799990635,1.200001832,0.000009971,0.799990619,-0.000001132
24.828000000,-0.000000590,-0.799990635,1.200001832,0.000009971,0.799990619,-0.000001132
24.854000000,-0.000000590,-0.799990635,1.200001832,0.000009971,0.799990619,-0.000001132
24.867000000,-0.000000590,-0.799990635,1.200001832,0.000009971,0.799990619,-0.000001132
24.890000000,-0.000000590,-0.799990635,1.200001832,0.000009971,0.799990619,-0.000001132
24.898000000,-0.000000590,-0.799990635,1.200001832,0.000009971,0.799990619,-0.000001132
24.927000000,-0.000000590,-0.799990635,1.200001832,0.000009971,0.799990619,-0.000001132
24.939000000,-0.000000590,-0.799990635,1.200001832,0.000009971,0.799990619,-0.000001132
24.961000000,-0.000000590,-0.799990635,1.200001832,0.000009971,0.799990619,-0.000001132
24.999000000,-0.000000590,-0.799990635,1.200001832,0.000009971,0.799990619,-0.000001132
25.024000000,-0.000000590,-0.799990635,1.200001832,0.000009971,0.799990619,-0.000001132
25.043000000,-0.000000590,-0.799990635,1.200001832,0.000009971,0.799990619,-0.000001132
25.062000000,-0.000000590,-0.799990635,1.200001832,0.000009971,0.799990619,-0.000001132
25.078000000,-0.000000590,-0.799990635,1.200001832,0.000009971,0.799990619,-0.000001132
25.091000000,-0.000000590,-0.799990635,1.200001832,0.000009971,0.799990619,-0.000001132
25.109000000,-0.000000590,-0.799990635,1.200001832,0.000009971,0.799990619,-0.000001132
25.115000000,-0.000000590,-0.799990635,1.200001832,0.000009971,0.799990619,-0.000001132
25.128000000,-0.000000590,-0.799990635,1.200001832,0.000009971,0.799990619,-0.000001132
25.142000000,-0.000000590,-0.799990635,1.200001832,0.000009971,0.799990619,-0.000001132
25.150000000,-0.000000590,-0.799990635,1.200001832,0.000009971,0.799990619,-0.000001132
25.161000000,-0.000000590,-0.799990635,1.200001832,0.000009971,0.799990619,-0.000001132
25.173000000,-0.000000590,-0.799990635,1.200001832,0.000009971,0.799990619,-0.000001132
25.187000000,-0.000000590,-0.799990635,1.200001832,0.000009971,0.799990619,-0.000001132
25.208000000,-0.000000590,-0.799990635,1.200001832,0.000009971,0.799990619,-0.000001132
25.219000000,-0.000000590,-0.799990635,1.200001832,0.000009971,0.799990619,-0.000001132
25.255000000,-0.000000590,-0.799990635,1.200001832,0.000009971,0.799990619,-0.000001132
25.276000000,-0.000000590,-0.799990635,1.200001832,0.000009971,0.799990619,-0.000001132
25.292000000,-0.000000590,-0.799990635,1.200001832,0.000009971,0.799990619,-0.000001132
25.315000000,-0.000000590,-0.799990635,1.200001832,0.000009971,0.799990619,-0.000001132
25.327000000,-0.000000590,-0.799990635,1.200001832,0.000009971,0.799990619,-0.000001132
25.358000000,-0.000000590,-0.799990635,1.200001832,0.000009971,0.799990619,-0.000001132
25.387000000,-0.000000590,-0.799990635,1.200001832,0.000009971,0.799990619,-0.000001132
25.417000000,-0.000000590,-0.799990635,1.200001832,0.000009971,0.799990619,-0.000001132
25.435000000,-0.000000590,-0.799990635,1.200001832,0.000009971,0.799990619,-0.000001132
25.451000000,-0.000000590,-0.799990635,1.200001832,0.000009971,0.799990619,-0.000001132
25.467000000,-0.000000590,-0.799990635,1.200001832,0.000009971,0.799990619,-0.000001132
25.495000000,-0.000000590,-0.799990635,1.200001832,0.000009971,0.799990619,-0.000001132
25.529000000,-0.000000590,-0.799990635,1.200001832,0.000009971,0.799990619,-0.000001132
25.546000000,-0.000000590,-0.799990635,1.200001832,0.000009971,0.799990619,-0.000001132
25.588000000,-0.000000590,-0.799990635,1.200001832,0.000009971,0.799990619,-0.000001132
25.607000000,-0.000000590,-0.799990635,1.200001832,0.000009971,0.799990619,-0.000001132
25.651000000,-0.000000590,-0.799990635,1.200001832,0.000009971,0.799990619,-0.000001132
25.673000000,-0.000000590,-0.799990635,1.200001832,0.000009971,0.799990619,-0.000001132
25.704000000,-0.000000590,-0.799990635,1.200001832,0.000009971,0.799990619,-0.000001132
25.713000000,-0.000000590,-0.799990635,1.200001832,0.000009971,0.799990619,-0.000001132
25.738000000,-0.000000590,-0.799990635,1.200001832,0.000009971,0.799990619,-0.000001132
25.766000000,-0.000000590,-0.799990635,1.200001832,0.000009971,0.799990619,-0.000001132
25.786000000,-0.000000590,-0.799990635,1.200001832,0.000009971,0.799990619,-0.000001132
25.802000000,-0.000000590,-0.799990635,1.200001832,0.000009971,0.799990619,-0.000001132
25.823000000,-0.000000590,-0.799990635,1.200001832,0.000009971,0.799990619,-0.000001132
25.839000000,-0.000000590,-0.799990635,1.200001832,0.000009971,0.799990619,-0.000001132
25.859000000,-0.000000590,-0.799990635,1.200001832,0.000009971,0.799990619,-0.000001132
25.890000000,-0.000000590,-0.799990635,1.200001832,0.000009971,0.799990619,-0.000001132
25.913000000,-0.000000590,-0.799990635,1.200001832,0.000009971,0.799990619,-0.000001132
25.938000000,-0.000000590,-0.799990635,1.200001832,0.000009971,0.799990619,-0.000001132
25.964000000,-0.000000590,-0.799990635,1.200001832,0.000009971,0.799990619,-0.000001132
25.981000000,-0.000000590,-0.799990635,1.200001832,0.000009971,0.799990619,-0.000001132
25.995000000,-0.000000590,-0.799990635,1.200001832,0.000009971,0.799990619,-0.000001132
26.054000000,-0.000000590,-0.799990635,1.200001832,0.000009971,0.799990619,-0.000001132
26.069000000,-0.000000590,-0.799990635,1.200001832,0.000009971,0.799990619,-0.000001132
26.102000000,-0.000000590,-0.799990635,1.200001832,0.000009971,0.799990619,-0.000001132
26.103000000,-0.000000590,-0.799990635,1.200001832,0.000009971,0.799990619,-0.000001132
26.129000000,-0.000000590,-0.799990635,1.200001832,0.000009971,0.799990619,-0.000001132
26.159000000,-0.000000590,-0.799990635,1.200001832,0.000009971,0.799990619,-0.000001132
26.191000000,-0.000000590,-0.799990635,1.200001832,0.000009971,0.799990619,-0.000001132
26.198000000,-0.000000590,-0.799990635,1.200001832,0.000009971,0.799990619,-0.000001132
26.216000000,-0.000000590,-0.799990635,1.200001832,0.000009971,0.799990619,-0.000001132
26.238000000,-0.000000590,-0.799990635,1.200001832,0.000009971,0.799990619,-0.000001132
26.269000000,-0.000000590,-0.799990635,1.200001832,0.000009971,0.799990619,-0.000001132
26.287000000,-0.000000590,-0.799990635,1.200001832,0.000009971,0.799990619,-0.000001132
26.297000000,-0.000000590,-0.799990635,1.200001832,0.000009971,0.799990619,-0.000001132
26.298000000,-0.000000590,-0.799990635,1.200001832,0.000009971,0.799990619,-0.000001132
26.325000000,-0.000000590,-0.799990635,1.200001832,0.000009971,0.799990619,-0.000001132
26.350000000,-0.000000590,-0.799990635,1.200001832,0.000009971,0.799990619,-0.000001132
26.373000000,-0.000000590,-0.799990635,1.200001832,0.000009971,0.799990619,-0.000001132
26.382000000,-0.000000590,-0.799990635,1.200001832,0.000009971,0.799990619,-0.000001132
26.405000000,-0.000000590,-0.799990635,1.200001832,0.000009971,0.799990619,-0.000001132
26.423000000,-0.000000590,-0.799990635,1.200001832,0.000009971,0.799990619,-0.000001132
26.454000000,-0.000000590,-0.799990635,1.200001832,0.000009971,0.799990619,-0.000001132
26.495000000,-0.000000590,-0.799990635,1.200001832,0.000009971,0.799990619,-0.000001132
26.523000000,-0.000000590,-0.799990635,1.200001832,0.000009971,0.799990619,-0.000001132
26.553000000,-0.000000590,-0.799990635,1.200001832,0.000009971,0.799990619,-0.000001132
26.580000000,-0.000000590,-0.799990635,1.200001832,0.000009971,0.799990619,-0.000001132
26.596000000,-0.000000590,-0.799990635,1.200001832,0.000009971,0.799990619,-0.000001132
26.613000000,-0.000000590,-0.799990635,1.200001832,0.000009971,0.799990619,-0.000001132
26.640000000,-0.000000590,-0.799990635,1.200001832,0.000009971,0.799990619,-0.000001132
26.686000000,-0.000000590,-0.799990635,1.200001832,0.000009971,0.799990619,-0.000001132
26.702000000,-0.000000590,-0.799990635,1.200001832,0.000009971,0.799990619,-0.000001132
26.729000000,-0.000000590,-0.799990635,1.200001832,0.000009971,0.799990619,-0.000001132
26.739000000,-0.000000590,-0.799990635,1.200001832,0.000009971,0.799990619,-0.000001132
26.757000000,-0.000000590,-0.799990635,1.200001832,0.000009971,0.799990619,-0.000001132
26.796000000,-0.000000590,-0.799990635,1.200001832,0.000009971,0.799990619,-0.000001132
26.809000000,-0.000000590,-0.799990635,1.200001832,0.000009971,0.799990619,-0.000001132
26.831000000,-0.000000590,-0.799990635,1.200001832,0.000009971,0.799990619,-0.000001132
26.874000000,-0.000000590,-0.799990635,1.200001832,0.000009971,0.799990619,-0.000001132
26.904000000,-0.000000590,-0.799990635,1.200001832,0.000009971,0.799990619,-0.000001132
26.918000000,-0.000000590,-0.799990635,1.200001832,0.000009971,0.799990619,-0.000001132
26.938000000,-0.000000590,-0.799990635,1.200001832,0.000009971,0.799990619,-0.000001132
26.953000000,-0.000000590,-0.799990635,1.200001832,0.000009971,0.799990619,-0.000001132
26.967000000,-0.000000590,-0.799990635,1.200001832,0.000009971,0.799990619,-0.000001132
26.987000000,-0.000000590,-0.799990635,1.200001832,0.000009971,0.799990619,-0.000001132
27.006000000,-0.000000590,-0.799990635,1.200001832,0.000009971,0.799990619,-0.000001132
27.031000000,-0.000000590,-0.799990635,1.200001832,0.000009971,0.799990619,-0.000001132
27.053000000,-0.000000590,-0.799990635,1.200001832,0.000009971,0.799990619,-0.000001132
27.072000000,-0.000000590,-0.799990635,1.200001832,0.000009971,0.799990619,-0.000001132
27.098000000,-0.000000590,-0.799990635,1.200001832,0.000009971,0.799990619,-0.000001132
27.116000000,-0.000000590,-0.799990635,1.200001832,0.000009971,0.799990619,-0.000001132
27.151000000,-0.000000590,-0.799990635,1.200001832,0.000009971,0.799990619,-0.000001132
27.178000000,-0.000000590,-0.799990635,1.200001832,0.000009971,0.799990619,-0.000001132
27.197000000,-0.000000590,-0.799990635,1.200001832,0.000009971,0.799990619,-0.000001132
27.211000000,-0.000000590,-0.799990635,1.200001832,0.000009971,0.799990619,-0.000001132
27.216000000,-0.000000590,-0.799990635,1.200001832,0.000009971,0.799990619,-0.000001132
27.234000000,-0.000000590,-0.799990635,1.200001832,0.000009971,0.799990619,-0.000001132
27.250000000,-0.000000590,-0.799990635,1.200001832,0.000009971,0.799990619,-0.000001132
27.265000000,-0.000000590,-0.799990635,1.200001832,0.000009971,0.799990619,-0.000001132
27.288000000,-0.000000590,-0.799990635,1.200001832,0.000009971,0.799990619,-0.000001132
27.312000000,-0.000000590,-0.799990635,1.200001832,0.000009971,0.799990619,-0.000001132
27.340000000,-0.000000590,-0.799990635,1.200001832,0.000009971,0.799990619,-0.000001132
27.363000000,-0.000000590,-0.799990635,1.200001832,0.000009971,0.799990619,-0.000001132
27.405000000,-0.000000590,-0.799990635,1.200001832,0.000009971,0.799990619,-0.000001132
27.425000000,-0.000000590,-0.799990635,1.200001832,0.000009971,0.799990619,-0.000001132
27.463000000,-0.000000590,-0.799990635,1.200001832,0.000009971,0.799990619,-0.000001132
27.489000000,-0.000000590,-0.799990635,1.200001832,0.000009971,0.799990619,-0.000001132
27.501000000,-0.000000590,-0.799990635,1.200001832,0.000009971,0.799990619,-0.000001132
27.524000000,-0.000000590,-0.799990635,1.200001832,0.000009971,0.799990619,-0.000001132
27.531000000,-0.000000590,-0.799990635,1.200001832,0.000009971,0.799990619,-0.000001132
27.563000000,-0.000000590,-0.799990635,1.200001832,0.000009971,0.799990619,-0.000001132
27.583000000,-0.000000590,-0.799990635,1.200001832,0.000009971,0.799990619,-0.000001132
27.608000000,-0.000000590,-0.799990635,1.200001832,0.000009971,0.799990619,-0.000001132
27.643000000,-0.000000590,-0.799990635,1.200001832,0.000009971,0.799990619,-0.000001132
27.664000000,-0.000000590,-0.799990635,1.200001832,0.000009971,0.799990619,-0.000001132
27.685000000,-0.000000590,-0.799990635,1.200001832,0.000009971,0.799990619,-0.000001132
27.695000000,-0.000000590,-0.799990635,1.200001832,0.000009971,0.799990619,-0.000001132
27.716000000,-0.000000590,-0.799990635,1.200001832,0.000009971,0.799990619,-0.000001132
27.745000000,-0.000000590,-0.799990635,1.200001832,0.000009971,0.799990619,-0.000001132
27.765000000,-0.000000590,-0.799990635,1.200001832,0.000009971,0.799990619,-0.000001132
27.793000000,-0.000000590,-0.799990635,1.200001832,0.000009971,0.799990619,-0.000001132
27.813000000,-0.000000590,-0.799990635,1.200001832,0.000009971,0.799990619,-0.000001132
27.838000000,-0.000000590,-0.799990635,1.200001832,0.000009971,0.799990619,-0.000001132
27.866000000,-0.000000590,-0.799990635,1.200001832,0.000009971,0.799990619,-0.000001132
27.879000000,-0.000000590,-0.799990635,1.200001832,0.000009971,0.799990619,-0.000001132
27.902000000,-0.000000590,-0.799990635,1.200001832,0.000009971,0.799990619,-0.000001132
27.932000000,-0.000000590,-0.799990635,1.200001832,0.000009971,0.799990619,-0.000001132
27.958000000,-0.000000590,-0.799990635,1.200001832,0.000009971,0.799990619,-0.000001132
27.982000000,-0.000000590,-0.799990635,1.200001832,0.000009971,0.799990619,-0.000001132
28.002000000,-0.000000590,-0.799990635,1.200001832,0.000009971,0.799990619,-0.000001132
28.021000000,-0.000000590,-0.799990635,1.200001832,0.000009971,0.799990619,-0.000001132
28.039000000,-0.000000590,-0.799990635,1.200001832,0.000009971,0.799990619,-0.000001132
28.054000000,-0.000000590,-0.799990635,1.200001832,0.000009971,0.799990619,-0.000001132
28.074000000,-0.000000590,-0.799990635,1.200001832,0.000009971,0.799990619,-0.000001132
28.090000000,-0.000000590,-0.799990635,1.200001832,0.000009971,0.799990619,-0.000001132
28.110000000,-0.000000590,-0.799990635,1.200001832,0.000009971,0.799990619,-0.000001132
28.130000000,-0.000000590,-0.799990635,1.200001832,0.000009971,0.799990619,-0.000001132
28.152000000,-0.000000590,-0.799990635,1.200001832,0.000009971,0.799990619,-0.000001132
28.175000000,-0.000000590,-0.799990635,1.200001832,0.000009971,0.799990619,-0.000001132
28.182000000,-0.000000590,-0.799990635,1.200001832,0.000009971,0.799990619,-0.000001132
28.203000000,-0.000000590,-0.799990635,1.200001832,0.000009971,0.799990619,-0.000001132
28.233000000,-0.000000590,-0.799990635,1.200001832,0.000009971,0.799990619,-0.000001132
28.269000000,-0.000000590,-0.799990635,1.200001832,0.000009971,0.799990619,-0.000001132
28.270000000,-0.000000590,-0.799990635,1.200001832,0.000009971,0.799990619,-0.000001132
28.286000000,-0.000000590,-0.799990635,1.200001832,0.000009971,0.799990619,-0.000001132
28.323000000,-0.000000590,-0.799990635,1.200001832,0.000009971,0.799990619,-0.000001132
28.342000000,-0.000000590,-0.799990635,1.200001832,0.000009971,0.799990619,-0.000001132
28.352000000,-0.000000590,-0.799990635,1.200001832,0.000009971,0.799990619,-0.000001132
28.371000000,-0.000000590,-0.799990635,1.200001832,0.000009971,0.799990619,-0.000001132
28.398000000,-0.000000590,-0.799990635,1.200001832,0.000009971,0.799990619,-0.000001132
28.416000000,-0.000000590,-0.799990635,1.200001832,0.000009971,0.799990619,-0.000001132
28.444000000,-0.000000590,-0.799990635,1.200001832,0.000009971,0.799990619,-0.000001132
28.455000000,-0.000000590,-0.799990635,1.200001832,0.000009971,0.799990619,-0.000001132
28.472000000,-0.000000590,-0.799990635,1.200001832,0.000009971,0.799990619,-0.000001132
28.490000000,-0.000000590,-0.799990635,1.200001832,0.000009971,0.799990619,-0.000001132
