Omar-H-Khedr/robotics_project/ros2_ws/install/experiment_manager/lib/python3.12/site-packages/results/baseline_trials/trial_20260514_175656/joint_states.csv
ros_time_sec,joint_1,joint_2,joint_3,joint_4,joint_5,joint_6
1.340000000,-0.000001233,-0.799980420,1.200003830,0.000020847,0.799980387,-0.000002368
1.360000000,-0.000001233,-0.799980420,1.200003830,0.000020847,0.799980387,-0.000002368
1.380000000,-0.000001233,-0.799980420,1.200003830,0.000020847,0.799980387,-0.000002368
1.400000000,-0.000001233,-0.799980420,1.200003830,0.000020847,0.799980387,-0.000002368
1.420000000,-0.000001233,-0.799980420,1.200003830,0.000020847,0.799980387,-0.000002368
1.439000000,-0.000001233,-0.799980420,1.200003830,0.000020847,0.799980387,-0.000002368
1.460000000,-0.000001233,-0.799980420,1.200003830,0.000020847,0.799980387,-0.000002368
1.479000000,-0.000001233,-0.799980420,1.200003830,0.000020847,0.799980387,-0.000002368
1.500000000,-0.000001233,-0.799980420,1.200003830,0.000020847,0.799980387,-0.000002368
1.520000000,-0.000001233,-0.799980420,1.200003830,0.000020847,0.799980387,-0.000002368
1.540000000,-0.000001233,-0.799980420,1.200003830,0.000020847,0.799980387,-0.000002368
1.560000000,-0.000001233,-0.799980420,1.200003830,0.000020847,0.799980387,-0.000002368
1.580000000,-0.000001233,-0.799980420,1.200003830,0.000020847,0.799980387,-0.000002368
1.600000000,-0.000001233,-0.799980420,1.200003830,0.000020847,0.799980387,-0.000002368
1.620000000,-0.000001233,-0.799980420,1.200003830,0.000020847,0.799980387,-0.000002368
1.640000000,-0.000001233,-0.799980420,1.200003830,0.000020847,0.799980387,-0.000002368
1.660000000,-0.000001233,-0.799980420,1.200003830,0.000020847,0.799980387,-0.000002368
1.680000000,-0.000001233,-0.799980420,1.200003830,0.000020847,0.799980387,-0.000002368
1.700000000,-0.000001110,-0.799982378,1.200003447,0.000018763,0.799982348,-0.000002131
1.720000000,-0.000000999,-0.799984140,1.200003103,0.000016886,0.799984114,-0.000001918
1.740000000,-0.000000899,-0.799985726,1.200002792,0.000015198,0.799985702,-0.000001726
1.760000000,-0.000000809,-0.799987153,1.200002513,0.000013678,0.799987132,-0.000001553
1.780000000,-0.000000728,-0.799988438,1.200002262,0.000012310,0.799988419,-0.000001398
1.800000000,-0.000000655,-0.799989594,1.200002036,0.000011079,0.799989577,-0.000001258
1.820000000,-0.000000590,-0.799990635,1.200001832,0.000009971,0.799990619,-0.000001132
1.840000000,-0.000000531,-0.799991571,1.200001649,0.000008974,0.799991557,-0.000001019
1.843000000,-0.000000478,-0.799992414,1.200001484,0.000008077,0.799992402,-0.000000917
1.843000000,-0.000000430,-0.799993173,1.200001336,0.000007269,0.799993161,-0.000000826
1.843000000,-0.000000387,-0.799993855,1.200001202,0.000006542,0.799993845,-0.000000743
1.843000000,-0.000000348,-0.799994470,1.200001082,0.000005888,0.799994461,-0.000000669
1.843000000,-0.000000313,-0.799995023,1.200000974,0.000005299,0.799995015,-0.000000602
1.843000000,-0.000000282,-0.799995521,1.200000876,0.000004769,0.799995513,-0.000000542
1.843000000,-0.000000254,-0.799995969,1.200000789,0.000004292,0.799995962,-0.000000487
1.843000000,-0.000000229,-0.799996372,1.200000710,0.000003863,0.799996366,-0.000000439
1.843000000,-0.000000206,-0.799996735,1.200000639,0.000003477,0.799996729,-0.000000395
1.843000000,-0.000000185,-0.799997061,1.200000575,0.000003129,0.799997056,-0.000000355
1.843000000,-0.000000167,-0.799997355,1.200000517,0.000002816,0.799997351,-0.000000320
1.843000000,-0.000000150,-0.799997619,1.200000466,0.000002535,0.799997616,-0.000000288
1.843000000,-0.000000135,-0.799997858,1.200000419,0.000002281,0.799997854,-0.000000259
1.843000000,-0.000000121,-0.799998072,1.200000377,0.000002053,0.799998069,-0.000000233
1.843000000,-0.000000109,-0.799998265,1.200000339,0.000001848,0.799998262,-0.000000210
1.892000000,-0.000000098,-0.799998438,1.200000306,0.000001663,0.799998436,-0.000000189
2.180000000,-0.000000089,-0.799998594,1.200000275,0.000001497,0.799998592,-0.000000170
2.200000000,-0.000000080,-0.799998735,1.200000247,0.000001347,0.799998733,-0.000000153
2.220000000,-0.000000072,-0.799998861,1.200000223,0.000001212,0.799998860,-0.000000138
2.240000000,-0.000000065,-0.799998975,1.200000200,0.000001091,0.799998974,-0.000000124
2.260000000,-0.000000058,-0.799999078,1.200000180,0.000000982,0.799999076,-0.000000112
2.280000000,-0.000000052,-0.799999170,1.200000162,0.000000884,0.799999169,-0.000000100
2.300000000,-0.000000047,-0.799999253,1.200000146,0.000000795,0.799999252,-0.000000090
2.320000000,-0.000000042,-0.799999328,1.200000132,0.000000716,0.799999327,-0.000000081
2.340000000,-0.000000038,-0.799999395,1.200000118,0.000000644,0.799999394,-0.000000073
2.360000000,-0.000000034,-0.799999455,1.200000107,0.000000580,0.799999455,-0.000000066
2.380000000,-0.000000031,-0.799999510,1.200000096,0.000000522,0.799999509,-0.000000059
2.400000000,-0.000000028,-0.799999559,1.200000086,0.000000470,0.799999558,-0.000000053
2.419000000,-0.000000025,-0.799999603,1.200000078,0.000000423,0.799999602,-0.000000048
2.440000000,-0.000000023,-0.799999643,1.200000070,0.000000380,0.799999642,-0.000000043
2.460000000,-0.000000020,-0.799999678,1.200000063,0.000000342,0.799999678,-0.000000039
2.480000000,-0.000000018,-0.799999711,1.200000057,0.000000308,0.799999710,-0.000000035
2.500000000,-0.000000016,-0.799999740,1.200000051,0.000000277,0.799999739,-0.000000031
2.519000000,-0.000000015,-0.799999766,1.200000046,0.000000250,0.799999765,-0.000000028
2.540000000,-0.000000013,-0.799999789,1.200000041,0.000000225,0.799999789,-0.000000026
2.560000000,-0.000000012,-0.799999810,1.200000037,0.000000202,0.799999810,-0.000000023
2.580000000,-0.000000011,-0.799999829,1.200000033,0.000000182,0.799999829,-0.000000021
2.600000000,-0.000000010,-0.799999846,1.200000030,0.000000164,0.799999846,-0.000000019
2.620000000,-0.000000009,-0.799999862,1.200000027,0.000000147,0.799999861,-0.000000017
2.640000000,-0.000000008,-0.799999875,1.200000024,0.000000133,0.799999875,-0.000000015
2.660000000,-0.000000007,-0.799999888,1.200000022,0.000000119,0.799999888,-0.000000014
2.680000000,-0.000000006,-0.799999899,1.200000020,0.000000107,0.799999899,-0.000000012
2.700000000,-0.000000006,-0.799999909,1.200000018,0.000000097,0.799999909,-0.000000011
2.720000000,-0.000000005,-0.799999918,1.200000016,0.000000087,0.799999918,-0.000000010
2.740000000,-0.000000005,-0.799999926,1.200000014,0.000000078,0.799999926,-0.000000009
2.760000000,-0.000000004,-0.799999934,1.200000013,0.000000070,0.799999934,-0.000000008
2.780000000,-0.000000004,-0.799999940,1.200000012,0.000000063,0.799999940,-0.000000007
2.800000000,-0.000000003,-0.799999946,1.200000011,0.000000057,0.799999946,-0.000000006
2.820000000,-0.000000003,-0.799999952,1.200000009,0.000000051,0.799999952,-0.000000006
2.840000000,-0.000000003,-0.799999957,1.200000009,0.000000046,0.799999957,-0.000000005
2.860000000,-0.000000002,-0.799999961,1.200000008,0.000000042,0.799999961,-0.000000005
2.880000000,-0.000000002,-0.799999965,1.200000007,0.000000037,0.799999965,-0.000000004
2.900000000,-0.000000002,-0.799999968,1.200000006,0.000000034,0.799999968,-0.000000004
2.920000000,-0.000000002,-0.799999971,1.200000006,0.000000030,0.799999971,-0.000000003
2.940000000,-0.000000002,-0.799999974,1.200000005,0.000000027,0.799999974,-0.000000003
2.960000000,-0.000000001,-0.799999977,1.200000005,0.000000025,0.799999977,-0.000000003
2.980000000,-0.000000001,-0.799999979,1.200000004,0.000000022,0.799999979,-0.000000003
3.000000000,-0.000000001,-0.799999981,1.200000004,0.000000020,0.799999981,-0.000000002
3.020000000,-0.000000001,-0.799999983,1.200000003,0.000000018,0.799999983,-0.000000002
3.040000000,-0.000000001,-0.799999985,1.200000003,0.000000016,0.799999985,-0.000000002
3.060000000,-0.000000001,-0.799999986,1.200000003,0.000000015,0.799999986,-0.000000002
3.079000000,-0.000000001,-0.799999988,1.200000002,0.000000013,0.799999988,-0.000000001
3.100000000,-0.000000001,-0.799999989,1.200000002,0.000000012,0.799999989,-0.000000001
3.119000000,-0.000000001,-0.799999990,1.200000002,0.000000011,0.799999990,-0.000000001
3.140000000,-0.000000001,-0.799999991,1.200000002,0.000000010,0.799999991,-0.000000001
3.160000000,-0.000000001,-0.799999992,1.200000002,0.000000009,0.799999992,-0.000000001
3.180000000,-0.000000000,-0.799999993,1.200000001,0.000000008,0.799999993,-0.000000001
3.200000000,-0.000000000,-0.799999993,1.200000001,0.000000007,0.799999993,-0.000000001
3.220000000,-0.000000000,-0.799999994,1.200000001,0.000000006,0.799999994,-0.000000001
3.240000000,-0.000000000,-0.799999995,1.200000001,0.000000006,0.799999995,-0.000000001
3.260000000,-0.000000000,-0.799999995,1.200000001,0.000000005,0.799999995,-0.000000001
3.280000000,-0.000000000,-0.799999996,1.200000001,0.000000005,0.799999996,-0.000000001
3.300000000,-0.000000000,-0.799999996,1.200000001,0.000000004,0.799999996,-0.000000000
3.320000000,-0.000000000,-0.799999997,1.200000001,0.000000004,0.799999997,-0.000000000
3.340000000,-0.000000000,-0.799999997,1.200000001,0.000000003,0.799999997,-0.000000000
3.360000000,-0.000000000,-0.799999997,1.200000001,0.000000003,0.799999997,-0.000000000
3.379000000,-0.000000000,-0.799999997,1.200000001,0.000000003,0.799999997,-0.000000000
3.400000000,-0.000000000,-0.799999998,1.200000000,0.000000002,0.799999998,-0.000000000
3.420000000,-0.000000000,-0.799999998,1.200000000,0.000000002,0.799999998,-0.000000000
3.440000000,-0.000000000,-0.799999998,1.200000000,0.000000002,0.799999998,-0.000000000
3.460000000,-0.000000000,-0.799999998,1.200000000,0.000000002,0.799999998,-0.000000000
3.480000000,-0.000000000,-0.799999999,1.200000000,0.000000002,0.799999999,-0.000000000
3.500000000,-0.000000000,-0.799999999,1.200000000,0.000000001,0.799999999,-0.000000000
3.520000000,-0.000000000,-0.799999999,1.200000000,0.000000001,0.799999999,-0.000000000
3.540000000,-0.000000000,-0.799999999,1.200000000,0.000000001,0.799999999,-0.000000000
3.560000000,-0.000000000,-0.799999999,1.200000000,0.000000001,0.799999999,-0.000000000
3.580000000,-0.000000000,-0.799999999,1.200000000,0.000000001,0.799999999,-0.000000000
3.600000000,-0.000000000,-0.799999999,1.200000000,0.000000001,0.799999999,-0.000000000
3.620000000,-0.000000000,-0.799999999,1.200000000,0.000000001,0.799999999,-0.000000000
3.640000000,-0.000000000,-0.799999999,1.200000000,0.000000001,0.799999999,-0.000000000
3.660000000,-0.000000000,-0.799999999,1.200000000,0.000000001,0.799999999,-0.000000000
3.680000000,-0.000000000,-0.799999999,1.200000000,0.000000001,0.799999999,-0.000000000
3.700000000,-0.000000000,-0.800000000,1.200000000,0.000000001,0.800000000,-0.000000000
3.720000000,-0.000000000,-0.800000000,1.200000000,0.000000000,0.800000000,-0.000000000
3.740000000,-0.000000000,-0.800000000,1.200000000,0.000000000,0.800000000,-0.000000000
3.760000000,-0.000000000,-0.800000000,1.200000000,0.000000000,0.800000000,-0.000000000
3.780000000,-0.000000000,-0.800000000,1.200000000,0.000000000,0.800000000,-0.000000000
3.800000000,-0.000000000,-0.800000000,1.200000000,0.000000000,0.800000000,-0.000000000
3.820000000,-0.000000000,-0.800000000,1.200000000,0.000000000,0.800000000,-0.000000000
3.840000000,-0.000000000,-0.800000000,1.200000000,0.000000000,0.800000000,-0.000000000
3.860000000,-0.000000000,-0.800000000,1.200000000,0.000000000,0.800000000,-0.000000000
3.880000000,-0.000000000,-0.800000000,1.200000000,0.000000000,0.800000000,-0.000000000
3.900000000,-0.000000000,-0.800000000,1.200000000,0.000000000,0.800000000,-0.000000000
3.920000000,-0.000000000,-0.800000000,1.200000000,0.000000000,0.800000000,-0.000000000
3.940000000,-0.000000000,-0.800000000,1.200000000,0.000000000,0.800000000,-0.000000000
3.960000000,-0.000000000,-0.800000000,1.200000000,0.000000000,0.800000000,-0.000000000
3.980000000,-0.000000000,-0.800000000,1.200000000,0.000000000,0.800000000,-0.000000000
4.000000000,-0.000000000,-0.800000000,1.200000000,0.000000000,0.800000000,-0.000000000
4.020000000,-0.000000000,-0.800000000,1.200000000,0.000000000,0.800000000,-0.000000000
4.040000000,-0.000000000,-0.800000000,1.200000000,0.000000000,0.800000000,-0.000000000
4.060000000,-0.000000000,-0.800000000,1.200000000,0.000000000,0.800000000,-0.000000000
4.079000000,-0.000000000,-0.800000000,1.200000000,0.000000000,0.800000000,-0.000000000
4.100000000,-0.000000000,-0.800000000,1.200000000,0.000000000,0.800000000,-0.000000000
4.120000000,-0.000000000,-0.800000000,1.200000000,0.000000000,0.800000000,-0.000000000
4.140000000,-0.000000000,-0.800000000,1.200000000,0.000000000,0.800000000,-0.000000000
4.160000000,-0.000000000,-0.800000000,1.200000000,0.000000000,0.800000000,-0.000000000
4.180000000,-0.000000000,-0.800000000,1.200000000,0.000000000,0.800000000,-0.000000000
4.200000000,-0.000000000,-0.800000000,1.200000000,0.000000000,0.800000000,-0.000000000
4.220000000,-0.000000000,-0.800000000,1.200000000,0.000000000,0.800000000,-0.000000000
4.240000000,-0.000000000,-0.800000000,1.200000000,0.000000000,0.800000000,-0.000000000
4.260000000,-0.000000000,-0.800000000,1.200000000,0.000000000,0.800000000,-0.000000000
4.280000000,-0.000000000,-0.800000000,1.200000000,0.000000000,0.800000000,-0.000000000
4.300000000,-0.000000000,-0.800000000,1.200000000,0.000000000,0.800000000,-0.000000000
4.320000000,-0.000000000,-0.800000000,1.200000000,0.000000000,0.800000000,-0.000000000
4.340000000,-0.000000000,-0.800000000,1.200000000,0.000000000,0.800000000,0.000000000
4.360000000,-0.000000000,-0.800000000,1.200000000,0.000000000,0.800000000,0.000000000
4.380000000,-0.000000000,-0.800000000,1.200000000,0.000000000,0.800000000,0.000000000
4.400000000,-0.000000000,-0.800000000,1.200000000,0.000000000,0.800000000,0.000000000
4.420000000,-0.000000000,-0.800000000,1.200000000,0.000000000,0.800000000,0.000000000
4.440000000,-0.000000000,-0.800000000,1.200000000,0.000000000,0.800000000,0.000000000
4.460000000,-0.000000000,-0.800000000,1.200000000,0.000000000,0.800000000,0.000000000
4.479000000,-0.000000000,-0.800000000,1.200000000,0.000000000,0.800000000,0.000000000
4.500000000,-0.000000000,-0.800000000,1.200000000,0.000000000,0.800000000,0.000000000
4.520000000,-0.000000000,-0.800000000,1.200000000,0.000000000,0.800000000,0.000000000
4.540000000,-0.000000000,-0.800000000,1.200000000,0.000000000,0.800000000,0.000000000
4.560000000,-0.000000000,-0.800000000,1.200000000,0.000000000,0.800000000,0.000000000
4.580000000,-0.000000000,-0.800000000,1.200000000,0.000000000,0.800000000,0.000000000
4.600000000,-0.000000000,-0.800000000,1.200000000,0.000000000,0.800000000,0.000000000
4.620000000,-0.000000000,-0.800000000,1.200000000,0.000000000,0.800000000,0.000000000
4.640000000,-0.000000000,-0.800000000,1.200000000,0.000000000,0.800000000,0.000000000
4.660000000,-0.000000000,-0.800000000,1.200000000,0.000000000,0.800000000,0.000000000
4.680000000,-0.000000000,-0.800000000,1.200000000,0.000000000,0.800000000,0.000000000
4.700000000,-0.000000000,-0.800000000,1.200000000,0.000000000,0.800000000,0.000000000
4.720000000,-0.000000000,-0.800000000,1.200000000,0.000000000,0.800000000,0.000000000
4.740000000,-0.000000000,-0.800000000,1.200000000,0.000000000,0.800000000,0.000000000
4.760000000,-0.000000000,-0.800000000,1.200000000,0.000000000,0.800000000,0.000000000
4.780000000,-0.000000000,-0.800000000,1.200000000,0.000000000,0.800000000,0.000000000
4.800000000,-0.000000000,-0.800000000,1.200000000,0.000000000,0.800000000,0.000000000
4.820000000,-0.000000000,-0.800000000,1.200000000,0.000000000,0.800000000,0.000000000
4.840000000,-0.000000000,-0.800000000,1.200000000,0.000000000,0.800000000,0.000000000
4.860000000,-0.000000000,-0.800000000,1.200000000,0.000000000,0.800000000,0.000000000
4.880000000,-0.000000000,-0.800000000,1.200000000,0.000000000,0.800000000,0.000000000
4.900000000,-0.000000000,-0.800000000,1.200000000,0.000000000,0.800000000,0.000000000
4.920000000,-0.000000000,-0.800000000,1.200000000,0.000000000,0.800000000,0.000000000
4.939000000,-0.000000000,-0.800000000,1.200000000,0.000000000,0.800000000,0.000000000
4.960000000,-0.000000000,-0.800000000,1.200000000,0.000000000,0.800000000,0.000000000
4.980000000,-0.000000000,-0.800000000,1.200000000,0.000000000,0.800000000,0.000000000
4.997000000,-0.000000000,-0.800000000,1.200000000,0.000000000,0.800000000,0.000000000
5.020000000,-0.000000000,-0.800000000,1.200000000,0.000000000,0.800000000,0.000000000
5.040000000,-0.000000000,-0.800000000,1.200000000,0.000000000,0.800000000,0.000000000
5.060000000,-0.000000000,-0.800000000,1.200000000,0.000000000,0.800000000,0.000000000
5.080000000,-0.000000000,-0.800000000,1.200000000,0.000000000,0.800000000,0.000000000
5.100000000,-0.000000000,-0.800000000,1.200000000,0.000000000,0.800000000,0.000000000
5.120000000,-0.000000000,-0.800000000,1.200000000,0.000000000,0.800000000,0.000000000
5.140000000,-0.000000000,-0.800000000,1.200000000,0.000000000,0.800000000,0.000000000
5.160000000,-0.000000000,-0.800000000,1.200000000,0.000000000,0.800000000,0.000000000
5.180000000,-0.000000000,-0.800000000,1.200000000,0.000000000,0.800000000,0.000000000
5.200000000,-0.000000000,-0.800000000,1.200000000,0.000000000,0.800000000,0.000000000
5.220000000,-0.000000000,-0.800000000,1.200000000,0.000000000,0.800000000,0.000000000
5.240000000,-0.000000000,-0.800000000,1.200000000,0.000000000,0.800000000,0.000000000
5.260000000,-0.000000000,-0.800000000,1.200000000,0.000000000,0.800000000,0.000000000
5.280000000,-0.000000000,-0.800000000,1.200000000,0.000000000,0.800000000,0.000000000
5.299000000,-0.000000000,-0.800000000,1.200000000,0.000000000,0.800000000,0.000000000
5.320000000,-0.000000000,-0.800000000,1.200000000,0.000000000,0.800000000,0.000000000
5.340000000,-0.000000000,-0.800000000,1.200000000,0.000000000,0.800000000,0.000000000
5.360000000,-0.000000000,-0.800000000,1.200000000,0.000000000,0.800000000,0.000000000
5.380000000,-0.000000000,-0.800000000,1.200000000,0.000000000,0.800000000,0.000000000
5.400000000,-0.000000000,-0.800000000,1.200000000,0.000000000,0.800000000,0.000000000
5.420000000,-0.000000000,-0.800000000,1.200000000,0.000000000,0.800000000,0.000000000
5.440000000,-0.000000000,-0.800000000,1.200000000,0.000000000,0.800000000,0.000000000
5.460000000,-0.000000000,-0.800000000,1.200000000,0.000000000,0.800000000,0.000000000
5.480000000,-0.000000000,-0.800000000,1.200000000,0.000000000,0.800000000,0.000000000
5.500000000,-0.000000000,-0.800000000,1.200000000,0.000000000,0.800000000,0.000000000
5.520000000,-0.000000000,-0.800000000,1.200000000,0.000000000,0.800000000,0.000000000
5.540000000,-0.000000000,-0.800000000,1.200000000,0.000000000,0.800000000,0.000000000
5.560000000,-0.000000000,-0.800000000,1.200000000,0.000000000,0.800000000,0.000000000
5.580000000,-0.000000000,-0.800000000,1.200000000,0.000000000,0.800000000,0.000000000
5.600000000,-0.000000000,-0.800000000,1.200000000,0.000000000,0.800000000,0.000000000
5.620000000,-0.000000000,-0.800000000,1.200000000,0.000000000,0.800000000,0.000000000
5.640000000,-0.000000000,-0.800000000,1.200000000,0.000000000,0.800000000,0.000000000
5.660000000,-0.000000000,-0.800000000,1.200000000,0.000000000,0.800000000,0.000000000
5.680000000,-0.000000000,-0.800000000,1.200000000,0.000000000,0.800000000,0.000000000
5.700000000,-0.000000000,-0.800000000,1.200000000,0.000000000,0.800000000,0.000000000
5.720000000,-0.000000000,-0.800000000,1.200000000,0.000000000,0.800000000,0.000000000
5.740000000,-0.000000000,-0.800000000,1.200000000,0.000000000,0.800000000,0.000000000
5.760000000,-0.000000000,-0.800000000,1.200000000,0.000000000,0.800000000,0.000000000
5.780000000,-0.000000000,-0.800000000,1.200000000,0.000000000,0.800000000,0.000000000
5.800000000,-0.000000000,-0.800000000,1.200000000,0.000000000,0.800000000,0.000000000
5.820000000,-0.000000000,-0.800000000,1.200000000,0.000000000,0.800000000,0.000000000
5.840000000,-0.000000000,-0.800000000,1.200000000,0.000000000,0.800000000,0.000000000
5.860000000,-0.000000000,-0.800000000,1.200000000,0.000000000,0.800000000,0.000000000
5.880000000,-0.000000000,-0.800000000,1.200000000,0.000000000,0.800000000,0.000000000
5.900000000,-0.000000000,-0.800000000,1.200000000,0.000000000,0.800000000,0.000000000
5.920000000,-0.000000000,-0.800000000,1.200000000,0.000000000,0.800000000,0.000000000
5.940000000,-0.000000000,-0.800000000,1.200000000,0.000000000,0.800000000,0.000000000
5.960000000,-0.000000000,-0.800000000,1.200000000,0.000000000,0.800000000,0.000000000
5.980000000,-0.000000000,-0.800000000,1.200000000,0.000000000,0.800000000,0.000000000
6.000000000,-0.000000000,-0.800000000,1.200000000,0.000000000,0.800000000,0.000000000
6.020000000,-0.000000000,-0.800000000,1.200000000,0.000000000,0.800000000,0.000000000
6.040000000,-0.000000000,-0.800000000,1.200000000,0.000000000,0.800000000,0.000000000
6.060000000,-0.000000000,-0.800000000,1.200000000,0.000000000,0.800000000,0.000000000
6.080000000,-0.000000000,-0.800000000,1.200000000,0.000000000,0.800000000,0.000000000
6.100000000,-0.000000000,-0.800000000,1.200000000,0.000000000,0.800000000,0.000000000
6.120000000,-0.000000000,-0.800000000,1.200000000,0.000000000,0.800000000,0.000000000
6.140000000,-0.000000000,-0.800000000,1.200000000,0.000000000,0.800000000,0.000000000
6.160000000,-0.000000000,-0.800000000,1.200000000,0.000000000,0.800000000,0.000000000
6.180000000,-0.000000000,-0.800000000,1.200000000,0.000000000,0.800000000,0.000000000
6.200000000,-0.000000000,-0.800000000,1.200000000,0.000000000,0.800000000,0.000000000
6.220000000,-0.000000000,-0.800000000,1.200000000,0.000000000,0.800000000,0.000000000
6.240000000,-0.000000000,-0.800000000,1.200000000,0.000000000,0.800000000,0.000000000
6.260000000,-0.000000000,-0.800000000,1.200000000,0.000000000,0.800000000,0.000000000
6.280000000,-0.000000000,-0.800000000,1.200000000,0.000000000,0.800000000,0.000000000
6.300000000,-0.000000000,-0.800000000,1.200000000,0.000000000,0.800000000,0.000000000
6.320000000,-0.000000000,-0.800000000,1.200000000,0.000000000,0.800000000,0.000000000
6.340000000,-0.000000000,-0.800000000,1.200000000,0.000000000,0.800000000,0.000000000
6.360000000,-0.000000000,-0.800000000,1.200000000,0.000000000,0.800000000,0.000000000
6.380000000,-0.000000000,-0.800000000,1.200000000,0.000000000,0.800000000,0.000000000
6.400000000,-0.000000000,-0.800000000,1.200000000,0.000000000,0.800000000,0.000000000
6.420000000,-0.000000000,-0.800000000,1.200000000,0.000000000,0.800000000,0.000000000
6.440000000,-0.000000000,-0.800000000,1.200000000,0.000000000,0.800000000,0.000000000
6.460000000,-0.000000000,-0.800000000,1.200000000,0.000000000,0.800000000,0.000000000
6.480000000,-0.000000000,-0.800000000,1.200000000,0.000000000,0.800000000,0.000000000
6.500000000,-0.000000000,-0.800000000,1.200000000,0.000000000,0.800000000,0.000000000
6.520000000,-0.000000000,-0.800000000,1.200000000,0.000000000,0.800000000,0.000000000
6.540000000,-0.000000000,-0.800000000,1.200000000,0.000000000,0.800000000,0.000000000
6.560000000,-0.000000000,-0.800000000,1.200000000,0.000000000,0.800000000,0.000000000
6.580000000,-0.000000000,-0.800000000,1.200000000,0.000000000,0.800000000,0.000000000
6.600000000,-0.000000000,-0.800000000,1.200000000,0.000000000,0.800000000,0.000000000
6.620000000,-0.000000000,-0.800000000,1.200000000,0.000000000,0.800000000,0.000000000
6.640000000,-0.000000000,-0.800000000,1.200000000,0.000000000,0.800000000,0.000000000
6.660000000,-0.000000000,-0.800000000,1.200000000,0.000000000,0.800000000,0.000000000
6.680000000,-0.000000000,-0.800000000,1.200000000,0.000000000,0.800000000,0.000000000
6.700000000,-0.000000000,-0.800000000,1.200000000,0.000000000,0.800000000,0.000000000
6.720000000,-0.000000000,-0.800000000,1.200000000,0.000000000,0.800000000,0.000000000
6.740000000,-0.000000000,-0.800000000,1.200000000,0.000000000,0.800000000,0.000000000
6.760000000,-0.000000000,-0.800000000,1.200000000,0.000000000,0.800000000,0.000000000
6.780000000,-0.000000000,-0.800000000,1.200000000,0.000000000,0.800000000,0.000000000
6.800000000,-0.000000000,-0.800000000,1.200000000,0.000000000,0.800000000,0.000000000
6.820000000,-0.000000000,-0.800000000,1.200000000,0.000000000,0.800000000,0.000000000
6.840000000,-0.000000000,-0.800000000,1.200000000,0.000000000,0.800000000,0.000000000
6.860000000,-0.000000000,-0.800000000,1.200000000,0.000000000,0.800000000,0.000000000
6.880000000,-0.000000000,-0.800000000,1.200000000,0.000000000,0.800000000,0.000000000
6.900000000,-0.000000000,-0.800000000,1.200000000,0.000000000,0.800000000,0.000000000
6.920000000,-0.000000000,-0.800000000,1.200000000,0.000000000,0.800000000,0.000000000
6.940000000,-0.000000000,-0.800000000,1.200000000,0.000000000,0.800000000,0.000000000
6.960000000,-0.000000000,-0.800000000,1.200000000,0.000000000,0.800000000,0.000000000
6.980000000,-0.000000000,-0.800000000,1.200000000,0.000000000,0.800000000,0.000000000
7.000000000,-0.000000000,-0.800000000,1.200000000,0.000000000,0.800000000,0.000000000
7.020000000,-0.000000000,-0.800000000,1.200000000,0.000000000,0.800000000,0.000000000
7.040000000,-0.000000000,-0.800000000,1.200000000,0.000000000,0.800000000,0.000000000
7.060000000,-0.000000000,-0.800000000,1.200000000,0.000000000,0.800000000,0.000000000
7.080000000,-0.000000000,-0.800000000,1.200000000,0.000000000,0.800000000,0.000000000
7.100000000,-0.000000000,-0.800000000,1.200000000,0.000000000,0.800000000,0.000000000
7.120000000,-0.000000000,-0.800000000,1.200000000,0.000000000,0.800000000,0.000000000
7.140000000,-0.000000000,-0.800000000,1.200000000,0.000000000,0.800000000,0.000000000
7.160000000,-0.000000000,-0.800000000,1.200000000,0.000000000,0.800000000,0.000000000
7.180000000,-0.000000000,-0.800000000,1.200000000,0.000000000,0.800000000,0.000000000
7.200000000,-0.000000000,-0.800000000,1.200000000,0.000000000,0.800000000,0.000000000
7.220000000,-0.000000000,-0.800000000,1.200000000,0.000000000,0.800000000,0.000000000
7.240000000,-0.000000000,-0.800000000,1.200000000,0.000000000,0.800000000,0.000000000
7.260000000,-0.000000000,-0.800000000,1.200000000,0.000000000,0.800000000,0.000000000
7.280000000,-0.000000000,-0.800000000,1.200000000,0.000000000,0.800000000,0.000000000
7.300000000,-0.000000000,-0.800000000,1.200000000,0.000000000,0.800000000,0.000000000
7.320000000,-0.000000000,-0.800000000,1.200000000,0.000000000,0.800000000,0.000000000
7.340000000,-0.000000000,-0.800000000,1.200000000,0.000000000,0.800000000,0.000000000
7.360000000,-0.000000000,-0.800000000,1.200000000,0.000000000,0.800000000,0.000000000
7.380000000,-0.000000000,-0.800000000,1.200000000,0.000000000,0.800000000,0.000000000
7.400000000,-0.000000000,-0.800000000,1.200000000,0.000000000,0.800000000,0.000000000
7.420000000,-0.000000000,-0.800000000,1.200000000,0.000000000,0.800000000,0.000000000
7.440000000,-0.000000000,-0.800000000,1.200000000,0.000000000,0.800000000,0.000000000
7.460000000,-0.000000000,-0.800000000,1.200000000,0.000000000,0.800000000,0.000000000
7.480000000,-0.000000000,-0.800000000,1.200000000,0.000000000,0.800000000,0.000000000
7.495000000,-0.000000000,-0.800000000,1.200000000,0.000000000,0.800000000,0.000000000
7.495000000,-0.000000000,-0.800000000,1.200000000,0.000000000,0.800000000,0.000000000
7.495000000,-0.000000000,-0.800000000,1.200000000,0.000000000,0.800000000,0.000000000
7.495000000,-0.000000000,-0.800000000,1.200000000,0.000000000,0.800000000,0.000000000
7.495000000,-0.000000000,-0.800000000,1.200000000,0.000000000,0.800000000,0.000000000
7.495000000,-0.000000000,-0.800000000,1.200000000,0.000000000,0.800000000,0.000000000
7.495000000,-0.000000000,-0.800000000,1.200000000,0.000000000,0.800000000,0.000000000
7.495000000,-0.000000000,-0.800000000,1.200000000,0.000000000,0.800000000,0.000000000
7.495000000,-0.000000000,-0.800000000,1.200000000,0.000000000,0.800000000,0.000000000
7.495000000,-0.000000000,-0.800000000,1.200000000,0.000000000,0.800000000,0.000000000
7.495000000,-0.000000000,-0.800000000,1.200000000,0.000000000,0.800000000,0.000000000
7.495000000,-0.000000000,-0.800000000,1.200000000,0.000000000,0.800000000,0.000000000
7.495000000,-0.000000000,-0.800000000,1.200000000,0.000000000,0.800000000,0.000000000
7.495000000,-0.000000000,-0.800000000,1.200000000,0.000000000,0.800000000,0.000000000
7.495000000,-0.000000000,-0.800000000,1.200000000,0.000000000,0.800000000,0.000000000
7.495000000,-0.000000000,-0.800000000,1.200000000,0.000000000,0.800000000,0.000000000
7.654000000,-0.000000000,-0.800000000,1.200000000,0.000000000,0.800000000,0.000000000
7.840000000,-0.000000000,-0.800000000,1.200000000,0.000000000,0.800000000,0.000000000
7.860000000,-0.000000000,-0.800000000,1.200000000,0.000000000,0.800000000,0.000000000
7.880000000,-0.000000000,-0.800000000,1.200000000,0.000000000,0.800000000,0.000000000
7.900000000,-0.000000000,-0.800000000,1.200000000,0.000000000,0.800000000,0.000000000
7.919000000,-0.000000000,-0.800000000,1.200000000,0.000000000,0.800000000,0.000000000
7.940000000,-0.000000000,-0.800000000,1.200000000,0.000000000,0.800000000,0.000000000
7.960000000,-0.000000000,-0.800000000,1.200000000,0.000000000,0.800000000,0.000000000
7.980000000,-0.000000000,-0.800000000,1.200000000,0.000000000,0.800000000,0.000000000
8.000000000,-0.000000000,-0.800000000,1.200000000,0.000000000,0.800000000,0.000000000
8.020000000,-0.000000000,-0.800000000,1.200000000,0.000000000,0.800000000,0.000000000
8.040000000,-0.000000000,-0.800000000,1.200000000,0.000000000,0.800000000,0.000000000
8.060000000,-0.000000000,-0.800000000,1.200000000,0.000000000,0.800000000,0.000000000
8.080000000,-0.000000000,-0.800000000,1.200000000,0.000000000,0.800000000,0.000000000
8.100000000,-0.000000000,-0.800000000,1.200000000,0.000000000,0.800000000,0.000000000
8.120000000,-0.000000000,-0.800000000,1.200000000,0.000000000,0.800000000,0.000000000
8.140000000,-0.000000000,-0.800000000,1.200000000,0.000000000,0.800000000,0.000000000
8.160000000,-0.000000000,-0.800000000,1.200000000,0.000000000,0.800000000,0.000000000
8.180000000,-0.000000000,-0.800000000,1.200000000,0.000000000,0.800000000,0.000000000
8.199000000,-0.000000000,-0.800000000,1.200000000,0.000000000,0.800000000,0.000000000
8.220000000,-0.000000000,-0.800000000,1.200000000,0.000000000,0.800000000,0.000000000
8.240000000,-0.000000000,-0.800000000,1.200000000,0.000000000,0.800000000,0.000000000
8.260000000,-0.000000000,-0.800000000,1.200000000,0.000000000,0.800000000,0.000000000
8.280000000,-0.000000000,-0.800000000,1.200000000,0.000000000,0.800000000,0.000000000
8.300000000,-0.000000000,-0.800000000,1.200000000,0.000000000,0.800000000,0.000000000
8.319000000,-0.000000000,-0.800000000,1.200000000,0.000000000,0.800000000,0.000000000
8.339000000,-0.000000000,-0.800000000,1.200000000,0.000000000,0.800000000,0.000000000
8.360000000,-0.000000000,-0.800000000,1.200000000,0.000000000,0.800000000,0.000000000
8.380000000,-0.000000000,-0.800000000,1.200000000,0.000000000,0.800000000,0.000000000
8.400000000,-0.000000000,-0.800000000,1.200000000,0.000000000,0.800000000,0.000000000
8.420000000,-0.000000000,-0.800000000,1.200000000,0.000000000,0.800000000,0.000000000
8.440000000,-0.000000000,-0.800000000,1.200000000,0.000000000,0.800000000,0.000000000
8.460000000,-0.000000000,-0.800000000,1.200000000,0.000000000,0.800000000,0.000000000
8.480000000,-0.000000000,-0.800000000,1.200000000,0.000000000,0.800000000,0.000000000
8.500000000,-0.000000000,-0.800000000,1.200000000,0.000000000,0.800000000,0.000000000
8.520000000,-0.000000000,-0.800000000,1.200000000,0.000000000,0.800000000,0.000000000
8.540000000,-0.000000000,-0.800000000,1.200000000,0.000000000,0.800000000,0.000000000
8.560000000,-0.000000000,-0.800000000,1.200000000,0.000000000,0.800000000,0.000000000
8.580000000,-0.000000000,-0.800000000,1.200000000,0.000000000,0.800000000,0.000000000
8.600000000,-0.000000000,-0.800000000,1.200000000,0.000000000,0.800000000,0.000000000
8.620000000,-0.000000000,-0.800000000,1.200000000,0.000000000,0.800000000,0.000000000
8.640000000,-0.000000000,-0.800000000,1.200000000,0.000000000,0.800000000,0.000000000
8.660000000,-0.000000000,-0.800000000,1.200000000,0.000000000,0.800000000,0.000000000
8.680000000,-0.000000000,-0.800000000,1.200000000,0.000000000,0.800000000,0.000000000
8.700000000,-0.000000000,-0.800000000,1.200000000,0.000000000,0.800000000,0.000000000
8.720000000,-0.000000000,-0.800000000,1.200000000,0.000000000,0.800000000,0.000000000
8.740000000,-0.000000000,-0.800000000,1.200000000,0.000000000,0.800000000,0.000000000
8.760000000,-0.000000000,-0.800000000,1.200000000,0.000000000,0.800000000,0.000000000
8.780000000,-0.000000000,-0.800000000,1.200000000,0.000000000,0.800000000,0.000000000
8.800000000,-0.000000000,-0.800000000,1.200000000,0.000000000,0.800000000,0.000000000
8.820000000,-0.000000000,-0.800000000,1.200000000,0.000000000,0.800000000,0.000000000
8.840000000,-0.000000000,-0.800000000,1.200000000,0.000000000,0.800000000,0.000000000
8.860000000,-0.000000000,-0.800000000,1.200000000,0.000000000,0.800000000,0.000000000
8.880000000,-0.000000000,-0.800000000,1.200000000,0.000000000,0.800000000,0.000000000
8.900000000,-0.000000000,-0.800000000,1.200000000,0.000000000,0.800000000,0.000000000
8.920000000,-0.000000000,-0.800000000,1.200000000,0.000000000,0.800000000,0.000000000
8.940000000,-0.000000000,-0.800000000,1.200000000,0.000000000,0.800000000,0.000000000
8.960000000,-0.000000000,-0.800000000,1.200000000,0.000000000,0.800000000,0.000000000
8.980000000,-0.000000000,-0.800000000,1.200000000,0.000000000,0.800000000,0.000000000
9.000000000,-0.000000000,-0.800000000,1.200000000,0.000000000,0.800000000,0.000000000
9.020000000,-0.000000000,-0.800000000,1.200000000,0.000000000,0.800000000,0.000000000
9.040000000,-0.000000000,-0.800000000,1.200000000,0.000000000,0.800000000,0.000000000
9.060000000,-0.000000000,-0.800000000,1.200000000,0.000000000,0.800000000,0.000000000
9.080000000,-0.000000000,-0.800000000,1.200000000,0.000000000,0.800000000,0.000000000
9.100000000,-0.000000000,-0.800000000,1.200000000,0.000000000,0.800000000,0.000000000
9.120000000,-0.000000000,-0.800000000,1.200000000,0.000000000,0.800000000,0.000000000
9.140000000,-0.000000000,-0.800000000,1.200000000,0.000000000,0.800000000,0.000000000
9.160000000,-0.000000000,-0.800000000,1.200000000,0.000000000,0.800000000,0.000000000
9.180000000,-0.000000000,-0.800000000,1.200000000,0.000000000,0.800000000,0.000000000
9.200000000,-0.000000000,-0.800000000,1.200000000,0.000000000,0.800000000,0.000000000
9.220000000,-0.000000000,-0.800000000,1.200000000,0.000000000,0.800000000,0.000000000
9.240000000,-0.000000000,-0.800000000,1.200000000,0.000000000,0.800000000,0.000000000
9.260000000,-0.000000000,-0.800000000,1.200000000,0.000000000,0.800000000,0.000000000
9.280000000,-0.000000000,-0.800000000,1.200000000,0.000000000,0.800000000,0.000000000
9.300000000,-0.000000000,-0.800000000,1.200000000,0.000000000,0.800000000,0.000000000
9.320000000,-0.000000000,-0.800000000,1.200000000,0.000000000,0.800000000,0.000000000
9.340000000,-0.000000000,-0.800000000,1.200000000,0.000000000,0.800000000,0.000000000
9.360000000,-0.000000000,-0.800000000,1.200000000,0.000000000,0.800000000,0.000000000
9.380000000,-0.000000000,-0.800000000,1.200000000,0.000000000,0.800000000,0.000000000
9.400000000,-0.000000000,-0.800000000,1.200000000,0.000000000,0.800000000,0.000000000
9.420000000,-0.000000000,-0.800000000,1.200000000,0.000000000,0.800000000,0.000000000
9.440000000,-0.000000000,-0.800000000,1.200000000,0.000000000,0.800000000,0.000000000
9.460000000,-0.000000000,-0.800000000,1.200000000,0.000000000,0.800000000,0.000000000
9.480000000,-0.000000000,-0.800000000,1.200000000,0.000000000,0.800000000,0.000000000
9.500000000,-0.000000000,-0.800000000,1.200000000,0.000000000,0.800000000,0.000000000
9.520000000,-0.000000000,-0.800000000,1.200000000,0.000000000,0.800000000,0.000000000
9.540000000,-0.000000000,-0.800000000,1.200000000,0.000000000,0.800000000,0.000000000
9.560000000,-0.000000000,-0.800000000,1.200000000,0.000000000,0.800000000,0.000000000
9.580000000,-0.000000000,-0.800000000,1.200000000,0.000000000,0.800000000,0.000000000
9.600000000,-0.000000000,-0.800000000,1.200000000,0.000000000,0.800000000,0.000000000
9.620000000,-0.000000000,-0.800000000,1.200000000,0.000000000,0.800000000,0.000000000
9.640000000,-0.000000000,-0.800000000,1.200000000,0.000000000,0.800000000,0.000000000
9.660000000,-0.000000000,-0.800000000,1.200000000,0.000000000,0.800000000,0.000000000
9.680000000,-0.000000000,-0.800000000,1.200000000,0.000000000,0.800000000,0.000000000
9.700000000,-0.000000000,-0.800000000,1.200000000,0.000000000,0.800000000,0.000000000
9.720000000,-0.000000000,-0.800000000,1.200000000,0.000000000,0.800000000,0.000000000
9.740000000,-0.000000000,-0.800000000,1.200000000,0.000000000,0.800000000,0.000000000
9.759000000,-0.000000000,-0.800000000,1.200000000,0.000000000,0.800000000,0.000000000
9.777000000,-0.000000000,-0.800000000,1.200000000,0.000000000,0.800000000,0.000000000
9.800000000,-0.000000000,-0.800000000,1.200000000,0.000000000,0.800000000,0.000000000
9.820000000,-0.000000000,-0.800000000,1.200000000,0.000000000,0.800000000,0.000000000
9.839000000,-0.000000000,-0.800000000,1.200000000,0.000000000,0.800000000,0.000000000
9.860000000,-0.000000000,-0.800000000,1.200000000,0.000000000,0.800000000,0.000000000
9.880000000,-0.000000000,-0.800000000,1.200000000,0.000000000,0.800000000,0.000000000
9.900000000,-0.000000000,-0.800000000,1.200000000,0.000000000,0.800000000,0.000000000
9.920000000,-0.000000000,-0.800000000,1.200000000,0.000000000,0.800000000,0.000000000
9.940000000,-0.000000000,-0.800000000,1.200000000,0.000000000,0.800000000,0.000000000
9.960000000,-0.000000000,-0.800000000,1.200000000,0.000000000,0.800000000,0.000000000
9.980000000,-0.000000000,-0.800000000,1.200000000,0.000000000,0.800000000,0.000000000
10.000000000,-0.000000000,-0.800000000,1.200000000,0.000000000,0.800000000,0.000000000
10.020000000,-0.000000000,-0.800000000,1.200000000,0.000000000,0.800000000,0.000000000
10.040000000,-0.000000000,-0.800000000,1.200000000,0.000000000,0.800000000,0.000000000
10.057000000,-0.000000000,-0.800000000,1.200000000,0.000000000,0.800000000,0.000000000
10.080000000,-0.000000000,-0.800000000,1.200000000,0.000000000,0.800000000,0.000000000
10.100000000,-0.000000000,-0.800000000,1.200000000,0.000000000,0.800000000,0.000000000
10.120000000,-0.000000000,-0.800000000,1.200000000,0.000000000,0.800000000,0.000000000
10.140000000,-0.000000000,-0.800000000,1.200000000,0.000000000,0.800000000,0.000000000
10.160000000,-0.000000000,-0.800000000,1.200000000,0.000000000,0.800000000,0.000000000
10.180000000,-0.000000000,-0.800000000,1.200000000,0.000000000,0.800000000,0.000000000
10.200000000,-0.000000000,-0.800000000,1.200000000,0.000000000,0.800000000,0.000000000
10.220000000,-0.000000000,-0.800000000,1.200000000,0.000000000,0.800000000,0.000000000
10.240000000,-0.000000000,-0.800000000,1.200000000,0.000000000,0.800000000,0.000000000
10.260000000,-0.000000000,-0.800000000,1.200000000,0.000000000,0.800000000,0.000000000
10.280000000,-0.000000000,-0.800000000,1.200000000,0.000000000,0.800000000,0.000000000
10.300000000,-0.000000000,-0.800000000,1.200000000,0.000000000,0.800000000,0.000000000
10.320000000,-0.000000000,-0.800000000,1.200000000,0.000000000,0.800000000,0.000000000
10.340000000,-0.000000000,-0.800000000,1.200000000,0.000000000,0.800000000,0.000000000
10.360000000,-0.000000000,-0.800000000,1.200000000,0.000000000,0.800000000,0.000000000
10.380000000,-0.000000000,-0.800000000,1.200000000,0.000000000,0.800000000,0.000000000
10.400000000,-0.000000000,-0.800000000,1.200000000,0.000000000,0.800000000,0.000000000
10.420000000,-0.000000000,-0.800000000,1.200000000,0.000000000,0.800000000,0.000000000
10.440000000,-0.000000000,-0.800000000,1.200000000,0.000000000,0.800000000,0.000000000
10.460000000,-0.000000000,-0.800000000,1.200000000,0.000000000,0.800000000,0.000000000
10.480000000,-0.000000000,-0.800000000,1.200000000,0.000000000,0.800000000,0.000000000
10.500000000,-0.000000000,-0.800000000,1.200000000,0.000000000,0.800000000,0.000000000
10.520000000,-0.000000000,-0.800000000,1.200000000,0.000000000,0.800000000,0.000000000
10.540000000,-0.000000000,-0.800000000,1.200000000,0.000000000,0.800000000,0.000000000
10.560000000,-0.000000000,-0.800000000,1.200000000,0.000000000,0.800000000,0.000000000
10.580000000,-0.000000000,-0.800000000,1.200000000,0.000000000,0.800000000,0.000000000
10.600000000,-0.000000000,-0.800000000,1.200000000,0.000000000,0.800000000,0.000000000
10.620000000,-0.000000000,-0.800000000,1.200000000,0.000000000,0.800000000,0.000000000
10.640000000,-0.000000000,-0.800000000,1.200000000,0.000000000,0.800000000,0.000000000
10.660000000,-0.000000000,-0.800000000,1.200000000,0.000000000,0.800000000,0.000000000
10.680000000,-0.000000000,-0.800000000,1.200000000,0.000000000,0.800000000,0.000000000
10.699000000,-0.000000000,-0.800000000,1.200000000,0.000000000,0.800000000,0.000000000
10.720000000,-0.000000000,-0.800000000,1.200000000,0.000000000,0.800000000,0.000000000
10.740000000,-0.000000000,-0.800000000,1.200000000,0.000000000,0.800000000,0.000000000
10.758000000,-0.000000000,-0.800000000,1.200000000,0.000000000,0.800000000,0.000000000
10.778000000,-0.000000000,-0.800000000,1.200000000,0.000000000,0.800000000,0.000000000
10.800000000,-0.000000000,-0.800000000,1.200000000,0.000000000,0.800000000,0.000000000
10.820000000,-0.000000000,-0.800000000,1.200000000,0.000000000,0.800000000,0.000000000
10.840000000,-0.000000000,-0.800000000,1.200000000,0.000000000,0.800000000,0.000000000
10.860000000,-0.000000000,-0.800000000,1.200000000,0.000000000,0.800000000,0.000000000
10.880000000,-0.000000000,-0.800000000,1.200000000,0.000000000,0.800000000,0.000000000
10.900000000,-0.000000000,-0.800000000,1.200000000,0.000000000,0.800000000,0.000000000
10.920000000,-0.000000000,-0.800000000,1.200000000,0.000000000,0.800000000,0.000000000
10.940000000,-0.000000000,-0.800000000,1.200000000,0.000000000,0.800000000,0.000000000
10.960000000,-0.000000000,-0.800000000,1.200000000,0.000000000,0.800000000,0.000000000
10.980000000,-0.000000000,-0.800000000,1.200000000,0.000000000,0.800000000,0.000000000
11.000000000,-0.000000000,-0.800000000,1.200000000,0.000000000,0.800000000,0.000000000
11.020000000,-0.000000000,-0.800000000,1.200000000,0.000000000,0.800000000,0.000000000
11.040000000,-0.000000000,-0.800000000,1.200000000,0.000000000,0.800000000,0.000000000
11.060000000,-0.000000000,-0.800000000,1.200000000,0.000000000,0.800000000,0.000000000
11.080000000,-0.000000000,-0.800000000,1.200000000,0.000000000,0.800000000,0.000000000
11.100000000,-0.000000000,-0.800000000,1.200000000,0.000000000,0.800000000,0.000000000
11.120000000,-0.000000000,-0.800000000,1.200000000,0.000000000,0.800000000,0.000000000
11.140000000,-0.000000000,-0.800000000,1.200000000,0.000000000,0.800000000,0.000000000
11.159000000,-0.000000000,-0.800000000,1.200000000,0.000000000,0.800000000,0.000000000
11.180000000,-0.000000000,-0.800000000,1.200000000,0.000000000,0.800000000,0.000000000
11.200000000,-0.000000000,-0.800000000,1.200000000,0.000000000,0.800000000,0.000000000
11.220000000,-0.000000000,-0.800000000,1.200000000,0.000000000,0.800000000,0.000000000
11.240000000,-0.000000000,-0.800000000,1.200000000,0.000000000,0.800000000,0.000000000
11.260000000,-0.000000000,-0.800000000,1.200000000,0.000000000,0.800000000,0.000000000
11.280000000,-0.000000000,-0.800000000,1.200000000,0.000000000,0.800000000,0.000000000
11.300000000,-0.000000000,-0.800000000,1.200000000,0.000000000,0.800000000,0.000000000
11.320000000,-0.000000000,-0.800000000,1.200000000,0.000000000,0.800000000,0.000000000
11.340000000,-0.000000000,-0.800000000,1.200000000,0.000000000,0.800000000,0.000000000
11.360000000,-0.000000000,-0.800000000,1.200000000,0.000000000,0.800000000,0.000000000
11.379000000,-0.000000000,-0.800000000,1.200000000,0.000000000,0.800000000,0.000000000
11.400000000,-0.000000000,-0.800000000,1.200000000,0.000000000,0.800000000,0.000000000
11.420000000,0.000166667,-0.800000000,1.200000000,0.000000000,0.800000000,0.000000000
11.440000000,0.000483333,-0.800000000,1.200000000,0.000000000,0.800000000,0.000000000
11.460000000,0.000935000,-0.800000000,1.200000000,0.000000000,0.800000000,0.000000000
11.480000000,0.001508167,-0.800000000,1.200000000,0.000000000,0.800000000,0.000000000
11.500000000,0.002190683,-0.800000000,1.200000000,0.000000000,0.800000000,0.000000000
11.520000000,0.002971615,-0.800000000,1.200000000,0.000000000,0.800000000,0.000000000
11.540000000,0.003841120,-0.800000000,1.200000000,0.000000000,0.800000000,0.000000000
11.560000000,0.004790341,-0.800000000,1.200000000,0.000000000,0.800000000,0.000000000
11.580000000,0.005811307,-0.800000000,1.200000000,0.000000000,0.800000000,0.000000000
11.600000000,0.006896843,-0.800000000,1.200000000,0.000000000,0.800000000,0.000000000
11.620000000,0.008040492,-0.800000000,1.200000000,0.000000000,0.800000000,0.000000000
11.640000000,0.009236443,-0.800000000,1.200000000,0.000000000,0.800000000,0.000000000
11.660000000,0.010479465,-0.800000000,1.200000000,0.000000000,0.800000000,0.000000000
11.680000000,0.011764852,-0.800000000,1.200000000,0.000000000,0.800000000,0.000000000
11.700000000,0.013088367,-0.800000000,1.200000000,0.000000000,0.800000000,0.000000000
11.720000000,0.014446197,-0.800000000,1.200000000,0.000000000,0.800000000,0.000000000
11.740000000,0.015834911,-0.800000000,1.200000000,0.000000000,0.800000000,0.000000000
11.760000000,0.017251420,-0.800000000,1.200000000,0.000000000,0.800000000,0.000000000
11.780000000,0.018692944,-0.800000000,1.200000000,0.000000000,0.800000000,0.000000000
11.800000000,0.020156983,-0.800000000,1.200000000,0.000000000,0.800000000,0.000000000
11.820000000,0.021641285,-0.800000000,1.200000000,0.000000000,0.800000000,0.000000000
11.840000000,0.023143823,-0.800000000,1.200000000,0.000000000,0.800000000,0.000000000
11.860000000,0.024662774,-0.800000000,1.200000000,0.000000000,0.800000000,0.000000000
11.880000000,0.026196497,-0.800000000,1.200000000,0.000000000,0.800000000,0.000000000
11.900000000,0.027743514,-0.800000000,1.200000000,0.000000000,0.800000000,0.000000000
11.920000000,0.029302496,-0.800000000,1.200000000,0.000000000,0.800000000,0.000000000
11.940000000,0.030872246,-0.800000000,1.200000000,0.000000000,0.800000000,0.000000000
11.960000000,0.032451688,-0.800000000,1.200000000,0.000000000,0.800000000,0.000000000
11.980000000,0.034039853,-0.800000000,1.200000000,0.000000000,0.800000000,0.000000000
12.000000000,0.035635867,-0.800000000,1.200000000,0.000000000,0.800000000,0.000000000
12.020000000,0.037238947,-0.800000000,1.200000000,0.000000000,0.800000000,0.000000000
12.039000000,0.038848386,-0.800000000,1.200000000,0.000000000,0.800000000,0.000000000
12.060000000,0.040455214,-0.800000000,1.200000000,0.000000000,0.800000000,0.000000000
12.080000000,0.042076359,-0.800000000,1.200000000,0.000000000,0.800000000,0.000000000
12.100000000,0.043702057,-0.800000000,1.200000000,0.000000000,0.800000000,0.000000000
12.120000000,0.045331851,-0.800000000,1.200000000,0.000000000,0.800000000,0.000000000
12.140000000,0.046965333,-0.800000000,1.200000000,0.000000000,0.800000000,0.000000000
12.160000000,0.048602133,-0.800000000,1.200000000,0.000000000,0.800000000,0.000000000
12.180000000,0.050241919,-0.800000000,1.200000000,0.000000000,0.800000000,0.000000000
12.200000000,0.051884394,-0.800000000,1.200000000,0.000000000,0.800000000,0.000000000
12.220000000,0.053529288,-0.800000000,1.200000000,0.000000000,0.800000000,0.000000000
12.240000000,0.055176359,-0.800000000,1.200000000,0.000000000,0.800000000,0.000000000
12.260000000,0.056825390,-0.800000000,1.200000000,0.000000000,0.800000000,0.000000000
12.280000000,0.058476184,-0.800000000,1.200000000,0.000000000,0.800000000,0.000000000
12.300000000,0.060128566,-0.800000000,1.200000000,0.000000000,0.800000000,0.000000000
12.320000000,0.061782376,-0.800000000,1.200000000,0.000000000,0.800000000,0.000000000
12.340000000,0.063437472,-0.800000000,1.200000000,0.000000000,0.800000000,0.000000000
12.360000000,0.065093725,-0.800000000,1.200000000,0.000000000,0.800000000,0.000000000
12.380000000,0.066751019,-0.800000000,1.200000000,0.000000000,0.800000000,0.000000000
12.400000000,0.068409250,-0.800000000,1.200000000,0.000000000,0.800000000,0.000000000
12.420000000,0.070068325,-0.800000000,1.200000000,0.000000000,0.800000000,0.000000000
12.440000000,0.071728159,-0.800000000,1.200000000,0.000000000,0.800000000,0.000000000
12.460000000,0.073388677,-0.800000000,1.200000000,0.000000000,0.800000000,0.000000000
12.480000000,0.075049809,-0.800000000,1.200000000,0.000000000,0.800000000,0.000000000
12.500000000,0.076711495,-0.800000000,1.200000000,0.000000000,0.800000000,0.000000000
12.520000000,0.078373679,-0.800000000,1.200000000,0.000000000,0.800000000,0.000000000
12.540000000,0.080036311,-0.800000000,1.200000000,0.000000000,0.800000000,0.000000000
12.560000000,0.081699346,-0.800000000,1.200000000,0.000000000,0.800000000,0.000000000
12.580000000,0.083362745,-0.800000000,1.200000000,0.000000000,0.800000000,0.000000000
12.600000000,0.085026471,-0.800000000,1.200000000,0.000000000,0.800000000,0.000000000
12.620000000,0.086690490,-0.800000000,1.200000000,0.000000000,0.800000000,0.000000000
12.640000000,0.088354774,-0.800000000,1.200000000,0.000000000,0.800000000,0.000000000
12.660000000,0.090019297,-0.800000000,1.200000000,0.000000000,0.800000000,0.000000000
12.679000000,0.091684034,-0.800000000,1.200000000,0.000000000,0.800000000,0.000000000
12.700000000,0.093340631,-0.800000000,1.200000000,0.000000000,0.800000000,0.000000000
12.720000000,0.095006568,-0.800000000,1.200000000,0.000000000,0.800000000,0.000000000
12.740000000,0.096672577,-0.800000000,1.200000000,0.000000000,0.800000000,0.000000000
12.760000000,0.098338653,-0.800000000,1.200000000,0.000000000,0.800000000,0.000000000
12.780000000,0.100004788,-0.800000000,1.200000000,0.000000000,0.800000000,0.000000000
12.800000000,0.101670976,-0.800000000,1.200000000,0.000000000,0.800000000,0.000000000
12.820000000,0.103337211,-0.800000000,1.200000000,0.000000000,0.800000000,0.000000000
12.840000000,0.105003490,-0.800000000,1.200000000,0.000000000,0.800000000,0.000000000
12.860000000,0.106669808,-0.800000000,1.200000000,0.000000000,0.800000000,0.000000000
12.880000000,0.108336160,-0.800000000,1.200000000,0.000000000,0.800000000,0.000000000
12.897000000,0.110002544,-0.800000000,1.200000000,0.000000000,0.800000000,0.000000000
12.920000000,0.111643957,-0.800000000,1.200000000,0.000000000,0.800000000,0.000000000
12.940000000,0.113312894,-0.800000000,1.200000000,0.000000000,0.800000000,0.000000000
12.960000000,0.114981605,-0.800000000,1.200000000,0.000000000,0.800000000,0.000000000
12.980000000,0.116650111,-0.800000000,1.200000000,0.000000000,0.800000000,0.000000000
13.000000000,0.118318433,-0.800000000,1.200000000,0.000000000,0.800000000,0.000000000
13.020000000,0.119986590,-0.800000000,1.200000000,0.000000000,0.800000000,0.000000000
13.040000000,0.121654598,-0.800000000,1.200000000,0.000000000,0.800000000,0.000000000
13.060000000,0.123322471,-0.800000000,1.200000000,0.000000000,0.800000000,0.000000000
13.080000000,0.124990224,-0.800000000,1.200000000,0.000000000,0.800000000,0.000000000
13.100000000,0.126657868,-0.800000000,1.200000000,0.000000000,0.800000000,0.000000000
13.120000000,0.128325415,-0.800000000,1.200000000,0.000000000,0.800000000,0.000000000
13.140000000,0.129992873,-0.800000000,1.200000000,0.000000000,0.800000000,0.000000000
13.160000000,0.131660253,-0.800000000,1.200000000,0.000000000,0.800000000,0.000000000
13.180000000,0.133327561,-0.800000000,1.200000000,0.000000000,0.800000000,0.000000000
13.200000000,0.134994805,-0.800000000,1.200000000,0.000000000,0.800000000,0.000000000
13.220000000,0.136661991,-0.800000000,1.200000000,0.000000000,0.800000000,0.000000000
13.240000000,0.138329125,-0.800000000,1.200000000,0.000000000,0.800000000,0.000000000
13.260000000,0.139996213,-0.800000000,1.200000000,0.000000000,0.800000000,0.000000000
13.280000000,0.141663258,-0.800000000,1.200000000,0.000000000,0.800000000,0.000000000
13.300000000,0.143330266,-0.800000000,1.200000000,0.000000000,0.800000000,0.000000000
13.320000000,0.144997239,-0.800000000,1.200000000,0.000000000,0.800000000,0.000000000
13.340000000,0.146664182,-0.800000000,1.200000000,0.000000000,0.800000000,0.000000000
13.360000000,0.148331097,-0.800000000,1.200000000,0.000000000,0.800000000,0.000000000
13.380000000,0.149997987,-0.800000000,1.200000000,0.000000000,0.800000000,0.000000000
13.400000000,0.151664855,-0.800000000,1.200000000,0.000000000,0.800000000,0.000000000
13.420000000,0.153331703,-0.800000000,1.200000000,0.000000000,0.800000000,0.000000000
13.440000000,0.154998533,-0.800000000,1.200000000,0.000000000,0.800000000,0.000000000
13.460000000,0.156665346,-0.800000000,1.200000000,0.000000000,0.800000000,0.000000000
13.480000000,0.158332145,-0.800000000,1.200000000,0.000000000,0.800000000,0.000000000
13.500000000,0.159998930,-0.800000000,1.200000000,0.000000000,0.800000000,0.000000000
13.520000000,0.161665704,-0.800000000,1.200000000,0.000000000,0.800000000,0.000000000
13.540000000,0.163332467,-0.800000000,1.200000000,0.000000000,0.800000000,0.000000000
13.560000000,0.164999220,-0.800000000,1.200000000,0.000000000,0.800000000,0.000000000
13.580000000,0.166665965,-0.800000000,1.200000000,0.000000000,0.800000000,0.000000000
13.600000000,0.168332702,-0.800000000,1.200000000,0.000000000,0.800000000,0.000000000
13.620000000,0.169999432,-0.800000000,1.200000000,0.000000000,0.800000000,0.000000000
13.640000000,0.171666155,-0.800000000,1.200000000,0.000000000,0.800000000,0.000000000
13.660000000,0.173332873,-0.800000000,1.200000000,0.000000000,0.800000000,0.000000000
13.680000000,0.174999586,-0.800000000,1.200000000,0.000000000,0.800000000,0.000000000
13.700000000,0.176666294,-0.800000000,1.200000000,0.000000000,0.800000000,0.000000000
13.720000000,0.178332998,-0.800000000,1.200000000,0.000000000,0.800000000,0.000000000
13.740000000,0.179999698,-0.800000000,1.200000000,0.000000000,0.800000000,0.000000000
13.760000000,0.181666395,-0.800000000,1.200000000,0.000000000,0.800000000,0.000000000
13.780000000,0.183333089,-0.800000000,1.200000000,0.000000000,0.800000000,0.000000000
13.800000000,0.184999780,-0.800000000,1.200000000,0.000000000,0.800000000,0.000000000
13.820000000,0.186666468,-0.800000000,1.200000000,0.000000000,0.800000000,0.000000000
13.840000000,0.188333155,-0.800000000,1.200000000,0.000000000,0.800000000,0.000000000
13.860000000,0.189999839,-0.800000000,1.200000000,0.000000000,0.800000000,0.000000000
13.880000000,0.191666522,-0.800000000,1.200000000,0.000000000,0.800000000,0.000000000
13.900000000,0.193333203,-0.800000000,1.200000000,0.000000000,0.800000000,0.000000000
13.920000000,0.194999883,-0.800000000,1.200000000,0.000000000,0.800000000,0.000000000
13.940000000,0.196666561,-0.800000000,1.200000000,0.000000000,0.800000000,0.000000000
13.960000000,0.198333239,-0.800000000,1.200000000,0.000000000,0.800000000,0.000000000
13.980000000,0.199999915,-0.800000000,1.200000000,0.000000000,0.800000000,0.000000000
14.000000000,0.201666590,-0.800000000,1.200000000,0.000000000,0.800000000,0.000000000
14.020000000,0.203333264,-0.800000000,1.200000000,0.000000000,0.800000000,0.000000000
14.040000000,0.204999938,-0.800000000,1.200000000,0.000000000,0.800000000,0.000000000
14.060000000,0.206666611,-0.800000000,1.200000000,0.000000000,0.800000000,0.000000000
14.080000000,0.208333283,-0.800000000,1.200000000,0.000000000,0.800000000,0.000000000
14.100000000,0.209999955,-0.800000000,1.200000000,0.000000000,0.800000000,0.000000000
14.120000000,0.211666626,-0.800000000,1.200000000,0.000000000,0.800000000,0.000000000
14.140000000,0.213333297,-0.800000000,1.200000000,0.000000000,0.800000000,0.000000000
14.160000000,0.214999967,-0.800000000,1.200000000,0.000000000,0.800000000,0.000000000
14.180000000,0.216666637,-0.800000000,1.200000000,0.000000000,0.800000000,0.000000000
14.199000000,0.218333307,-0.800000000,1.200000000,0.000000000,0.800000000,0.000000000
14.220000000,0.219991643,-0.800000000,1.200000000,0.000000000,0.800000000,0.000000000
14.240000000,0.221659145,-0.800000000,1.200000000,0.000000000,0.800000000,0.000000000
14.260000000,0.223326564,-0.800000000,1.200000000,0.000000000,0.800000000,0.000000000
14.280000000,0.224993907,-0.800000000,1.200000000,0.000000000,0.800000000,0.000000000
14.300000000,0.226661183,-0.800000000,1.200000000,0.000000000,0.800000000,0.000000000
14.320000000,0.228328398,-0.800000000,1.200000000,0.000000000,0.800000000,0.000000000
14.340000000,0.229995559,-0.800000000,1.200000000,0.000000000,0.800000000,0.000000000
14.360000000,0.231662669,-0.800000000,1.200000000,0.000000000,0.800000000,0.000000000
14.380000000,0.233329736,-0.800000000,1.200000000,0.000000000,0.800000000,0.000000000
14.399000000,0.234996762,-0.800000000,1.200000000,0.000000000,0.800000000,0.000000000
14.420000000,0.236655419,-0.800000000,1.200000000,0.000000000,0.800000000,0.000000000
14.440000000,0.238323211,-0.800000000,1.200000000,0.000000000,0.800000000,0.000000000
14.460000000,0.239990890,-0.800000000,1.200000000,0.000000000,0.800000000,0.000000000
14.480000000,0.241658467,-0.800000000,1.200000000,0.000000000,0.800000000,0.000000000
14.500000000,0.243325954,-0.800000000,1.200000000,0.000000000,0.800000000,0.000000000
14.520000000,0.244993359,-0.800000000,1.200000000,0.000000000,0.800000000,0.000000000
14.539000000,0.246660689,-0.800000000,1.200000000,0.000000000,0.800000000,0.000000000
14.560000000,0.248319620,-0.800000000,1.200000000,0.000000000,0.800000000,0.000000000
14.580000000,0.249987658,-0.800000000,1.200000000,0.000000000,0.800000000,0.000000000
14.600000000,0.251655559,-0.800000000,1.200000000,0.000000000,0.800000000,0.000000000
14.620000000,0.253323337,-0.800000000,1.200000000,0.000000000,0.800000000,0.000000000
14.640000000,0.254991003,-0.800000000,1.200000000,0.000000000,0.800000000,0.000000000
14.660000000,0.256658569,-0.800000000,1.200000000,0.000000000,0.800000000,0.000000000
14.680000000,0.258326046,-0.800000000,1.200000000,0.000000000,0.800000000,0.000000000
14.700000000,0.259993441,-0.800000000,1.200000000,0.000000000,0.800000000,0.000000000
14.720000000,0.261660764,-0.800000000,1.200000000,0.000000000,0.800000000,0.000000000
14.740000000,0.263328021,-0.800000000,1.200000000,0.000000000,0.800000000,0.000000000
14.760000000,0.264995219,-0.800000000,1.200000000,0.000000000,0.800000000,0.000000000
14.780000000,0.266662363,-0.800000000,1.200000000,0.000000000,0.800000000,0.000000000
14.800000000,0.268329460,-0.800000000,1.200000000,0.000000000,0.800000000,0.000000000
14.820000000,0.269996514,-0.800000000,1.200000000,0.000000000,0.800000000,0.000000000
14.840000000,0.271663530,-0.800000000,1.200000000,0.000000000,0.800000000,0.000000000
14.860000000,0.273330510,-0.800000000,1.200000000,0.000000000,0.800000000,0.000000000
14.880000000,0.274997459,-0.800000000,1.200000000,0.000000000,0.800000000,0.000000000
14.900000000,0.276664380,-0.800000000,1.200000000,0.000000000,0.800000000,0.000000000
14.920000000,0.278331275,-0.800000000,1.200000000,0.000000000,0.800000000,0.000000000
14.940000000,0.279998148,-0.800000000,1.200000000,0.000000000,0.800000000,0.000000000
14.960000000,0.281664999,-0.800000000,1.200000000,0.000000000,0.800000000,0.000000000
14.980000000,0.283331833,-0.800000000,1.200000000,0.000000000,0.800000000,0.000000000
15.000000000,0.284998650,-0.800000000,1.200000000,0.000000000,0.800000000,0.000000000
15.020000000,0.286665451,-0.800000000,1.200000000,0.000000000,0.800000000,0.000000000
15.040000000,0.288332240,-0.800000000,1.200000000,0.000000000,0.800000000,0.000000000
15.060000000,0.289999016,-0.800000000,1.200000000,0.000000000,0.800000000,0.000000000
15.080000000,0.291665781,-0.800000000,1.200000000,0.000000000,0.800000000,0.000000000
15.100000000,0.293332536,-0.800000000,1.200000000,0.000000000,0.800000000,0.000000000
15.120000000,0.294999282,-0.800000000,1.200000000,0.000000000,0.800000000,0.000000000
15.139000000,0.296666021,-0.800000000,1.200000000,0.000000000,0.800000000,0.000000000
15.160000000,0.298324419,-0.800000000,1.200000000,0.000000000,0.800000000,0.000000000
15.180000000,0.299991977,-0.800000000,1.200000000,0.000000000,0.800000000,0.000000000
15.200000000,0.301659446,-0.800000000,1.200000000,0.000000000,0.800000000,0.000000000
15.220000000,0.303326835,-0.800000000,1.200000000,0.000000000,0.800000000,0.000000000
15.240000000,0.304994151,-0.800000000,1.200000000,0.000000000,0.800000000,0.000000000
15.260000000,0.306661403,-0.800000000,1.200000000,0.000000000,0.800000000,0.000000000
15.280000000,0.308328596,-0.800000000,1.200000000,0.000000000,0.800000000,0.000000000
15.300000000,0.309995736,-0.800000000,1.200000000,0.000000000,0.800000000,0.000000000
15.320000000,0.311662829,-0.800000000,1.200000000,0.000000000,0.800000000,0.000000000
15.339000000,0.313329880,-0.800000000,1.200000000,0.000000000,0.800000000,0.000000000
15.360000000,0.314988558,-0.800000000,1.200000000,0.000000000,0.800000000,0.000000000
15.380000000,0.316656369,-0.800000000,1.200000000,0.000000000,0.800000000,0.000000000
15.400000000,0.318324066,-0.800000000,1.200000000,0.000000000,0.800000000,0.000000000
15.420000000,0.319991659,-0.800000000,1.200000000,0.000000000,0.800000000,0.000000000
15.440000000,0.321659160,-0.800000000,1.200000000,0.000000000,0.800000000,0.000000000
15.460000000,0.323326577,-0.800000000,1.200000000,0.000000000,0.800000000,0.000000000
15.480000000,0.324993919,-0.800000000,1.200000000,0.000000000,0.800000000,0.000000000
15.500000000,0.326661194,-0.800000000,1.200000000,0.000000000,0.800000000,0.000000000
15.520000000,0.328328408,-0.800000000,1.200000000,0.000000000,0.800000000,0.000000000
15.540000000,0.329995567,-0.800000000,1.200000000,0.000000000,0.800000000,0.000000000
15.560000000,0.331662677,-0.800000000,1.200000000,0.000000000,0.800000000,0.000000000
15.580000000,0.333329743,-0.800000000,1.200000000,0.000000000,0.800000000,0.000000000
15.600000000,0.334996769,-0.800000000,1.200000000,0.000000000,0.800000000,0.000000000
15.620000000,0.336663758,-0.800000000,1.200000000,0.000000000,0.800000000,0.000000000
15.640000000,0.338330716,-0.800000000,1.200000000,0.000000000,0.800000000,0.000000000
15.658000000,0.339997644,-0.800000000,1.200000000,0.000000000,0.800000000,0.000000000
15.680000000,0.341647880,-0.800000000,1.200000000,0.000000000,0.800000000,0.000000000
15.700000000,0.343316425,-0.800000000,1.200000000,0.000000000,0.800000000,0.000000000
15.720000000,0.344984783,-0.800000000,1.200000000,0.000000000,0.800000000,0.000000000
15.740000000,0.346652971,-0.800000000,1.200000000,0.000000000,0.800000000,0.000000000
15.760000000,0.348321007,-0.800000000,1.200000000,0.000000000,0.800000000,0.000000000
15.780000000,0.349988907,-0.800000000,1.200000000,0.000000000,0.800000000,0.000000000
15.800000000,0.351656683,-0.800000000,1.200000000,0.000000000,0.800000000,0.000000000
15.820000000,0.353324348,-0.800000000,1.200000000,0.000000000,0.800000000,0.000000000
15.840000000,0.354991913,-0.800000000,1.200000000,0.000000000,0.800000000,0.000000000
15.860000000,0.356659388,-0.800000000,1.200000000,0.000000000,0.800000000,0.000000000
15.880000000,0.358326783,-0.800000000,1.200000000,0.000000000,0.800000000,0.000000000
15.899000000,0.359994104,-0.800000000,1.200000000,0.000000000,0.800000000,0.000000000
15.920000000,0.361653027,-0.800000000,1.200000000,0.000000000,0.800000000,0.000000000
15.939000000,0.363321058,-0.800000000,1.200000000,0.000000000,0.800000000,0.000000000
15.960000000,0.364980619,-0.800000000,1.200000000,0.000000000,0.800000000,0.000000000
15.980000000,0.366649224,-0.800000000,1.200000000,0.000000000,0.800000000,0.000000000
16.000000000,0.368317635,-0.800000000,1.200000000,0.000000000,0.800000000,0.000000000
16.020000000,0.369985871,-0.800000000,1.200000000,0.000000000,0.800000000,0.000000000
16.040000000,0.371653951,-0.800000000,1.200000000,0.000000000,0.800000000,0.000000000
16.060000000,0.373321889,-0.800000000,1.200000000,0.000000000,0.800000000,0.000000000
16.080000000,0.374989700,-0.800000000,1.200000000,0.000000000,0.800000000,0.000000000
16.100000000,0.376657397,-0.800000000,1.200000000,0.000000000,0.800000000,0.000000000
16.120000000,0.378324990,-0.800000000,1.200000000,0.000000000,0.800000000,0.000000000
16.140000000,0.379992491,-0.800000000,1.200000000,0.000000000,0.800000000,0.000000000
16.160000000,0.381659909,-0.800000000,1.200000000,0.000000000,0.800000000,0.000000000
16.180000000,0.383327251,-0.800000000,1.200000000,0.000000000,0.800000000,0.000000000
16.200000000,0.384994526,-0.800000000,1.200000000,0.000000000,0.800000000,0.000000000
16.220000000,0.386661740,-0.800000000,1.200000000,0.000000000,0.800000000,0.000000000
16.240000000,0.388328900,-0.800000000,1.200000000,0.000000000,0.800000000,0.000000000
16.260000000,0.389996010,-0.800000000,1.200000000,0.000000000,0.800000000,0.000000000
16.280000000,0.391663075,-0.800000000,1.200000000,0.000000000,0.800000000,0.000000000
16.300000000,0.393330101,-0.800000000,1.200000000,0.000000000,0.800000000,0.000000000
16.320000000,0.394997091,-0.800000000,1.200000000,0.000000000,0.800000000,0.000000000
16.340000000,0.396664049,-0.800000000,1.200000000,0.000000000,0.800000000,0.000000000
16.360000000,0.398330977,-0.800000000,1.200000000,0.000000000,0.800000000,0.000000000
16.380000000,0.399997879,-0.800000000,1.200000000,0.000000000,0.800000000,0.000000000
16.400000000,0.401664758,-0.800000000,1.200000000,0.000000000,0.800000000,0.000000000
16.419000000,0.403331616,-0.800000000,1.200000000,0.000000000,0.800000000,0.000000000
16.440000000,0.404990121,-0.800000000,1.200000000,0.000000000,0.800000000,0.000000000
16.460000000,0.406657775,-0.800000000,1.200000000,0.000000000,0.800000000,0.000000000
16.480000000,0.408325331,-0.800000000,1.200000000,0.000000000,0.800000000,0.000000000
16.500000000,0.409992798,-0.800000000,1.200000000,0.000000000,0.800000000,0.000000000
16.520000000,0.411660185,-0.800000000,1.200000000,0.000000000,0.800000000,0.000000000
16.540000000,0.413327500,-0.800000000,1.200000000,0.000000000,0.800000000,0.000000000
16.560000000,0.414994750,-0.800000000,1.200000000,0.000000000,0.800000000,0.000000000
16.580000000,0.416661941,-0.800000000,1.200000000,0.000000000,0.800000000,0.000000000
16.600000000,0.418329081,-0.800000000,1.200000000,0.000000000,0.800000000,0.000000000
16.620000000,0.419996173,-0.800000000,1.200000000,0.000000000,0.800000000,0.000000000
16.640000000,0.421663222,-0.800000000,1.200000000,0.000000000,0.800000000,0.000000000
16.660000000,0.423330233,-0.800000000,1.200000000,0.000000000,0.800000000,0.000000000
16.680000000,0.424997210,-0.800000000,1.200000000,0.000000000,0.800000000,0.000000000
16.700000000,0.426664155,-0.800000000,1.200000000,0.000000000,0.800000000,0.000000000
16.720000000,0.428331073,-0.800000000,1.200000000,0.000000000,0.800000000,0.000000000
16.740000000,0.429997966,-0.800000000,1.200000000,0.000000000,0.800000000,0.000000000
16.760000000,0.431664836,-0.800000000,1.200000000,0.000000000,0.800000000,0.000000000
16.780000000,0.433331686,-0.800000000,1.200000000,0.000000000,0.800000000,0.000000000
16.800000000,0.434998517,-0.800000000,1.200000000,0.000000000,0.800000000,0.000000000
16.820000000,0.436665332,-0.800000000,1.200000000,0.000000000,0.800000000,0.000000000
16.840000000,0.438332132,-0.800000000,1.200000000,0.000000000,0.800000000,0.000000000
16.860000000,0.439998919,-0.800000000,1.200000000,0.000000000,0.800000000,0.000000000
16.880000000,0.441665694,-0.800000000,1.200000000,0.000000000,0.800000000,0.000000000
16.900000000,0.443332458,-0.800000000,1.200000000,0.000000000,0.800000000,0.000000000
16.920000000,0.444999212,-0.800000000,1.200000000,0.000000000,0.800000000,0.000000000
16.940000000,0.446665957,-0.800000000,1.200000000,0.000000000,0.800000000,0.000000000
16.960000000,0.448332695,-0.800000000,1.200000000,0.000000000,0.800000000,0.000000000
16.980000000,0.449999426,-0.800000000,1.200000000,0.000000000,0.800000000,0.000000000
17.000000000,0.451666150,-0.800000000,1.200000000,0.000000000,0.800000000,0.000000000
17.020000000,0.453332868,-0.800000000,1.200000000,0.000000000,0.800000000,0.000000000
17.040000000,0.454999581,-0.800000000,1.200000000,0.000000000,0.800000000,0.000000000
17.060000000,0.456666290,-0.800000000,1.200000000,0.000000000,0.800000000,0.000000000
17.080000000,0.458332994,-0.800000000,1.200000000,0.000000000,0.800000000,0.000000000
17.100000000,0.459999695,-0.800000000,1.200000000,0.000000000,0.800000000,0.000000000
17.120000000,0.461666392,-0.800000000,1.200000000,0.000000000,0.800000000,0.000000000
17.140000000,0.463333086,-0.800000000,1.200000000,0.000000000,0.800000000,0.000000000
17.160000000,0.464999777,-0.800000000,1.200000000,0.000000000,0.800000000,0.000000000
17.180000000,0.466666466,-0.800000000,1.200000000,0.000000000,0.800000000,0.000000000
17.200000000,0.468333153,-0.800000000,1.200000000,0.000000000,0.800000000,0.000000000
17.220000000,0.469999838,-0.800000000,1.200000000,0.000000000,0.800000000,0.000000000
17.240000000,0.471666521,-0.800000000,1.200000000,0.000000000,0.800000000,0.000000000
17.260000000,0.473333202,-0.800000000,1.200000000,0.000000000,0.800000000,0.000000000
17.280000000,0.474999882,-0.800000000,1.200000000,0.000000000,0.800000000,0.000000000
17.300000000,0.476666560,-0.800000000,1.200000000,0.000000000,0.800000000,0.000000000
17.320000000,0.478333238,-0.800000000,1.200000000,0.000000000,0.800000000,0.000000000
17.339000000,0.479999914,-0.800000000,1.200000000,0.000000000,0.800000000,0.000000000
17.360000000,0.481658256,-0.800000000,1.200000000,0.000000000,0.800000000,0.000000000
17.380000000,0.483325763,-0.800000000,1.200000000,0.000000000,0.800000000,0.000000000
17.400000000,0.484993187,-0.800000000,1.200000000,0.000000000,0.800000000,0.000000000
17.420000000,0.486493868,-0.800000000,1.200000000,0.000000000,0.800000000,0.000000000
17.433000000,0.487844482,-0.800000000,1.200000000,0.000000000,0.800000000,0.000000000
17.460000000,0.489060033,-0.800000000,1.200000000,0.000000000,0.800000000,0.000000000
17.480000000,0.490154030,-0.800000000,1.200000000,0.000000000,0.800000000,0.000000000
17.500000000,0.491138627,-0.800000000,1.200000000,0.000000000,0.800000000,0.000000000
17.520000000,0.492024764,-0.800000000,1.200000000,0.000000000,0.800000000,0.000000000
17.539000000,0.492027043,-0.800142857,1.200071429,0.000000000,0.799834286,0.000000000
17.560000000,0.492031258,-0.800407143,1.200203571,0.000000000,0.799527714,0.000000000
17.580000000,0.492037445,-0.800795000,1.200397500,0.000000000,0.799077800,0.000000000
17.598000000,0.492045291,-0.801286929,1.200643464,0.000000000,0.798507163,0.000000000
17.620000000,0.492054404,-0.801858236,1.200929118,0.000000000,0.797844447,0.000000000
17.637000000,0.492065112,-0.802529555,1.201264778,0.000000000,0.797065716,0.000000000
17.660000000,0.492076686,-0.803255171,1.201627585,0.000000000,0.796224002,0.000000000
17.680000000,0.492089723,-0.804072511,1.202036256,0.000000000,0.795275887,0.000000000
17.700000000,0.492103735,-0.804950974,1.202475487,0.000000000,0.794256870,0.000000000
17.720000000,0.492118624,-0.805884448,1.202942224,0.000000000,0.793174040,0.000000000
17.740000000,0.492134303,-0.806867432,1.203433716,0.000000000,0.792033779,0.000000000
17.760000000,0.492150693,-0.807894974,1.203947487,0.000000000,0.790841830,0.000000000
17.780000000,0.492167722,-0.808962620,1.204481310,0.000000000,0.789603361,0.000000000
17.800000000,0.492185328,-0.810066358,1.205033179,0.000000000,0.788323025,0.000000000
17.820000000,0.492203451,-0.811202579,1.205601290,0.000000000,0.787005008,0.000000000
17.840000000,0.492222040,-0.812368036,1.206184018,0.000000000,0.785653079,0.000000000
17.860000000,0.492241050,-0.813559803,1.206779902,0.000000000,0.784270628,0.000000000
17.880000000,0.492260437,-0.814775252,1.207387626,0.000000000,0.782860708,0.000000000
17.900000000,0.492280164,-0.816012012,1.208006006,0.000000000,0.781426066,0.000000000
17.920000000,0.492300196,-0.817267954,1.208633977,0.000000000,0.779969174,0.000000000
17.940000000,0.492320505,-0.818541158,1.209270579,0.000000000,0.778492256,0.000000000
17.960000000,0.492341061,-0.819829900,1.209914950,0.000000000,0.776997316,0.000000000
17.980000000,0.492361840,-0.821132624,1.210566312,0.000000000,0.775486156,0.000000000
18.000000000,0.492382819,-0.822447933,1.211223967,0.000000000,0.773960398,0.000000000
18.020000000,0.492403980,-0.823774568,1.211887284,0.000000000,0.772421501,0.000000000
18.040000000,0.492425303,-0.825111397,1.212555699,0.000000000,0.770870779,0.000000000
18.060000000,0.492446772,-0.826457400,1.213228700,0.000000000,0.769309416,0.000000000
18.080000000,0.492468373,-0.827811660,1.213905830,0.000000000,0.767738474,0.000000000
18.100000000,0.492490093,-0.829173351,1.214586676,0.000000000,0.766158912,0.000000000
18.120000000,0.492511919,-0.830541731,1.215270865,0.000000000,0.764571593,0.000000000
18.140000000,0.492533842,-0.831916129,1.215958065,0.000000000,0.762977290,0.000000000
18.160000000,0.492555850,-0.833295945,1.216647972,0.000000000,0.761376704,0.000000000
18.180000000,0.492577937,-0.834680636,1.217340318,0.000000000,0.759770462,0.000000000
18.200000000,0.492600093,-0.836069715,1.218034858,0.000000000,0.758159130,0.000000000
18.220000000,0.492622313,-0.837462744,1.218731372,0.000000000,0.756543217,0.000000000
18.240000000,0.492644589,-0.838859326,1.219429663,0.000000000,0.754923181,0.000000000
18.260000000,0.492666916,-0.840259108,1.220129554,0.000000000,0.753299435,0.000000000
18.280000000,0.492689289,-0.841661769,1.220830884,0.000000000,0.751672348,0.000000000
18.300000000,0.492711704,-0.843067020,1.221533510,0.000000000,0.750042256,0.000000000
18.320000000,0.492734155,-0.844474604,1.222237302,0.000000000,0.748409459,0.000000000
18.340000000,0.492756640,-0.845884286,1.222942143,0.000000000,0.746774228,0.000000000
18.360000000,0.492779156,-0.847295858,1.223647929,0.000000000,0.745136805,0.000000000
18.380000000,0.492801698,-0.848709129,1.224354565,0.000000000,0.743497410,0.000000000
18.400000000,0.492824265,-0.850123931,1.225061965,0.000000000,0.741856241,0.000000000
18.420000000,0.492846853,-0.851540109,1.225770055,0.000000000,0.740213474,0.000000000
18.440000000,0.492869462,-0.852957527,1.226478763,0.000000000,0.738569269,0.000000000
18.460000000,0.492892088,-0.854376060,1.227188030,0.000000000,0.736923771,0.000000000
18.480000000,0.492914730,-0.855795597,1.227897798,0.000000000,0.735277108,0.000000000
18.500000000,0.492937387,-0.857216037,1.228608018,0.000000000,0.733629397,0.000000000
18.520000000,0.492960057,-0.858637290,1.229318645,0.000000000,0.731980743,0.000000000
18.540000000,0.492982738,-0.860059276,1.230029638,0.000000000,0.730331240,0.000000000
18.560000000,0.493005430,-0.861481919,1.230740960,0.000000000,0.728680973,0.000000000
18.580000000,0.493028131,-0.862905156,1.231452578,0.000000000,0.727030019,0.000000000
18.600000000,0.493050841,-0.864328926,1.232164463,0.000000000,0.725378446,0.000000000
18.620000000,0.493073559,-0.865753176,1.232876588,0.000000000,0.723726315,0.000000000
18.640000000,0.493096283,-0.867177859,1.233588929,0.000000000,0.722073684,0.000000000
18.660000000,0.493119013,-0.868602930,1.234301465,0.000000000,0.720420601,0.000000000
18.680000000,0.493141750,-0.870028351,1.235014176,0.000000000,0.718767112,0.000000000
18.700000000,0.493164491,-0.871454088,1.235727044,0.000000000,0.717113258,0.000000000
18.720000000,0.493187236,-0.872880107,1.236440054,0.000000000,0.715459075,0.000000000
18.740000000,0.493209986,-0.874306382,1.237153191,0.000000000,0.713804596,0.000000000
18.759000000,0.493232740,-0.875732887,1.237866444,0.000000000,0.712149851,0.000000000
18.780000000,0.493255382,-0.877152455,1.238576228,0.000000000,0.710503152,0.000000000
18.800000000,0.493278153,-0.878580067,1.239290034,0.000000000,0.708847122,0.000000000
18.820000000,0.493300926,-0.880007775,1.240003887,0.000000000,0.707190981,0.000000000
18.840000000,0.493323700,-0.881435569,1.240717784,0.000000000,0.705534740,0.000000000
18.860000000,0.493346475,-0.882863440,1.241431720,0.000000000,0.703878409,0.000000000
18.880000000,0.493369252,-0.884291382,1.242145691,0.000000000,0.702221997,0.000000000
18.900000000,0.493392029,-0.885719387,1.242859693,0.000000000,0.700565512,0.000000000
18.920000000,0.493414807,-0.887147448,1.243573724,0.000000000,0.698908960,0.000000000
18.940000000,0.493437586,-0.888575560,1.244287780,0.000000000,0.697252350,0.000000000
18.960000000,0.493460366,-0.890003719,1.245001859,0.000000000,0.695595686,0.000000000
18.980000000,0.493483147,-0.891431918,1.245715959,0.000000000,0.693938975,0.000000000
19.000000000,0.493505928,-0.892860155,1.246430077,0.000000000,0.692282220,0.000000000
19.020000000,0.493528709,-0.894288425,1.247144213,0.000000000,0.690625427,0.000000000
19.040000000,0.493551491,-0.895716725,1.247858363,0.000000000,0.688968598,0.000000000
19.060000000,0.493574274,-0.897145053,1.248572526,0.000000000,0.687311739,0.000000000
19.080000000,0.493597057,-0.898573405,1.249286702,0.000000000,0.685654850,0.000000000
19.100000000,0.493619840,-0.900001779,1.250000889,0.000000000,0.683997937,0.000000000
19.120000000,0.493642623,-0.901430172,1.250715086,0.000000000,0.682341000,0.000000000
19.140000000,0.493665407,-0.902858584,1.251429292,0.000000000,0.680684043,0.000000000
19.160000000,0.493688191,-0.904287011,1.252143505,0.000000000,0.679027067,0.000000000
19.180000000,0.493710976,-0.905715453,1.252857726,0.000000000,0.677370075,0.000000000
19.200000000,0.493733760,-0.907143907,1.253571954,0.000000000,0.675713067,0.000000000
19.220000000,0.493756545,-0.908572374,1.254286187,0.000000000,0.674056046,0.000000000
19.240000000,0.493779330,-0.910000851,1.255000425,0.000000000,0.672399013,0.000000000
19.260000000,0.493802115,-0.911429337,1.255714669,0.000000000,0.670741969,0.000000000
19.280000000,0.493824900,-0.912857832,1.256428916,0.000000000,0.669084915,0.000000000
19.300000000,0.493847685,-0.914286334,1.257143167,0.000000000,0.667427852,0.000000000
19.320000000,0.493870471,-0.915714844,1.257857422,0.000000000,0.665770781,0.000000000
19.340000000,0.493893256,-0.917143359,1.258571680,0.000000000,0.664113703,0.000000000
19.360000000,0.493916042,-0.918571881,1.259285940,0.000000000,0.662456618,0.000000000
19.380000000,0.493938827,-0.920000407,1.260000203,0.000000000,0.660799528,0.000000000
19.400000000,0.493961613,-0.921428938,1.260714469,0.000000000,0.659142432,0.000000000
19.418000000,0.493984399,-0.922857472,1.261428736,0.000000000,0.657485332,0.000000000
19.440000000,0.494006957,-0.924271725,1.262135863,0.000000000,0.655844799,0.000000000
19.460000000,0.494029766,-0.925701696,1.262850848,0.000000000,0.654186033,0.000000000
19.480000000,0.494052572,-0.927131526,1.263565763,0.000000000,0.652527430,0.000000000
19.500000000,0.494075377,-0.928561231,1.264280615,0.000000000,0.650868973,0.000000000
19.520000000,0.494098179,-0.929990822,1.264995411,0.000000000,0.649210647,0.000000000
19.540000000,0.494120980,-0.931420311,1.265710156,0.000000000,0.647552439,0.000000000
19.560000000,0.494143780,-0.932849708,1.266424854,0.000000000,0.645894338,0.000000000
19.580000000,0.494166578,-0.934279023,1.267139512,0.000000000,0.644236333,0.000000000
19.600000000,0.494189375,-0.935708264,1.267854132,0.000000000,0.642578414,0.000000000
19.620000000,0.494212171,-0.937137437,1.268568719,0.000000000,0.640920573,0.000000000
19.640000000,0.494234966,-0.938566551,1.269283275,0.000000000,0.639262801,0.000000000
19.660000000,0.494257760,-0.939995610,1.269997805,0.000000000,0.637605092,0.000000000
19.680000000,0.494280554,-0.941424620,1.270712310,0.000000000,0.635947440,0.000000000
19.700000000,0.494303346,-0.942853587,1.271426794,0.000000000,0.634289839,0.000000000
19.720000000,0.494326138,-0.944282514,1.272141257,0.000000000,0.632632284,0.000000000
19.740000000,0.494348930,-0.945711405,1.272855703,0.000000000,0.630974770,0.000000000
19.760000000,0.494371721,-0.947140265,1.273570132,0.000000000,0.629317293,0.000000000
19.780000000,0.494394511,-0.948569096,1.274284548,0.000000000,0.627659849,0.000000000
19.800000000,0.494417302,-0.949997900,1.274998950,0.000000000,0.626002436,0.000000000
19.820000000,0.494440091,-0.951426682,1.275713341,0.000000000,0.624345049,0.000000000
19.840000000,0.494462881,-0.952855442,1.276427721,0.000000000,0.622687687,0.000000000
19.860000000,0.494485670,-0.954284184,1.277142092,0.000000000,0.621030347,0.000000000
19.880000000,0.494508459,-0.955712908,1.277856454,0.000000000,0.619373027,0.000000000
19.900000000,0.494531247,-0.957141617,1.278570809,0.000000000,0.617715724,0.000000000
19.920000000,0.494554036,-0.958570313,1.279285156,0.000000000,0.616058437,0.000000000
19.940000000,0.494576824,-0.959998996,1.279999498,0.000000000,0.614401165,0.000000000
19.960000000,0.494599612,-0.961427668,1.280713834,0.000000000,0.612743906,0.000000000
19.980000000,0.494622400,-0.962856329,1.281428165,0.000000000,0.611086658,0.000000000
20.000000000,0.494645187,-0.964284982,1.282142491,0.000000000,0.609429421,0.000000000
20.020000000,0.494667975,-0.965713627,1.282856813,0.000000000,0.607772193,0.000000000
20.040000000,0.494690762,-0.967142264,1.283571132,0.000000000,0.606114974,0.000000000
20.060000000,0.494713550,-0.968570895,1.284285447,0.000000000,0.604457762,0.000000000
20.080000000,0.494736337,-0.969999520,1.284999760,0.000000000,0.602800557,0.000000000
20.100000000,0.494759124,-0.971428139,1.285714070,0.000000000,0.601143359,0.000000000
20.119000000,0.494781911,-0.972856754,1.286428377,0.000000000,0.599486166,0.000000000
20.140000000,0.494804584,-0.974278221,1.287139111,0.000000000,0.597837263,0.000000000
20.160000000,0.494827382,-0.975707542,1.287853771,0.000000000,0.596179251,0.000000000
20.180000000,0.494850180,-0.977136788,1.288568394,0.000000000,0.594521326,0.000000000
20.200000000,0.494872976,-0.978565966,1.289282983,0.000000000,0.592863479,0.000000000
20.220000000,0.494895771,-0.979995084,1.289997542,0.000000000,0.591205703,0.000000000
20.240000000,0.494918565,-0.981424147,1.290712073,0.000000000,0.589547990,0.000000000
20.260000000,0.494941358,-0.982853161,1.291426580,0.000000000,0.587890334,0.000000000
20.280000000,0.494964151,-0.984282130,1.292141065,0.000000000,0.586232729,0.000000000
20.300000000,0.494986943,-0.985711060,1.292855530,0.000000000,0.584575170,0.000000000
20.320000000,0.495009735,-0.987139954,1.293569977,0.000000000,0.582917653,0.000000000
20.340000000,0.495032526,-0.988568816,1.294284408,0.000000000,0.581260174,0.000000000
20.360000000,0.495055316,-0.989997649,1.294998824,0.000000000,0.579602728,0.000000000
20.380000000,0.495078107,-0.991426455,1.295713228,0.000000000,0.577945312,0.000000000
20.400000000,0.495100896,-0.992855238,1.296427619,0.000000000,0.576287924,0.000000000
20.419000000,0.495123686,-0.994284000,1.297142000,0.000000000,0.574630560,0.000000000
20.440000000,0.495146361,-0.995705600,1.297852800,0.000000000,0.572981504,0.000000000
20.459000000,0.495169161,-0.997135040,1.298567520,0.000000000,0.571323354,0.000000000
20.480000000,0.495191846,-0.998557250,1.299278625,0.000000000,0.569673590,0.000000000
20.500000000,0.495214655,-0.999987240,1.299993620,0.000000000,0.568014802,0.000000000
20.520000000,0.495237462,-1.001417087,1.300708544,0.000000000,0.566356179,0.000000000
20.540000000,0.495260267,-1.002846807,1.301423404,0.000000000,0.564697704,0.000000000
20.560000000,0.495283069,-1.004276412,1.302138206,0.000000000,0.563039362,0.000000000
20.574000000,0.495305871,-1.005705914,1.302852957,0.000000000,0.561381140,0.000000000
20.600000000,0.495327987,-1.007092465,1.303546233,0.000000000,0.559772740,0.000000000
20.620000000,0.495350854,-1.008526076,1.304263038,0.000000000,0.558109752,0.000000000
20.640000000,0.495373712,-1.009959182,1.304979591,0.000000000,0.556447348,0.000000000
20.660000000,0.495396564,-1.011391836,1.305695918,0.000000000,0.554785471,0.000000000
20.680000000,0.495419409,-1.012824081,1.306412040,0.000000000,0.553124066,0.000000000
20.700000000,0.495442248,-1.014255958,1.307127979,0.000000000,0.551463088,0.000000000
20.720000000,0.495465082,-1.015687505,1.307843753,0.000000000,0.549802494,0.000000000
20.740000000,0.495487911,-1.017118755,1.308559377,0.000000000,0.548142244,0.000000000
20.760000000,0.495510736,-1.018549736,1.309274868,0.000000000,0.546482306,0.000000000
20.780000000,0.495533557,-1.019980477,1.309990239,0.000000000,0.544822647,0.000000000
20.800000000,0.495556374,-1.021411001,1.310705500,0.000000000,0.543163239,0.000000000
20.820000000,0.495579189,-1.022841329,1.311420665,0.000000000,0.541504058,0.000000000
20.837000000,0.495602000,-1.024271482,1.312135741,0.000000000,0.539845081,0.000000000
20.860000000,0.495624467,-1.025680048,1.312840024,0.000000000,0.538211144,0.000000000
20.880000000,0.495647308,-1.027112043,1.313556022,0.000000000,0.536550030,0.000000000
20.900000000,0.495670144,-1.028543696,1.314271848,0.000000000,0.534889312,0.000000000
20.920000000,0.495692975,-1.029975041,1.314987520,0.000000000,0.533228953,0.000000000
20.940000000,0.495715801,-1.031406108,1.315703054,0.000000000,0.531568915,0.000000000
20.960000000,0.495738623,-1.032836926,1.316418463,0.000000000,0.529909166,0.000000000
20.980000000,0.495761442,-1.034267519,1.317133760,0.000000000,0.528249678,0.000000000
21.000000000,0.495784257,-1.035697910,1.317848955,0.000000000,0.526590424,0.000000000
21.020000000,0.495807070,-1.037128119,1.318564060,0.000000000,0.524931382,0.000000000
21.040000000,0.495829880,-1.038558164,1.319279082,0.000000000,0.523272530,0.000000000
21.060000000,0.495852687,-1.039988062,1.319994031,0.000000000,0.521613848,0.000000000
21.080000000,0.495875492,-1.041417827,1.320708914,0.000000000,0.519955320,0.000000000
21.100000000,0.495898296,-1.042847473,1.321423737,0.000000000,0.518296931,0.000000000
21.120000000,0.495921098,-1.044277012,1.322138506,0.000000000,0.516638667,0.000000000
21.140000000,0.495943898,-1.045706453,1.322853227,0.000000000,0.514980514,0.000000000
21.160000000,0.495966697,-1.047135808,1.323567904,0.000000000,0.513322463,0.000000000
21.180000000,0.495989495,-1.048565084,1.324282542,0.000000000,0.511664502,0.000000000
21.200000000,0.496012291,-1.049994290,1.324997145,0.000000000,0.510006623,0.000000000
21.220000000,0.496035087,-1.051423433,1.325711716,0.000000000,0.508348818,0.000000000
21.240000000,0.496057881,-1.052852518,1.326426259,0.000000000,0.506691079,0.000000000
21.260000000,0.496080675,-1.054281552,1.327140776,0.000000000,0.505033400,0.000000000
21.280000000,0.496103468,-1.055710539,1.327855270,0.000000000,0.503375774,0.000000000
21.300000000,0.496126260,-1.057139486,1.328569743,0.000000000,0.501718197,0.000000000
21.320000000,0.496149052,-1.058568394,1.329284197,0.000000000,0.500060663,0.000000000
21.340000000,0.496171843,-1.059997269,1.329998635,0.000000000,0.498403168,0.000000000
21.360000000,0.496194634,-1.061426114,1.330713057,0.000000000,0.496745708,0.000000000
21.380000000,0.496217424,-1.062854931,1.331427465,0.000000000,0.495088280,0.000000000
21.400000000,0.496240214,-1.064283723,1.332141862,0.000000000,0.493430881,0.000000000
21.420000000,0.496263004,-1.065712494,1.332856247,0.000000000,0.491773507,0.000000000
21.440000000,0.496285793,-1.067141245,1.333570622,0.000000000,0.490116156,0.000000000
21.460000000,0.496308582,-1.068569977,1.334284989,0.000000000,0.488458826,0.000000000
21.479000000,0.496331371,-1.069998694,1.334999347,0.000000000,0.486801515,0.000000000
21.500000000,0.496354045,-1.071420253,1.335710127,0.000000000,0.485152507,0.000000000
21.518000000,0.496376845,-1.072849656,1.336424828,0.000000000,0.483494399,0.000000000
21.540000000,0.496399415,-1.074264691,1.337132345,0.000000000,0.481852959,0.000000000
21.560000000,0.496422235,-1.075695364,1.337847682,0.000000000,0.480193377,0.000000000
21.580000000,0.496445052,-1.077125828,1.338562914,0.000000000,0.478534040,0.000000000
21.600000000,0.496467865,-1.078556102,1.339278051,0.000000000,0.476874921,0.000000000
21.620000000,0.496490676,-1.079986206,1.339993103,0.000000000,0.475216001,0.000000000
21.640000000,0.496513485,-1.081416157,1.340708079,0.000000000,0.473557258,0.000000000
21.660000000,0.496536291,-1.082845970,1.341422985,0.000000000,0.471898675,0.000000000
21.680000000,0.496559095,-1.084275659,1.342137829,0.000000000,0.470240236,0.000000000
21.700000000,0.496581898,-1.085705236,1.342852618,0.000000000,0.468581927,0.000000000
21.720000000,0.496604698,-1.087134712,1.343567356,0.000000000,0.466923734,0.000000000
21.740000000,0.496627498,-1.088564098,1.344282049,0.000000000,0.465265646,0.000000000
21.760000000,0.496650296,-1.089993403,1.344996701,0.000000000,0.463607653,0.000000000
21.780000000,0.496673093,-1.091422634,1.345711317,0.000000000,0.461949745,0.000000000
21.800000000,0.496695889,-1.092851799,1.346425899,0.000000000,0.460291913,0.000000000
21.820000000,0.496718683,-1.094280905,1.347140452,0.000000000,0.458634151,0.000000000
21.840000000,0.496741478,-1.095709957,1.347854979,0.000000000,0.456976450,0.000000000
21.860000000,0.496764271,-1.097138961,1.348569481,0.000000000,0.455318805,0.000000000
21.880000000,0.496787063,-1.098567922,1.349283961,0.000000000,0.453661210,0.000000000
21.900000000,0.496809855,-1.099996844,1.349998422,0.000000000,0.452003660,0.000000000
21.920000000,0.496832647,-1.101425731,1.350712866,0.000000000,0.450346152,0.000000000
21.940000000,0.496855438,-1.102854587,1.351427293,0.000000000,0.448688679,0.000000000
21.960000000,0.496878228,-1.104283414,1.352141707,0.000000000,0.447031240,0.000000000
21.980000000,0.496901018,-1.105712215,1.352856108,0.000000000,0.445373830,0.000000000
22.000000000,0.496923808,-1.107140994,1.353570497,0.000000000,0.443716447,0.000000000
22.020000000,0.496946597,-1.108569752,1.354284876,0.000000000,0.442059088,0.000000000
22.040000000,0.496969386,-1.109998491,1.354999245,0.000000000,0.440401751,0.000000000
22.059000000,0.496992175,-1.111427213,1.355713607,0.000000000,0.438744433,0.000000000
22.080000000,0.497014850,-1.112848777,1.356424389,0.000000000,0.437095418,0.000000000
22.100000000,0.497037650,-1.114278185,1.357139093,0.000000000,0.435437305,0.000000000
22.120000000,0.497060448,-1.115707510,1.357853755,0.000000000,0.433779289,0.000000000
22.140000000,0.497083245,-1.117136759,1.358568379,0.000000000,0.432121360,0.000000000
22.160000000,0.497106041,-1.118565940,1.359282970,0.000000000,0.430463510,0.000000000
22.180000000,0.497128836,-1.119995060,1.359997530,0.000000000,0.428805730,0.000000000
22.200000000,0.497151631,-1.121424126,1.360712063,0.000000000,0.427148014,0.000000000
22.220000000,0.497174424,-1.122853142,1.361426571,0.000000000,0.425490356,0.000000000
22.240000000,0.497197217,-1.124282113,1.362141057,0.000000000,0.423832749,0.000000000
22.260000000,0.497220009,-1.125711045,1.362855522,0.000000000,0.422175188,0.000000000
22.280000000,0.497242801,-1.127139940,1.363569970,0.000000000,0.420517669,0.000000000
22.300000000,0.497265592,-1.128568803,1.364284402,0.000000000,0.418860188,0.000000000
22.320000000,0.497288382,-1.129997637,1.364998819,0.000000000,0.417202741,0.000000000
22.340000000,0.497311172,-1.131426445,1.365713223,0.000000000,0.415545324,0.000000000
22.360000000,0.497333962,-1.132855229,1.366427615,0.000000000,0.413887934,0.000000000
22.380000000,0.497356752,-1.134283992,1.367141996,0.000000000,0.412230569,0.000000000
22.400000000,0.497379541,-1.135712736,1.367856368,0.000000000,0.410573227,0.000000000
22.420000000,0.497402330,-1.137141462,1.368570731,0.000000000,0.408915904,0.000000000
22.440000000,0.497425118,-1.138570173,1.369285087,0.000000000,0.407258599,0.000000000
22.460000000,0.497447907,-1.139998870,1.369999435,0.000000000,0.405601311,0.000000000
22.480000000,0.497470695,-1.141427554,1.370713777,0.000000000,0.403944037,0.000000000
22.500000000,0.497493483,-1.142856228,1.371428114,0.000000000,0.402286776,0.000000000
22.520000000,0.497516271,-1.144284890,1.372142445,0.000000000,0.400629527,0.000000000
22.538000000,0.497539058,-1.145713544,1.372856772,0.000000000,0.398972289,0.000000000
22.560000000,0.497561618,-1.147127904,1.373563952,0.000000000,0.397331631,0.000000000
22.580000000,0.497584428,-1.148557971,1.374278985,0.000000000,0.395672754,0.000000000
22.599000000,0.497607236,-1.149987888,1.374993944,0.000000000,0.394014050,0.000000000
22.620000000,0.497629928,-1.151410528,1.375705264,0.000000000,0.392363788,0.000000000
22.640000000,0.497652743,-1.152840904,1.376420452,0.000000000,0.390704552,0.000000000
22.660000000,0.497675555,-1.154271099,1.377135550,0.000000000,0.389045525,0.000000000
22.680000000,0.497698365,-1.155701132,1.377850566,0.000000000,0.387386687,0.000000000
22.699000000,0.497721172,-1.157131019,1.378565509,0.000000000,0.385728018,0.000000000
22.720000000,0.497743864,-1.158553631,1.379276816,0.000000000,0.384077788,0.000000000
22.740000000,0.497766679,-1.159983982,1.379991991,0.000000000,0.382418581,0.000000000
22.760000000,0.497789490,-1.161414156,1.380707078,0.000000000,0.380759580,0.000000000
22.780000000,0.497812300,-1.162844169,1.381422084,0.000000000,0.379100765,0.000000000
22.800000000,0.497835107,-1.164274037,1.382137019,0.000000000,0.377442117,0.000000000
22.820000000,0.497857912,-1.165703777,1.382851888,0.000000000,0.375783619,0.000000000
22.840000000,0.497880715,-1.167133399,1.383566699,0.000000000,0.374125257,0.000000000
22.860000000,0.497903517,-1.168562916,1.384281458,0.000000000,0.372467017,0.000000000
22.880000000,0.497926317,-1.169992339,1.384996169,0.000000000,0.370808887,0.000000000
22.900000000,0.497949115,-1.171421676,1.385710838,0.000000000,0.369150855,0.000000000
22.920000000,0.497971913,-1.172850937,1.386425469,0.000000000,0.367492913,0.000000000
22.940000000,0.497994709,-1.174280129,1.387140065,0.000000000,0.365835050,0.000000000
22.960000000,0.498017504,-1.175709259,1.387854630,0.000000000,0.364177259,0.000000000
22.980000000,0.498040299,-1.177138333,1.388569167,0.000000000,0.362519533,0.000000000
23.000000000,0.498063092,-1.178567357,1.389283679,0.000000000,0.360861866,0.000000000
23.020000000,0.498085885,-1.179996336,1.389998168,0.000000000,0.359204251,0.000000000
23.040000000,0.498108677,-1.181425274,1.390712637,0.000000000,0.357546683,0.000000000
23.060000000,0.498131469,-1.182854175,1.391427087,0.000000000,0.355889157,0.000000000
23.080000000,0.498154260,-1.184283043,1.392141522,0.000000000,0.354231670,0.000000000
23.100000000,0.498177051,-1.185711882,1.392855941,0.000000000,0.352574217,0.000000000
23.120000000,0.498199841,-1.187140693,1.393570347,0.000000000,0.350916796,0.000000000
23.140000000,0.498222631,-1.188569481,1.394284741,0.000000000,0.349259402,0.000000000
23.160000000,0.498245420,-1.189998247,1.394999124,0.000000000,0.347602033,0.000000000
23.180000000,0.498268209,-1.191426994,1.395713497,0.000000000,0.345944687,0.000000000
23.200000000,0.498290998,-1.192855723,1.396427862,0.000000000,0.344287361,0.000000000
23.220000000,0.498313787,-1.194284437,1.397142218,0.000000000,0.342630054,0.000000000
23.240000000,0.498336575,-1.195713136,1.397856568,0.000000000,0.340972762,0.000000000
23.260000000,0.498359364,-1.197141822,1.398570911,0.000000000,0.339315486,0.000000000
23.280000000,0.498382152,-1.198570497,1.399285249,0.000000000,0.337658223,0.000000000
23.300000000,0.498404940,-1.199999162,1.399999581,0.000000000,0.336000972,0.000000000
23.320000000,0.498427727,-1.201427817,1.400713909,0.000000000,0.334343732,0.000000000
23.340000000,0.498450515,-1.202856464,1.401428232,0.000000000,0.332686502,0.000000000
23.360000000,0.498473302,-1.204285103,1.402142552,0.000000000,0.331029280,0.000000000
23.380000000,0.498496090,-1.205713736,1.402856868,0.000000000,0.329372067,0.000000000
23.400000000,0.498518877,-1.207142362,1.403571181,0.000000000,0.327714860,0.000000000
23.420000000,0.498541664,-1.208570983,1.404285492,0.000000000,0.326057660,0.000000000
23.440000000,0.498564451,-1.209999599,1.404999800,0.000000000,0.324400465,0.000000000
23.460000000,0.498587238,-1.211428211,1.405714105,0.000000000,0.322743276,0.000000000
23.480000000,0.498610025,-1.212856818,1.406428409,0.000000000,0.321086091,0.000000000
23.500000000,0.498632812,-1.214285422,1.407142711,0.000000000,0.319428911,0.000000000
23.520000000,0.498655599,-1.215714023,1.407857011,0.000000000,0.317771734,0.000000000
23.540000000,0.498678386,-1.217142620,1.408571310,0.000000000,0.316114560,0.000000000
23.560000000,0.498701173,-1.218571215,1.409285608,0.000000000,0.314457390,0.000000000
23.580000000,0.498723959,-1.219999808,1.409999904,0.000000000,0.312800222,0.000000000
23.600000000,0.498746746,-1.221428399,1.410714199,0.000000000,0.311143057,0.000000000
23.620000000,0.498769533,-1.222856988,1.411428494,0.000000000,0.309485894,0.000000000
23.639000000,0.498792319,-1.224285574,1.412142787,0.000000000,0.307828734,0.000000000
23.660000000,0.498814992,-1.225707017,1.412853509,0.000000000,0.306179860,0.000000000
23.680000000,0.498837790,-1.227136315,1.413568158,0.000000000,0.304521874,0.000000000
23.700000000,0.498860587,-1.228565541,1.414282770,0.000000000,0.302863973,0.000000000
23.720000000,0.498883382,-1.229994701,1.414997351,0.000000000,0.301206147,0.000000000
23.740000000,0.498906177,-1.231423802,1.415711901,0.000000000,0.299548389,0.000000000
23.760000000,0.498928971,-1.232852851,1.416426425,0.000000000,0.297890693,0.000000000
23.780000000,0.498951765,-1.234281851,1.417140926,0.000000000,0.296233052,0.000000000
23.800000000,0.498974557,-1.235710809,1.417855405,0.000000000,0.294575461,0.000000000
23.820000000,0.498997349,-1.237139728,1.418569864,0.000000000,0.292917915,0.000000000
23.840000000,0.499020140,-1.238568613,1.419284306,0.000000000,0.291260409,0.000000000
23.860000000,0.499042931,-1.239997466,1.419998733,0.000000000,0.289602940,0.000000000
23.880000000,0.499065722,-1.241426290,1.420713145,0.000000000,0.287945503,0.000000000
23.900000000,0.499088512,-1.242855090,1.421427545,0.000000000,0.286288096,0.000000000
23.920000000,0.499111301,-1.244283867,1.422141933,0.000000000,0.284630715,0.000000000
23.940000000,0.499134091,-1.245712623,1.422856311,0.000000000,0.282973357,0.000000000
23.960000000,0.499156880,-1.247141361,1.423570680,0.000000000,0.281316022,0.000000000
23.980000000,0.499179669,-1.248570082,1.424285041,0.000000000,0.279658705,0.000000000
24.000000000,0.499202457,-1.249998788,1.424999394,0.000000000,0.278001406,0.000000000
24.020000000,0.499225245,-1.251427480,1.425713740,0.000000000,0.276344123,0.000000000
24.040000000,0.499248034,-1.252856161,1.426428080,0.000000000,0.274686853,0.000000000
24.060000000,0.499270822,-1.254284831,1.427142415,0.000000000,0.273029597,0.000000000
24.080000000,0.499293609,-1.255713490,1.427856745,0.000000000,0.271372351,0.000000000
24.100000000,0.499316397,-1.257142141,1.428571071,0.000000000,0.269715116,0.000000000
24.120000000,0.499339184,-1.258570784,1.429285392,0.000000000,0.268057890,0.000000000
24.140000000,0.499361972,-1.259999420,1.429999710,0.000000000,0.266400673,0.000000000
24.160000000,0.499384759,-1.261428050,1.430714025,0.000000000,0.264743462,0.000000000
24.180000000,0.499407546,-1.262856673,1.431428337,0.000000000,0.263086259,0.000000000
24.200000000,0.499430334,-1.264285292,1.432142646,0.000000000,0.261429062,0.000000000
24.220000000,0.499453121,-1.265713905,1.432856953,0.000000000,0.259771870,0.000000000
24.240000000,0.499475908,-1.267142515,1.433571257,0.000000000,0.258114683,0.000000000
