Omar-H-Khedr/robotics_project/ros2_ws/install/experiment_manager/lib/python3.12/site-packages/results/baseline_trials/trial_20260514_180028/joint_states.csv
ros_time_sec,joint_1,joint_2,joint_3,joint_4,joint_5,joint_6
1.680000000,-0.000000000,-0.799999997,1.200000001,0.000000003,0.799999997,-0.000000000
1.700000000,-0.000000000,-0.799999997,1.200000001,0.000000003,0.799999997,-0.000000000
1.720000000,-0.000000000,-0.799999997,1.200000001,0.000000003,0.799999997,-0.000000000
1.740000000,-0.000000000,-0.799999998,1.200000000,0.000000002,0.799999998,-0.000000000
1.760000000,-0.000000000,-0.799999998,1.200000000,0.000000002,0.799999998,-0.000000000
1.780000000,-0.000000000,-0.799999998,1.200000000,0.000000002,0.799999998,-0.000000000
1.800000000,-0.000000000,-0.799999998,1.200000000,0.000000002,0.799999998,-0.000000000
1.820000000,-0.000000000,-0.799999999,1.200000000,0.000000002,0.799999999,-0.000000000
1.840000000,-0.000000000,-0.799999999,1.200000000,0.000000001,0.799999999,-0.000000000
1.860000000,-0.000000000,-0.799999999,1.200000000,0.000000001,0.799999999,-0.000000000
1.880000000,-0.000000000,-0.799999999,1.200000000,0.000000001,0.799999999,-0.000000000
1.900000000,-0.000000000,-0.799999999,1.200000000,0.000000001,0.799999999,-0.000000000
1.920000000,-0.000000000,-0.799999999,1.200000000,0.000000001,0.799999999,-0.000000000
1.940000000,-0.000000000,-0.799999999,1.200000000,0.000000001,0.799999999,-0.000000000
1.960000000,-0.000000000,-0.799999999,1.200000000,0.000000001,0.799999999,-0.000000000
1.980000000,-0.000000000,-0.799999999,1.200000000,0.000000001,0.799999999,-0.000000000
2.000000000,-0.000000000,-0.799999999,1.200000000,0.000000001,0.799999999,-0.000000000
2.020000000,-0.000000000,-0.799999999,1.200000000,0.000000001,0.799999999,-0.000000000
2.040000000,-0.000000000,-0.800000000,1.200000000,0.000000001,0.800000000,-0.000000000
2.060000000,-0.000000000,-0.800000000,1.200000000,0.000000000,0.800000000,-0.000000000
2.080000000,-0.000000000,-0.800000000,1.200000000,0.000000000,0.800000000,-0.000000000
2.100000000,-0.000000000,-0.800000000,1.200000000,0.000000000,0.800000000,-0.000000000
2.120000000,-0.000000000,-0.800000000,1.200000000,0.000000000,0.800000000,-0.000000000
2.140000000,-0.000000000,-0.800000000,1.200000000,0.000000000,0.800000000,-0.000000000
2.160000000,-0.000000000,-0.800000000,1.200000000,0.000000000,0.800000000,-0.000000000
2.180000000,-0.000000000,-0.800000000,1.200000000,0.000000000,0.800000000,-0.000000000
2.200000000,-0.000000000,-0.800000000,1.200000000,0.000000000,0.800000000,-0.000000000
2.220000000,-0.000000000,-0.800000000,1.200000000,0.000000000,0.800000000,-0.000000000
2.240000000,-0.000000000,-0.800000000,1.200000000,0.000000000,0.800000000,-0.000000000
2.260000000,-0.000000000,-0.800000000,1.200000000,0.000000000,0.800000000,-0.000000000
2.280000000,-0.000000000,-0.800000000,1.200000000,0.000000000,0.800000000,-0.000000000
2.300000000,-0.000000000,-0.800000000,1.200000000,0.000000000,0.800000000,-0.000000000
2.320000000,-0.000000000,-0.800000000,1.200000000,0.000000000,0.800000000,-0.000000000
2.340000000,-0.000000000,-0.800000000,1.200000000,0.000000000,0.800000000,-0.000000000
2.360000000,-0.000000000,-0.800000000,1.200000000,0.000000000,0.800000000,-0.000000000
2.380000000,-0.000000000,-0.800000000,1.200000000,0.000000000,0.800000000,-0.000000000
2.400000000,-0.000000000,-0.800000000,1.200000000,0.000000000,0.800000000,-0.000000000
2.420000000,-0.000000000,-0.800000000,1.200000000,0.000000000,0.800000000,-0.000000000
2.440000000,-0.000000000,-0.800000000,1.200000000,0.000000000,0.800000000,-0.000000000
2.460000000,-0.000000000,-0.800000000,1.200000000,0.000000000,0.800000000,-0.000000000
2.480000000,-0.000000000,-0.800000000,1.200000000,0.000000000,0.800000000,-0.000000000
2.500000000,-0.000000000,-0.800000000,1.200000000,0.000000000,0.800000000,-0.000000000
2.520000000,-0.000000000,-0.800000000,1.200000000,0.000000000,0.800000000,-0.000000000
2.540000000,-0.000000000,-0.800000000,1.200000000,0.000000000,0.800000000,-0.000000000
2.560000000,-0.000000000,-0.800000000,1.200000000,0.000000000,0.800000000,-0.000000000
2.580000000,-0.000000000,-0.800000000,1.200000000,0.000000000,0.800000000,-0.000000000
2.600000000,-0.000000000,-0.800000000,1.200000000,0.000000000,0.800000000,-0.000000000
2.620000000,-0.000000000,-0.800000000,1.200000000,0.000000000,0.800000000,-0.000000000
2.640000000,-0.000000000,-0.800000000,1.200000000,0.000000000,0.800000000,-0.000000000
2.660000000,-0.000000000,-0.800000000,1.200000000,0.000000000,0.800000000,-0.000000000
2.680000000,-0.000000000,-0.800000000,1.200000000,0.000000000,0.800000000,0.000000000
2.700000000,-0.000000000,-0.800000000,1.200000000,0.000000000,0.800000000,0.000000000
2.720000000,-0.000000000,-0.800000000,1.200000000,0.000000000,0.800000000,0.000000000
2.740000000,-0.000000000,-0.800000000,1.200000000,0.000000000,0.800000000,0.000000000
2.760000000,-0.000000000,-0.800000000,1.200000000,0.000000000,0.800000000,0.000000000
2.780000000,-0.000000000,-0.800000000,1.200000000,0.000000000,0.800000000,0.000000000
2.800000000,-0.000000000,-0.800000000,1.200000000,0.000000000,0.800000000,0.000000000
2.820000000,-0.000000000,-0.800000000,1.200000000,0.000000000,0.800000000,0.000000000
2.840000000,-0.000000000,-0.800000000,1.200000000,0.000000000,0.800000000,0.000000000
2.860000000,-0.000000000,-0.800000000,1.200000000,0.000000000,0.800000000,0.000000000
2.880000000,-0.000000000,-0.800000000,1.200000000,0.000000000,0.800000000,0.000000000
2.899000000,-0.000000000,-0.800000000,1.200000000,0.000000000,0.800000000,0.000000000
2.920000000,-0.000000000,-0.800000000,1.200000000,0.000000000,0.800000000,0.000000000
2.940000000,-0.000000000,-0.800000000,1.200000000,0.000000000,0.800000000,0.000000000
2.960000000,-0.000000000,-0.800000000,1.200000000,0.000000000,0.800000000,0.000000000
2.980000000,-0.000000000,-0.800000000,1.200000000,0.000000000,0.800000000,0.000000000
3.000000000,-0.000000000,-0.800000000,1.200000000,0.000000000,0.800000000,0.000000000
3.020000000,-0.000000000,-0.800000000,1.200000000,0.000000000,0.800000000,0.000000000
3.040000000,-0.000000000,-0.800000000,1.200000000,0.000000000,0.800000000,0.000000000
3.060000000,-0.000000000,-0.800000000,1.200000000,0.000000000,0.800000000,0.000000000
3.080000000,-0.000000000,-0.800000000,1.200000000,0.000000000,0.800000000,0.000000000
3.100000000,-0.000000000,-0.800000000,1.200000000,0.000000000,0.800000000,0.000000000
3.118000000,-0.000000000,-0.800000000,1.200000000,0.000000000,0.800000000,0.000000000
3.140000000,-0.000000000,-0.800000000,1.200000000,0.000000000,0.800000000,0.000000000
3.159000000,-0.000000000,-0.800000000,1.200000000,0.000000000,0.800000000,0.000000000
3.180000000,-0.000000000,-0.800000000,1.200000000,0.000000000,0.800000000,0.000000000
3.200000000,-0.000000000,-0.800000000,1.200000000,0.000000000,0.800000000,0.000000000
3.220000000,-0.000000000,-0.800000000,1.200000000,0.000000000,0.800000000,0.000000000
3.240000000,-0.000000000,-0.800000000,1.200000000,0.000000000,0.800000000,0.000000000
3.260000000,-0.000000000,-0.800000000,1.200000000,0.000000000,0.800000000,0.000000000
3.280000000,-0.000000000,-0.800000000,1.200000000,0.000000000,0.800000000,0.000000000
3.300000000,-0.000000000,-0.800000000,1.200000000,0.000000000,0.800000000,0.000000000
3.320000000,-0.000000000,-0.800000000,1.200000000,0.000000000,0.800000000,0.000000000
3.340000000,-0.000000000,-0.800000000,1.200000000,0.000000000,0.800000000,0.000000000
3.360000000,-0.000000000,-0.800000000,1.200000000,0.000000000,0.800000000,0.000000000
3.379000000,-0.000000000,-0.800000000,1.200000000,0.000000000,0.800000000,0.000000000
3.400000000,-0.000000000,-0.800000000,1.200000000,0.000000000,0.800000000,0.000000000
3.420000000,-0.000000000,-0.800000000,1.200000000,0.000000000,0.800000000,0.000000000
3.440000000,-0.000000000,-0.800000000,1.200000000,0.000000000,0.800000000,0.000000000
3.459000000,-0.000000000,-0.800000000,1.200000000,0.000000000,0.800000000,0.000000000
3.480000000,-0.000000000,-0.800000000,1.200000000,0.000000000,0.800000000,0.000000000
3.500000000,-0.000000000,-0.800000000,1.200000000,0.000000000,0.800000000,0.000000000
3.520000000,-0.000000000,-0.800000000,1.200000000,0.000000000,0.800000000,0.000000000
3.540000000,-0.000000000,-0.800000000,1.200000000,0.000000000,0.800000000,0.000000000
3.560000000,-0.000000000,-0.800000000,1.200000000,0.000000000,0.800000000,0.000000000
3.579000000,-0.000000000,-0.800000000,1.200000000,0.000000000,0.800000000,0.000000000
3.600000000,-0.000000000,-0.800000000,1.200000000,0.000000000,0.800000000,0.000000000
3.620000000,-0.000000000,-0.800000000,1.200000000,0.000000000,0.800000000,0.000000000
3.640000000,-0.000000000,-0.800000000,1.200000000,0.000000000,0.800000000,0.000000000
3.660000000,-0.000000000,-0.800000000,1.200000000,0.000000000,0.800000000,0.000000000
3.680000000,-0.000000000,-0.800000000,1.200000000,0.000000000,0.800000000,0.000000000
3.700000000,-0.000000000,-0.800000000,1.200000000,0.000000000,0.800000000,0.000000000
3.720000000,-0.000000000,-0.800000000,1.200000000,0.000000000,0.800000000,0.000000000
3.740000000,-0.000000000,-0.800000000,1.200000000,0.000000000,0.800000000,0.000000000
3.760000000,-0.000000000,-0.800000000,1.200000000,0.000000000,0.800000000,0.000000000
3.780000000,-0.000000000,-0.800000000,1.200000000,0.000000000,0.800000000,0.000000000
3.800000000,-0.000000000,-0.800000000,1.200000000,0.000000000,0.800000000,0.000000000
3.820000000,-0.000000000,-0.800000000,1.200000000,0.000000000,0.800000000,0.000000000
3.840000000,-0.000000000,-0.800000000,1.200000000,0.000000000,0.800000000,0.000000000
3.860000000,-0.000000000,-0.800000000,1.200000000,0.000000000,0.800000000,0.000000000
3.880000000,-0.000000000,-0.800000000,1.200000000,0.000000000,0.800000000,0.000000000
3.900000000,-0.000000000,-0.800000000,1.200000000,0.000000000,0.800000000,0.000000000
3.920000000,-0.000000000,-0.800000000,1.200000000,0.000000000,0.800000000,0.000000000
3.940000000,-0.000000000,-0.800000000,1.200000000,0.000000000,0.800000000,0.000000000
3.959000000,-0.000000000,-0.800000000,1.200000000,0.000000000,0.800000000,0.000000000
3.980000000,-0.000000000,-0.800000000,1.200000000,0.000000000,0.800000000,0.000000000
4.000000000,-0.000000000,-0.800000000,1.200000000,0.000000000,0.800000000,0.000000000
4.020000000,-0.000000000,-0.800000000,1.200000000,0.000000000,0.800000000,0.000000000
4.039000000,-0.000000000,-0.800000000,1.200000000,0.000000000,0.800000000,0.000000000
4.060000000,-0.000000000,-0.800000000,1.200000000,0.000000000,0.800000000,0.000000000
4.080000000,-0.000000000,-0.800000000,1.200000000,0.000000000,0.800000000,0.000000000
4.100000000,-0.000000000,-0.800000000,1.200000000,0.000000000,0.800000000,0.000000000
4.120000000,-0.000000000,-0.800000000,1.200000000,0.000000000,0.800000000,0.000000000
4.140000000,-0.000000000,-0.800000000,1.200000000,0.000000000,0.800000000,0.000000000
4.160000000,-0.000000000,-0.800000000,1.200000000,0.000000000,0.800000000,0.000000000
4.180000000,-0.000000000,-0.800000000,1.200000000,0.000000000,0.800000000,0.000000000
4.200000000,-0.000000000,-0.800000000,1.200000000,0.000000000,0.800000000,0.000000000
4.220000000,-0.000000000,-0.800000000,1.200000000,0.000000000,0.800000000,0.000000000
4.240000000,-0.000000000,-0.800000000,1.200000000,0.000000000,0.800000000,0.000000000
4.260000000,-0.000000000,-0.800000000,1.200000000,0.000000000,0.800000000,0.000000000
4.280000000,-0.000000000,-0.800000000,1.200000000,0.000000000,0.800000000,0.000000000
4.300000000,-0.000000000,-0.800000000,1.200000000,0.000000000,0.800000000,0.000000000
4.319000000,-0.000000000,-0.800000000,1.200000000,0.000000000,0.800000000,0.000000000
4.340000000,-0.000000000,-0.800000000,1.200000000,0.000000000,0.800000000,0.000000000
4.360000000,-0.000000000,-0.800000000,1.200000000,0.000000000,0.800000000,0.000000000
4.380000000,-0.000000000,-0.800000000,1.200000000,0.000000000,0.800000000,0.000000000
4.400000000,-0.000000000,-0.800000000,1.200000000,0.000000000,0.800000000,0.000000000
4.420000000,-0.000000000,-0.800000000,1.200000000,0.000000000,0.800000000,0.000000000
4.440000000,-0.000000000,-0.800000000,1.200000000,0.000000000,0.800000000,0.000000000
4.460000000,-0.000000000,-0.800000000,1.200000000,0.000000000,0.800000000,0.000000000
4.480000000,-0.000000000,-0.800000000,1.200000000,0.000000000,0.800000000,0.000000000
4.500000000,-0.000000000,-0.800000000,1.200000000,0.000000000,0.800000000,0.000000000
4.520000000,-0.000000000,-0.800000000,1.200000000,0.000000000,0.800000000,0.000000000
4.540000000,-0.000000000,-0.800000000,1.200000000,0.000000000,0.800000000,0.000000000
4.560000000,-0.000000000,-0.800000000,1.200000000,0.000000000,0.800000000,0.000000000
4.580000000,-0.000000000,-0.800000000,1.200000000,0.000000000,0.800000000,0.000000000
4.600000000,-0.000000000,-0.800000000,1.200000000,0.000000000,0.800000000,0.000000000
4.620000000,-0.000000000,-0.800000000,1.200000000,0.000000000,0.800000000,0.000000000
4.640000000,-0.000000000,-0.800000000,1.200000000,0.000000000,0.800000000,0.000000000
4.660000000,-0.000000000,-0.800000000,1.200000000,0.000000000,0.800000000,0.000000000
4.680000000,-0.000000000,-0.800000000,1.200000000,0.000000000,0.800000000,0.000000000
4.700000000,-0.000000000,-0.800000000,1.200000000,0.000000000,0.800000000,0.000000000
4.720000000,-0.000000000,-0.800000000,1.200000000,0.000000000,0.800000000,0.000000000
4.740000000,-0.000000000,-0.800000000,1.200000000,0.000000000,0.800000000,0.000000000
4.760000000,-0.000000000,-0.800000000,1.200000000,0.000000000,0.800000000,0.000000000
4.780000000,-0.000000000,-0.800000000,1.200000000,0.000000000,0.800000000,0.000000000
4.800000000,-0.000000000,-0.800000000,1.200000000,0.000000000,0.800000000,0.000000000
4.820000000,-0.000000000,-0.800000000,1.200000000,0.000000000,0.800000000,0.000000000
4.840000000,-0.000000000,-0.800000000,1.200000000,0.000000000,0.800000000,0.000000000
4.860000000,-0.000000000,-0.800000000,1.200000000,0.000000000,0.800000000,0.000000000
4.880000000,-0.000000000,-0.800000000,1.200000000,0.000000000,0.800000000,0.000000000
4.900000000,-0.000000000,-0.800000000,1.200000000,0.000000000,0.800000000,0.000000000
4.920000000,-0.000000000,-0.800000000,1.200000000,0.000000000,0.800000000,0.000000000
4.940000000,-0.000000000,-0.800000000,1.200000000,0.000000000,0.800000000,0.000000000
4.960000000,-0.000000000,-0.800000000,1.200000000,0.000000000,0.800000000,0.000000000
4.980000000,-0.000000000,-0.800000000,1.200000000,0.000000000,0.800000000,0.000000000
4.999000000,-0.000000000,-0.800000000,1.200000000,0.000000000,0.800000000,0.000000000
5.020000000,-0.000000000,-0.800000000,1.200000000,0.000000000,0.800000000,0.000000000
5.040000000,-0.000000000,-0.800000000,1.200000000,0.000000000,0.800000000,0.000000000
5.060000000,-0.000000000,-0.800000000,1.200000000,0.000000000,0.800000000,0.000000000
5.080000000,-0.000000000,-0.800000000,1.200000000,0.000000000,0.800000000,0.000000000
5.100000000,-0.000000000,-0.800000000,1.200000000,0.000000000,0.800000000,0.000000000
5.120000000,-0.000000000,-0.800000000,1.200000000,0.000000000,0.800000000,0.000000000
5.140000000,-0.000000000,-0.800000000,1.200000000,0.000000000,0.800000000,0.000000000
5.160000000,-0.000000000,-0.800000000,1.200000000,0.000000000,0.800000000,0.000000000
5.180000000,-0.000000000,-0.800000000,1.200000000,0.000000000,0.800000000,0.000000000
5.200000000,-0.000000000,-0.800000000,1.200000000,0.000000000,0.800000000,0.000000000
5.220000000,-0.000000000,-0.800000000,1.200000000,0.000000000,0.800000000,0.000000000
5.240000000,-0.000000000,-0.800000000,1.200000000,0.000000000,0.800000000,0.000000000
5.260000000,-0.000000000,-0.800000000,1.200000000,0.000000000,0.800000000,0.000000000
5.280000000,-0.000000000,-0.800000000,1.200000000,0.000000000,0.800000000,0.000000000
5.300000000,-0.000000000,-0.800000000,1.200000000,0.000000000,0.800000000,0.000000000
5.320000000,-0.000000000,-0.800000000,1.200000000,0.000000000,0.800000000,0.000000000
5.340000000,-0.000000000,-0.800000000,1.200000000,0.000000000,0.800000000,0.000000000
5.360000000,-0.000000000,-0.800000000,1.200000000,0.000000000,0.800000000,0.000000000
5.380000000,-0.000000000,-0.800000000,1.200000000,0.000000000,0.800000000,0.000000000
5.400000000,-0.000000000,-0.800000000,1.200000000,0.000000000,0.800000000,0.000000000
5.419000000,-0.000000000,-0.800000000,1.200000000,0.000000000,0.800000000,0.000000000
5.440000000,-0.000000000,-0.800000000,1.200000000,0.000000000,0.800000000,0.000000000
5.460000000,-0.000000000,-0.800000000,1.200000000,0.000000000,0.800000000,0.000000000
5.480000000,-0.000000000,-0.800000000,1.200000000,0.000000000,0.800000000,0.000000000
5.500000000,-0.000000000,-0.800000000,1.200000000,0.000000000,0.800000000,0.000000000
5.520000000,-0.000000000,-0.800000000,1.200000000,0.000000000,0.800000000,0.000000000
5.540000000,-0.000000000,-0.800000000,1.200000000,0.000000000,0.800000000,0.000000000
5.560000000,-0.000000000,-0.800000000,1.200000000,0.000000000,0.800000000,0.000000000
5.580000000,-0.000000000,-0.800000000,1.200000000,0.000000000,0.800000000,0.000000000
5.600000000,-0.000000000,-0.800000000,1.200000000,0.000000000,0.800000000,0.000000000
5.620000000,-0.000000000,-0.800000000,1.200000000,0.000000000,0.800000000,0.000000000
5.640000000,-0.000000000,-0.800000000,1.200000000,0.000000000,0.800000000,0.000000000
5.660000000,-0.000000000,-0.800000000,1.200000000,0.000000000,0.800000000,0.000000000
5.680000000,-0.000000000,-0.800000000,1.200000000,0.000000000,0.800000000,0.000000000
5.700000000,-0.000000000,-0.800000000,1.200000000,0.000000000,0.800000000,0.000000000
5.720000000,-0.000000000,-0.800000000,1.200000000,0.000000000,0.800000000,0.000000000
5.740000000,-0.000000000,-0.800000000,1.200000000,0.000000000,0.800000000,0.000000000
5.760000000,-0.000000000,-0.800000000,1.200000000,0.000000000,0.800000000,0.000000000
5.780000000,-0.000000000,-0.800000000,1.200000000,0.000000000,0.800000000,0.000000000
5.800000000,-0.000000000,-0.800000000,1.200000000,0.000000000,0.800000000,0.000000000
5.820000000,-0.000000000,-0.800000000,1.200000000,0.000000000,0.800000000,0.000000000
5.840000000,-0.000000000,-0.800000000,1.200000000,0.000000000,0.800000000,0.000000000
5.860000000,-0.000000000,-0.800000000,1.200000000,0.000000000,0.800000000,0.000000000
5.880000000,-0.000000000,-0.800000000,1.200000000,0.000000000,0.800000000,0.000000000
5.900000000,-0.000000000,-0.800000000,1.200000000,0.000000000,0.800000000,0.000000000
5.920000000,-0.000000000,-0.800000000,1.200000000,0.000000000,0.800000000,0.000000000
5.940000000,-0.000000000,-0.800000000,1.200000000,0.000000000,0.800000000,0.000000000
5.960000000,0.000000000,-0.800000000,1.200000000,0.000000000,0.800000000,0.000000000
5.980000000,0.000000000,-0.800000000,1.200000000,0.000000000,0.800000000,0.000000000
6.000000000,0.000000000,-0.800000000,1.200000000,0.000000000,0.800000000,0.000000000
6.020000000,0.000000000,-0.800000000,1.200000000,0.000000000,0.800000000,0.000000000
6.040000000,0.000000000,-0.800000000,1.200000000,0.000000000,0.800000000,0.000000000
6.060000000,0.000000000,-0.800000000,1.200000000,0.000000000,0.800000000,0.000000000
6.080000000,0.000000000,-0.800000000,1.200000000,0.000000000,0.800000000,0.000000000
6.100000000,0.000000000,-0.800000000,1.200000000,0.000000000,0.800000000,0.000000000
6.120000000,0.000000000,-0.800000000,1.200000000,0.000000000,0.800000000,0.000000000
6.140000000,0.000000000,-0.800000000,1.200000000,0.000000000,0.800000000,0.000000000
6.160000000,0.000000000,-0.800000000,1.200000000,0.000000000,0.800000000,0.000000000
6.180000000,0.000000000,-0.800000000,1.200000000,0.000000000,0.800000000,0.000000000
6.200000000,0.000000000,-0.800000000,1.200000000,0.000000000,0.800000000,0.000000000
6.220000000,0.000000000,-0.800000000,1.200000000,0.000000000,0.800000000,0.000000000
6.240000000,0.000000000,-0.800000000,1.200000000,0.000000000,0.800000000,0.000000000
6.260000000,0.000000000,-0.800000000,1.200000000,0.000000000,0.800000000,0.000000000
6.280000000,0.000000000,-0.800000000,1.200000000,0.000000000,0.800000000,0.000000000
6.300000000,0.000000000,-0.800000000,1.200000000,0.000000000,0.800000000,0.000000000
6.320000000,0.000000000,-0.800000000,1.200000000,0.000000000,0.800000000,0.000000000
6.340000000,0.000000000,-0.800000000,1.200000000,0.000000000,0.800000000,0.000000000
6.360000000,0.000000000,-0.800000000,1.200000000,0.000000000,0.800000000,0.000000000
6.380000000,0.000000000,-0.800000000,1.200000000,0.000000000,0.800000000,0.000000000
6.400000000,0.000000000,-0.800000000,1.200000000,0.000000000,0.800000000,0.000000000
6.420000000,0.000000000,-0.800000000,1.200000000,0.000000000,0.800000000,0.000000000
6.440000000,0.000000000,-0.800000000,1.200000000,0.000000000,0.800000000,0.000000000
6.460000000,0.000000000,-0.800000000,1.200000000,0.000000000,0.800000000,0.000000000
6.480000000,0.000000000,-0.800000000,1.200000000,0.000000000,0.800000000,0.000000000
6.500000000,0.000000000,-0.800000000,1.200000000,0.000000000,0.800000000,0.000000000
6.520000000,0.000000000,-0.800000000,1.200000000,0.000000000,0.800000000,0.000000000
6.540000000,0.000000000,-0.800000000,1.200000000,0.000000000,0.800000000,0.000000000
6.560000000,0.000000000,-0.800000000,1.200000000,0.000000000,0.800000000,0.000000000
6.580000000,0.000000000,-0.800000000,1.200000000,0.000000000,0.800000000,0.000000000
6.600000000,0.000000000,-0.800000000,1.200000000,0.000000000,0.800000000,0.000000000
6.620000000,0.000000000,-0.800000000,1.200000000,0.000000000,0.800000000,0.000000000
6.640000000,0.000000000,-0.800000000,1.200000000,0.000000000,0.800000000,0.000000000
6.660000000,0.000000000,-0.800000000,1.200000000,0.000000000,0.800000000,0.000000000
6.680000000,0.000000000,-0.800000000,1.200000000,0.000000000,0.800000000,0.000000000
6.700000000,0.000000000,-0.800000000,1.200000000,0.000000000,0.800000000,0.000000000
6.720000000,0.000000000,-0.800000000,1.200000000,0.000000000,0.800000000,0.000000000
6.740000000,0.000000000,-0.800000000,1.200000000,0.000000000,0.800000000,0.000000000
6.760000000,0.000000000,-0.800000000,1.200000000,0.000000000,0.800000000,0.000000000
6.780000000,0.000000000,-0.800000000,1.200000000,0.000000000,0.800000000,0.000000000
6.800000000,0.000000000,-0.800000000,1.200000000,0.000000000,0.800000000,0.000000000
6.820000000,0.000000000,-0.800000000,1.200000000,0.000000000,0.800000000,0.000000000
6.839000000,0.000000000,-0.800000000,1.200000000,0.000000000,0.800000000,0.000000000
6.860000000,0.000000000,-0.800000000,1.200000000,0.000000000,0.800000000,0.000000000
6.880000000,0.000000000,-0.800000000,1.200000000,0.000000000,0.800000000,0.000000000
6.900000000,0.000000000,-0.800000000,1.200000000,0.000000000,0.800000000,0.000000000
6.920000000,0.000000000,-0.800000000,1.200000000,0.000000000,0.800000000,0.000000000
6.940000000,0.000000000,-0.800000000,1.200000000,0.000000000,0.800000000,0.000000000
6.960000000,0.000000000,-0.800000000,1.200000000,0.000000000,0.800000000,0.000000000
6.980000000,0.000000000,-0.800000000,1.200000000,0.000000000,0.800000000,0.000000000
7.000000000,0.000000000,-0.800000000,1.200000000,0.000000000,0.800000000,0.000000000
7.020000000,0.000000000,-0.800000000,1.200000000,0.000000000,0.800000000,0.000000000
7.040000000,0.000000000,-0.800000000,1.200000000,0.000000000,0.800000000,0.000000000
7.058000000,0.000000000,-0.800000000,1.200000000,0.000000000,0.800000000,0.000000000
7.080000000,0.000000000,-0.800000000,1.200000000,0.000000000,0.800000000,0.000000000
7.100000000,0.000000000,-0.800000000,1.200000000,0.000000000,0.800000000,0.000000000
7.120000000,0.000000000,-0.800000000,1.200000000,0.000000000,0.800000000,0.000000000
7.140000000,0.000000000,-0.800000000,1.200000000,0.000000000,0.800000000,0.000000000
7.160000000,0.000000000,-0.800000000,1.200000000,0.000000000,0.800000000,0.000000000
7.179000000,0.000000000,-0.800000000,1.200000000,0.000000000,0.800000000,0.000000000
7.200000000,0.000000000,-0.800000000,1.200000000,0.000000000,0.800000000,0.000000000
7.220000000,0.000000000,-0.800000000,1.200000000,0.000000000,0.800000000,0.000000000
7.240000000,0.000000000,-0.800000000,1.200000000,0.000000000,0.800000000,0.000000000
7.260000000,0.000000000,-0.800000000,1.200000000,0.000000000,0.800000000,0.000000000
7.279000000,0.000000000,-0.800000000,1.200000000,0.000000000,0.800000000,0.000000000
7.300000000,0.000000000,-0.800000000,1.200000000,0.000000000,0.800000000,0.000000000
7.320000000,0.000000000,-0.800000000,1.200000000,0.000000000,0.800000000,0.000000000
7.340000000,0.000000000,-0.800000000,1.200000000,0.000000000,0.800000000,0.000000000
7.360000000,0.000000000,-0.800000000,1.200000000,0.000000000,0.800000000,0.000000000
7.380000000,0.000000000,-0.800000000,1.200000000,0.000000000,0.800000000,0.000000000
7.400000000,0.000000000,-0.800000000,1.200000000,0.000000000,0.800000000,0.000000000
7.420000000,0.000000000,-0.800000000,1.200000000,0.000000000,0.800000000,0.000000000
7.440000000,0.000000000,-0.800000000,1.200000000,0.000000000,0.800000000,0.000000000
7.460000000,0.000000000,-0.800000000,1.200000000,0.000000000,0.800000000,0.000000000
7.480000000,0.000000000,-0.800000000,1.200000000,0.000000000,0.800000000,0.000000000
7.500000000,0.000000000,-0.800000000,1.200000000,0.000000000,0.800000000,0.000000000
7.520000000,0.000000000,-0.800000000,1.200000000,0.000000000,0.800000000,0.000000000
7.540000000,0.000000000,-0.800000000,1.200000000,0.000000000,0.800000000,0.000000000
7.560000000,0.000000000,-0.800000000,1.200000000,0.000000000,0.800000000,0.000000000
7.580000000,0.000000000,-0.800000000,1.200000000,0.000000000,0.800000000,0.000000000
7.600000000,0.000000000,-0.800000000,1.200000000,0.000000000,0.800000000,0.000000000
7.620000000,0.000000000,-0.800000000,1.200000000,0.000000000,0.800000000,0.000000000
7.640000000,0.000000000,-0.800000000,1.200000000,0.000000000,0.800000000,0.000000000
7.660000000,0.000000000,-0.800000000,1.200000000,0.000000000,0.800000000,0.000000000
7.680000000,0.000000000,-0.800000000,1.200000000,0.000000000,0.800000000,0.000000000
7.700000000,0.000000000,-0.800000000,1.200000000,0.000000000,0.800000000,0.000000000
7.720000000,0.000000000,-0.800000000,1.200000000,0.000000000,0.800000000,0.000000000
7.740000000,0.000000000,-0.800000000,1.200000000,0.000000000,0.800000000,0.000000000
7.760000000,0.000000000,-0.800000000,1.200000000,0.000000000,0.800000000,0.000000000
7.780000000,0.000000000,-0.800000000,1.200000000,0.000000000,0.800000000,0.000000000
7.800000000,0.000000000,-0.800000000,1.200000000,0.000000000,0.800000000,0.000000000
7.820000000,0.000000000,-0.800000000,1.200000000,0.000000000,0.800000000,0.000000000
7.840000000,0.000000000,-0.800000000,1.200000000,0.000000000,0.800000000,0.000000000
7.860000000,0.000000000,-0.800000000,1.200000000,0.000000000,0.800000000,0.000000000
7.879000000,0.000000000,-0.800000000,1.200000000,0.000000000,0.800000000,0.000000000
7.899000000,0.000000000,-0.800000000,1.200000000,0.000000000,0.800000000,0.000000000
7.920000000,0.000000000,-0.800000000,1.200000000,0.000000000,0.800000000,0.000000000
7.940000000,0.000000000,-0.800000000,1.200000000,0.000000000,0.800000000,0.000000000
7.960000000,0.000000000,-0.800000000,1.200000000,0.000000000,0.800000000,0.000000000
7.980000000,0.000000000,-0.800000000,1.200000000,0.000000000,0.800000000,0.000000000
8.000000000,0.000000000,-0.800000000,1.200000000,0.000000000,0.800000000,0.000000000
8.020000000,0.000000000,-0.800000000,1.200000000,0.000000000,0.800000000,0.000000000
8.040000000,0.000000000,-0.800000000,1.200000000,0.000000000,0.800000000,0.000000000
8.060000000,0.000000000,-0.800000000,1.200000000,0.000000000,0.800000000,0.000000000
8.080000000,0.000000000,-0.800000000,1.200000000,0.000000000,0.800000000,0.000000000
8.100000000,0.000000000,-0.800000000,1.200000000,0.000000000,0.800000000,0.000000000
8.120000000,0.000000000,-0.800000000,1.200000000,0.000000000,0.800000000,0.000000000
8.140000000,0.000000000,-0.800000000,1.200000000,0.000000000,0.800000000,0.000000000
8.160000000,0.000000000,-0.800000000,1.200000000,0.000000000,0.800000000,0.000000000
8.175000000,0.000000000,-0.800000000,1.200000000,0.000000000,0.800000000,0.000000000
8.200000000,0.000000000,-0.800000000,1.200000000,0.000000000,0.800000000,0.000000000
8.220000000,0.000000000,-0.800000000,1.200000000,0.000000000,0.800000000,0.000000000
8.240000000,0.000000000,-0.800000000,1.200000000,0.000000000,0.800000000,0.000000000
8.260000000,0.000000000,-0.800000000,1.200000000,0.000000000,0.800000000,0.000000000
8.279000000,0.000000000,-0.800000000,1.200000000,0.000000000,0.800000000,0.000000000
8.300000000,0.000000000,-0.800000000,1.200000000,0.000000000,0.800000000,0.000000000
8.320000000,0.000000000,-0.800000000,1.200000000,0.000000000,0.800000000,0.000000000
8.340000000,0.000000000,-0.800000000,1.200000000,0.000000000,0.800000000,0.000000000
8.360000000,0.000000000,-0.800000000,1.200000000,0.000000000,0.800000000,0.000000000
8.380000000,0.000000000,-0.800000000,1.200000000,0.000000000,0.800000000,0.000000000
8.400000000,0.000000000,-0.800000000,1.200000000,0.000000000,0.800000000,0.000000000
8.420000000,0.000000000,-0.800000000,1.200000000,0.000000000,0.800000000,0.000000000
8.440000000,0.000000000,-0.800000000,1.200000000,0.000000000,0.800000000,0.000000000
8.460000000,0.000000000,-0.800000000,1.200000000,0.000000000,0.800000000,0.000000000
8.480000000,0.000000000,-0.800000000,1.200000000,0.000000000,0.800000000,0.000000000
8.500000000,0.000000000,-0.800000000,1.200000000,0.000000000,0.800000000,0.000000000
8.520000000,0.000000000,-0.800000000,1.200000000,0.000000000,0.800000000,0.000000000
8.540000000,0.000000000,-0.800000000,1.200000000,0.000000000,0.800000000,0.000000000
8.560000000,0.000000000,-0.800000000,1.200000000,0.000000000,0.800000000,0.000000000
8.580000000,0.000000000,-0.800000000,1.200000000,0.000000000,0.800000000,0.000000000
8.600000000,0.000000000,-0.800000000,1.200000000,0.000000000,0.800000000,0.000000000
8.620000000,0.000000000,-0.800000000,1.200000000,0.000000000,0.800000000,0.000000000
8.640000000,0.000000000,-0.800000000,1.200000000,0.000000000,0.800000000,0.000000000
8.660000000,0.000000000,-0.800000000,1.200000000,0.000000000,0.800000000,0.000000000
8.680000000,0.000000000,-0.800000000,1.200000000,0.000000000,0.800000000,0.000000000
8.700000000,0.000000000,-0.800000000,1.200000000,0.000000000,0.800000000,0.000000000
8.720000000,0.000000000,-0.800000000,1.200000000,0.000000000,0.800000000,0.000000000
8.740000000,0.000000000,-0.800000000,1.200000000,0.000000000,0.800000000,0.000000000
8.760000000,0.000000000,-0.800000000,1.200000000,0.000000000,0.800000000,0.000000000
8.780000000,0.000000000,-0.800000000,1.200000000,0.000000000,0.800000000,0.000000000
8.800000000,0.000000000,-0.800000000,1.200000000,0.000000000,0.800000000,0.000000000
8.820000000,0.000000000,-0.800000000,1.200000000,0.000000000,0.800000000,0.000000000
8.840000000,0.000000000,-0.800000000,1.200000000,0.000000000,0.800000000,0.000000000
8.860000000,0.000000000,-0.800000000,1.200000000,0.000000000,0.800000000,0.000000000
8.880000000,0.000000000,-0.800000000,1.200000000,0.000000000,0.800000000,0.000000000
8.900000000,0.000000000,-0.800000000,1.200000000,0.000000000,0.800000000,0.000000000
8.920000000,0.000000000,-0.800000000,1.200000000,0.000000000,0.800000000,0.000000000
8.940000000,0.000000000,-0.800000000,1.200000000,0.000000000,0.800000000,0.000000000
8.960000000,0.000000000,-0.800000000,1.200000000,0.000000000,0.800000000,0.000000000
8.980000000,0.000000000,-0.800000000,1.200000000,0.000000000,0.800000000,0.000000000
9.000000000,0.000000000,-0.800000000,1.200000000,0.000000000,0.800000000,0.000000000
9.020000000,0.000000000,-0.800000000,1.200000000,0.000000000,0.800000000,0.000000000
9.040000000,0.000000000,-0.800000000,1.200000000,0.000000000,0.800000000,0.000000000
9.060000000,0.000000000,-0.800000000,1.200000000,0.000000000,0.800000000,0.000000000
9.080000000,0.000000000,-0.800000000,1.200000000,0.000000000,0.800000000,0.000000000
9.100000000,0.000000000,-0.800000000,1.200000000,0.000000000,0.800000000,0.000000000
9.120000000,0.000000000,-0.800000000,1.200000000,0.000000000,0.800000000,0.000000000
9.140000000,0.000000000,-0.800000000,1.200000000,0.000000000,0.800000000,0.000000000
9.160000000,0.000000000,-0.800000000,1.200000000,0.000000000,0.800000000,0.000000000
9.180000000,0.000000000,-0.800000000,1.200000000,0.000000000,0.800000000,0.000000000
9.200000000,0.000000000,-0.800000000,1.200000000,0.000000000,0.800000000,0.000000000
9.220000000,0.000000000,-0.800000000,1.200000000,0.000000000,0.800000000,0.000000000
9.240000000,0.000000000,-0.800000000,1.200000000,0.000000000,0.800000000,0.000000000
9.258000000,0.000000000,-0.800000000,1.200000000,0.000000000,0.800000000,0.000000000
9.280000000,0.000000000,-0.800000000,1.200000000,0.000000000,0.800000000,0.000000000
9.300000000,0.000000000,-0.800000000,1.200000000,0.000000000,0.800000000,0.000000000
9.320000000,0.000000000,-0.800000000,1.200000000,0.000000000,0.800000000,0.000000000
9.340000000,0.000000000,-0.800000000,1.200000000,0.000000000,0.800000000,0.000000000
9.360000000,0.000000000,-0.800000000,1.200000000,0.000000000,0.800000000,0.000000000
9.380000000,0.000000000,-0.800000000,1.200000000,0.000000000,0.800000000,0.000000000
9.400000000,0.000000000,-0.800000000,1.200000000,0.000000000,0.800000000,0.000000000
9.420000000,0.000000000,-0.800000000,1.200000000,0.000000000,0.800000000,0.000000000
9.440000000,0.000000000,-0.800000000,1.200000000,0.000000000,0.800000000,0.000000000
9.460000000,0.000000000,-0.800000000,1.200000000,0.000000000,0.800000000,0.000000000
9.480000000,0.000000000,-0.800000000,1.200000000,0.000000000,0.800000000,0.000000000
9.500000000,0.000000000,-0.800000000,1.200000000,0.000000000,0.800000000,0.000000000
9.520000000,0.000000000,-0.800000000,1.200000000,0.000000000,0.800000000,0.000000000
9.540000000,0.000000000,-0.800000000,1.200000000,0.000000000,0.800000000,0.000000000
9.560000000,0.000000000,-0.800000000,1.200000000,0.000000000,0.800000000,0.000000000
9.580000000,0.000000000,-0.800000000,1.200000000,0.000000000,0.800000000,0.000000000
9.600000000,0.000000000,-0.800000000,1.200000000,0.000000000,0.800000000,0.000000000
9.620000000,0.000000000,-0.800000000,1.200000000,0.000000000,0.800000000,0.000000000
9.640000000,0.000000000,-0.800000000,1.200000000,0.000000000,0.800000000,0.000000000
9.660000000,0.000000000,-0.800000000,1.200000000,0.000000000,0.800000000,0.000000000
9.680000000,0.000000000,-0.800000000,1.200000000,0.000000000,0.800000000,0.000000000
9.700000000,0.000000000,-0.800000000,1.200000000,0.000000000,0.800000000,0.000000000
9.720000000,0.000000000,-0.800000000,1.200000000,0.000000000,0.800000000,0.000000000
9.740000000,0.000000000,-0.800000000,1.200000000,0.000000000,0.800000000,0.000000000
9.760000000,0.000000000,-0.800000000,1.200000000,0.000000000,0.800000000,0.000000000
9.780000000,0.000000000,-0.800000000,1.200000000,0.000000000,0.800000000,0.000000000
9.800000000,0.000000000,-0.800000000,1.200000000,0.000000000,0.800000000,0.000000000
9.820000000,0.000000000,-0.800000000,1.200000000,0.000000000,0.800000000,0.000000000
9.840000000,0.000000000,-0.800000000,1.200000000,0.000000000,0.800000000,0.000000000
9.860000000,0.000000000,-0.800000000,1.200000000,0.000000000,0.800000000,0.000000000
9.880000000,0.000000000,-0.800000000,1.200000000,0.000000000,0.800000000,0.000000000
9.900000000,0.000000000,-0.800000000,1.200000000,0.000000000,0.800000000,0.000000000
9.920000000,0.000000000,-0.800000000,1.200000000,0.000000000,0.800000000,0.000000000
9.940000000,0.000000000,-0.800000000,1.200000000,0.000000000,0.800000000,0.000000000
9.960000000,0.000000000,-0.800000000,1.200000000,0.000000000,0.800000000,0.000000000
9.980000000,0.000000000,-0.800000000,1.200000000,0.000000000,0.800000000,0.000000000
10.000000000,0.000000000,-0.800000000,1.200000000,0.000000000,0.800000000,0.000000000
10.019000000,0.000000000,-0.800000000,1.200000000,0.000000000,0.800000000,0.000000000
10.040000000,0.000000000,-0.800000000,1.200000000,0.000000000,0.800000000,0.000000000
10.060000000,0.000000000,-0.800000000,1.200000000,0.000000000,0.800000000,0.000000000
10.080000000,0.000000000,-0.800000000,1.200000000,0.000000000,0.800000000,0.000000000
10.100000000,0.000000000,-0.800000000,1.200000000,0.000000000,0.800000000,0.000000000
10.118000000,0.000000000,-0.800000000,1.200000000,0.000000000,0.800000000,0.000000000
10.140000000,0.000000000,-0.800000000,1.200000000,0.000000000,0.800000000,0.000000000
10.160000000,0.000000000,-0.800000000,1.200000000,0.000000000,0.800000000,0.000000000
10.180000000,0.000000000,-0.800000000,1.200000000,0.000000000,0.800000000,0.000000000
10.200000000,0.000000000,-0.800000000,1.200000000,0.000000000,0.800000000,0.000000000
10.220000000,0.000000000,-0.800000000,1.200000000,0.000000000,0.800000000,0.000000000
10.240000000,0.000000000,-0.800000000,1.200000000,0.000000000,0.800000000,0.000000000
10.252000000,0.000000000,-0.800000000,1.200000000,0.000000000,0.800000000,0.000000000
10.252000000,0.000000000,-0.800000000,1.200000000,0.000000000,0.800000000,0.000000000
10.299000000,0.000000000,-0.800000000,1.200000000,0.000000000,0.800000000,0.000000000
10.320000000,0.000000000,-0.800000000,1.200000000,0.000000000,0.800000000,0.000000000
10.340000000,0.000000000,-0.800000000,1.200000000,0.000000000,0.800000000,0.000000000
10.360000000,0.000000000,-0.800000000,1.200000000,0.000000000,0.800000000,0.000000000
10.380000000,0.000000000,-0.800000000,1.200000000,0.000000000,0.800000000,0.000000000
10.397000000,0.000000000,-0.800000000,1.200000000,0.000000000,0.800000000,0.000000000
10.420000000,0.000000000,-0.800000000,1.200000000,0.000000000,0.800000000,0.000000000
10.440000000,0.000000000,-0.800000000,1.200000000,0.000000000,0.800000000,0.000000000
10.460000000,0.000000000,-0.800000000,1.200000000,0.000000000,0.800000000,0.000000000
10.480000000,0.000000000,-0.800000000,1.200000000,0.000000000,0.800000000,0.000000000
10.500000000,0.000000000,-0.800000000,1.200000000,0.000000000,0.800000000,0.000000000
10.520000000,0.000000000,-0.800000000,1.200000000,0.000000000,0.800000000,0.000000000
10.540000000,0.000000000,-0.800000000,1.200000000,0.000000000,0.800000000,0.000000000
10.560000000,0.000000000,-0.800000000,1.200000000,0.000000000,0.800000000,0.000000000
10.580000000,0.000000000,-0.800000000,1.200000000,0.000000000,0.800000000,0.000000000
10.600000000,0.000000000,-0.800000000,1.200000000,0.000000000,0.800000000,0.000000000
10.620000000,0.000000000,-0.800000000,1.200000000,0.000000000,0.800000000,0.000000000
10.640000000,0.000000000,-0.800000000,1.200000000,0.000000000,0.800000000,0.000000000
10.660000000,0.000000000,-0.800000000,1.200000000,0.000000000,0.800000000,0.000000000
10.680000000,0.000000000,-0.800000000,1.200000000,0.000000000,0.800000000,0.000000000
10.700000000,0.000000000,-0.800000000,1.200000000,0.000000000,0.800000000,0.000000000
10.720000000,0.000000000,-0.800000000,1.200000000,0.000000000,0.800000000,0.000000000
10.740000000,0.000000000,-0.800000000,1.200000000,0.000000000,0.800000000,0.000000000
10.760000000,0.000000000,-0.800000000,1.200000000,0.000000000,0.800000000,0.000000000
10.780000000,0.000000000,-0.800000000,1.200000000,0.000000000,0.800000000,0.000000000
10.800000000,0.000000000,-0.800000000,1.200000000,0.000000000,0.800000000,0.000000000
10.820000000,0.000000000,-0.800000000,1.200000000,0.000000000,0.800000000,0.000000000
10.839000000,0.000000000,-0.800000000,1.200000000,0.000000000,0.800000000,0.000000000
10.860000000,0.000000000,-0.800000000,1.200000000,0.000000000,0.800000000,0.000000000
10.880000000,0.000000000,-0.800000000,1.200000000,0.000000000,0.800000000,0.000000000
10.900000000,0.000000000,-0.800000000,1.200000000,0.000000000,0.800000000,0.000000000
10.920000000,0.000000000,-0.800000000,1.200000000,0.000000000,0.800000000,0.000000000
10.940000000,0.000000000,-0.800000000,1.200000000,0.000000000,0.800000000,0.000000000
10.960000000,0.000000000,-0.800000000,1.200000000,0.000000000,0.800000000,0.000000000
10.980000000,0.000000000,-0.800000000,1.200000000,0.000000000,0.800000000,0.000000000
11.000000000,0.000000000,-0.800000000,1.200000000,0.000000000,0.800000000,0.000000000
11.020000000,-0.000000000,-0.800000000,1.200000000,0.000000000,0.800000000,0.000000000
11.040000000,-0.000000000,-0.800000000,1.200000000,0.000000000,0.800000000,0.000000000
11.060000000,-0.000000000,-0.800000000,1.200000000,0.000000000,0.800000000,0.000000000
11.080000000,-0.000000000,-0.800000000,1.200000000,0.000000000,0.800000000,0.000000000
11.100000000,-0.000000000,-0.800000000,1.200000000,0.000000000,0.800000000,0.000000000
11.120000000,-0.000000000,-0.800000000,1.200000000,0.000000000,0.800000000,0.000000000
11.140000000,-0.000000000,-0.800000000,1.200000000,0.000000000,0.800000000,0.000000000
11.160000000,-0.000000000,-0.800000000,1.200000000,0.000000000,0.800000000,0.000000000
11.180000000,-0.000000000,-0.800000000,1.200000000,0.000000000,0.800000000,0.000000000
11.200000000,-0.000000000,-0.800000000,1.200000000,0.000000000,0.800000000,0.000000000
11.220000000,0.000000000,-0.800000000,1.200000000,0.000000000,0.800000000,0.000000000
11.240000000,-0.000000000,-0.800000000,1.200000000,0.000000000,0.800000000,0.000000000
11.260000000,-0.000000000,-0.800000000,1.200000000,0.000000000,0.800000000,0.000000000
11.278000000,-0.000000000,-0.800000000,1.200000000,0.000000000,0.800000000,0.000000000
11.300000000,-0.000000000,-0.800000000,1.200000000,0.000000000,0.800000000,0.000000000
11.320000000,-0.000000000,-0.800000000,1.200000000,0.000000000,0.800000000,0.000000000
11.340000000,-0.000000000,-0.800000000,1.200000000,0.000000000,0.800000000,0.000000000
11.360000000,-0.000000000,-0.800000000,1.200000000,0.000000000,0.800000000,0.000000000
11.380000000,-0.000000000,-0.800000000,1.200000000,0.000000000,0.800000000,0.000000000
11.400000000,-0.000000000,-0.800000000,1.200000000,0.000000000,0.800000000,0.000000000
11.420000000,-0.000000000,-0.800000000,1.200000000,0.000000000,0.800000000,0.000000000
11.440000000,-0.000000000,-0.800000000,1.200000000,0.000000000,0.800000000,0.000000000
11.460000000,-0.000000000,-0.800000000,1.200000000,0.000000000,0.800000000,0.000000000
11.476000000,-0.000000000,-0.800000000,1.200000000,0.000000000,0.800000000,0.000000000
11.500000000,-0.000000000,-0.800000000,1.200000000,0.000000000,0.800000000,0.000000000
11.520000000,-0.000000000,-0.800000000,1.200000000,0.000000000,0.800000000,0.000000000
11.540000000,-0.000000000,-0.800000000,1.200000000,0.000000000,0.800000000,0.000000000
11.560000000,-0.000000000,-0.800000000,1.200000000,0.000000000,0.800000000,0.000000000
11.580000000,-0.000000000,-0.800000000,1.200000000,0.000000000,0.800000000,0.000000000
11.600000000,-0.000000000,-0.800000000,1.200000000,0.000000000,0.800000000,0.000000000
11.620000000,-0.000000000,-0.800000000,1.200000000,0.000000000,0.800000000,0.000000000
11.640000000,-0.000000000,-0.800000000,1.200000000,0.000000000,0.800000000,0.000000000
11.660000000,-0.000000000,-0.800000000,1.200000000,0.000000000,0.800000000,0.000000000
11.680000000,-0.000000000,-0.800000000,1.200000000,0.000000000,0.800000000,0.000000000
11.700000000,-0.000000000,-0.800000000,1.200000000,0.000000000,0.800000000,0.000000000
11.720000000,-0.000000000,-0.800000000,1.200000000,0.000000000,0.800000000,0.000000000
11.740000000,-0.000000000,-0.800000000,1.200000000,0.000000000,0.800000000,0.000000000
11.760000000,-0.000000000,-0.800000000,1.200000000,0.000000000,0.800000000,0.000000000
11.780000000,-0.000000000,-0.800000000,1.200000000,0.000000000,0.800000000,0.000000000
11.800000000,-0.000000000,-0.800000000,1.200000000,0.000000000,0.800000000,0.000000000
11.820000000,-0.000000000,-0.800000000,1.200000000,0.000000000,0.800000000,0.000000000
11.840000000,-0.000000000,-0.800000000,1.200000000,0.000000000,0.800000000,0.000000000
11.860000000,-0.000000000,-0.800000000,1.200000000,0.000000000,0.800000000,0.000000000
11.880000000,-0.000000000,-0.800000000,1.200000000,0.000000000,0.800000000,0.000000000
11.900000000,-0.000000000,-0.800000000,1.200000000,0.000000000,0.800000000,0.000000000
11.920000000,-0.000000000,-0.800000000,1.200000000,0.000000000,0.800000000,0.000000000
11.940000000,-0.000000000,-0.800000000,1.200000000,0.000000000,0.800000000,0.000000000
11.960000000,-0.000000000,-0.800000000,1.200000000,0.000000000,0.800000000,0.000000000
11.980000000,-0.000000000,-0.800000000,1.200000000,0.000000000,0.800000000,0.000000000
12.000000000,-0.000000000,-0.800000000,1.200000000,0.000000000,0.800000000,0.000000000
12.020000000,-0.000000000,-0.800000000,1.200000000,0.000000000,0.800000000,0.000000000
12.040000000,-0.000000000,-0.800000000,1.200000000,0.000000000,0.800000000,0.000000000
12.060000000,-0.000000000,-0.800000000,1.200000000,0.000000000,0.800000000,0.000000000
12.080000000,-0.000000000,-0.800000000,1.200000000,0.000000000,0.800000000,0.000000000
12.100000000,-0.000000000,-0.800000000,1.200000000,0.000000000,0.800000000,0.000000000
12.120000000,-0.000000000,-0.800000000,1.200000000,0.000000000,0.800000000,0.000000000
12.140000000,-0.000000000,-0.800000000,1.200000000,0.000000000,0.800000000,0.000000000
12.160000000,-0.000000000,-0.800000000,1.200000000,0.000000000,0.800000000,0.000000000
12.180000000,-0.000000000,-0.800000000,1.200000000,0.000000000,0.800000000,0.000000000
12.200000000,-0.000000000,-0.800000000,1.200000000,0.000000000,0.800000000,0.000000000
12.220000000,-0.000000000,-0.800000000,1.200000000,0.000000000,0.800000000,0.000000000
12.240000000,-0.000000000,-0.800000000,1.200000000,0.000000000,0.800000000,0.000000000
12.260000000,-0.000000000,-0.800000000,1.200000000,0.000000000,0.800000000,0.000000000
12.280000000,-0.000000000,-0.800000000,1.200000000,0.000000000,0.800000000,0.000000000
12.300000000,-0.000000000,-0.800000000,1.200000000,0.000000000,0.800000000,0.000000000
12.320000000,-0.000000000,-0.800000000,1.200000000,0.000000000,0.800000000,0.000000000
12.340000000,-0.000000000,-0.800000000,1.200000000,0.000000000,0.800000000,0.000000000
12.360000000,-0.000000000,-0.800000000,1.200000000,0.000000000,0.800000000,0.000000000
12.380000000,-0.000000000,-0.800000000,1.200000000,0.000000000,0.800000000,0.000000000
12.400000000,-0.000000000,-0.800000000,1.200000000,0.000000000,0.800000000,0.000000000
12.420000000,-0.000000000,-0.800000000,1.200000000,0.000000000,0.800000000,0.000000000
12.440000000,-0.000000000,-0.800000000,1.200000000,0.000000000,0.800000000,0.000000000
12.460000000,-0.000000000,-0.800000000,1.200000000,0.000000000,0.800000000,0.000000000
12.480000000,-0.000000000,-0.800000000,1.200000000,0.000000000,0.800000000,0.000000000
12.500000000,-0.000000000,-0.800000000,1.200000000,0.000000000,0.800000000,0.000000000
12.520000000,-0.000000000,-0.800000000,1.200000000,0.000000000,0.800000000,0.000000000
12.540000000,-0.000000000,-0.800000000,1.200000000,0.000000000,0.800000000,0.000000000
12.560000000,-0.000000000,-0.800000000,1.200000000,0.000000000,0.800000000,0.000000000
12.580000000,-0.000000000,-0.800000000,1.200000000,0.000000000,0.800000000,0.000000000
12.600000000,-0.000000000,-0.800000000,1.200000000,0.000000000,0.800000000,0.000000000
12.620000000,-0.000000000,-0.800000000,1.200000000,0.000000000,0.800000000,0.000000000
12.639000000,-0.000000000,-0.800000000,1.200000000,0.000000000,0.800000000,0.000000000
12.660000000,-0.000000000,-0.800000000,1.200000000,0.000000000,0.800000000,0.000000000
12.680000000,-0.000000000,-0.800000000,1.200000000,0.000000000,0.800000000,0.000000000
12.700000000,-0.000000000,-0.800000000,1.200000000,0.000000000,0.800000000,0.000000000
12.720000000,-0.000000000,-0.800000000,1.200000000,0.000000000,0.800000000,0.000000000
12.740000000,-0.000000000,-0.800000000,1.200000000,0.000000000,0.800000000,0.000000000
12.760000000,-0.000000000,-0.800000000,1.200000000,0.000000000,0.800000000,0.000000000
12.780000000,-0.000000000,-0.800000000,1.200000000,0.000000000,0.800000000,0.000000000
12.800000000,-0.000000000,-0.800000000,1.200000000,0.000000000,0.800000000,0.000000000
12.820000000,-0.000000000,-0.800000000,1.200000000,0.000000000,0.800000000,0.000000000
12.840000000,-0.000000000,-0.800000000,1.200000000,0.000000000,0.800000000,0.000000000
12.860000000,-0.000000000,-0.800000000,1.200000000,0.000000000,0.800000000,0.000000000
12.880000000,-0.000000000,-0.800000000,1.200000000,0.000000000,0.800000000,0.000000000
12.900000000,-0.000000000,-0.800000000,1.200000000,0.000000000,0.800000000,0.000000000
12.920000000,-0.000000000,-0.800000000,1.200000000,0.000000000,0.800000000,0.000000000
12.940000000,-0.000000000,-0.800000000,1.200000000,0.000000000,0.800000000,0.000000000
12.960000000,-0.000000000,-0.800000000,1.200000000,0.000000000,0.800000000,0.000000000
12.979000000,-0.000000000,-0.800000000,1.200000000,0.000000000,0.800000000,0.000000000
13.000000000,-0.000000000,-0.800000000,1.200000000,0.000000000,0.800000000,0.000000000
13.020000000,-0.000000000,-0.800000000,1.200000000,0.000000000,0.800000000,0.000000000
13.040000000,-0.000000000,-0.800000000,1.200000000,0.000000000,0.800000000,0.000000000
13.060000000,-0.000000000,-0.800000000,1.200000000,0.000000000,0.800000000,0.000000000
13.080000000,-0.000000000,-0.800000000,1.200000000,0.000000000,0.800000000,0.000000000
13.100000000,-0.000000000,-0.800000000,1.200000000,0.000000000,0.800000000,0.000000000
13.120000000,-0.000000000,-0.800000000,1.200000000,0.000000000,0.800000000,0.000000000
13.139000000,-0.000000000,-0.800000000,1.200000000,0.000000000,0.800000000,0.000000000
13.160000000,-0.000000000,-0.800000000,1.200000000,0.000000000,0.800000000,0.000000000
13.180000000,-0.000000000,-0.800000000,1.200000000,0.000000000,0.800000000,0.000000000
13.200000000,-0.000000000,-0.800000000,1.200000000,0.000000000,0.800000000,0.000000000
13.220000000,-0.000000000,-0.800000000,1.200000000,0.000000000,0.800000000,0.000000000
13.240000000,-0.000000000,-0.800000000,1.200000000,0.000000000,0.800000000,0.000000000
13.260000000,-0.000000000,-0.800000000,1.200000000,0.000000000,0.800000000,0.000000000
13.280000000,-0.000000000,-0.800000000,1.200000000,0.000000000,0.800000000,0.000000000
13.300000000,-0.000000000,-0.800000000,1.200000000,0.000000000,0.800000000,0.000000000
13.320000000,-0.000000000,-0.800000000,1.200000000,0.000000000,0.800000000,0.000000000
13.340000000,-0.000000000,-0.800000000,1.200000000,0.000000000,0.800000000,0.000000000
13.360000000,-0.000000000,-0.800000000,1.200000000,0.000000000,0.800000000,0.000000000
13.380000000,-0.000000000,-0.800000000,1.200000000,0.000000000,0.800000000,0.000000000
13.400000000,-0.000000000,-0.800000000,1.200000000,0.000000000,0.800000000,0.000000000
13.420000000,-0.000000000,-0.800000000,1.200000000,0.000000000,0.800000000,0.000000000
13.440000000,-0.000000000,-0.800000000,1.200000000,0.000000000,0.800000000,0.000000000
13.460000000,-0.000000000,-0.800000000,1.200000000,0.000000000,0.800000000,0.000000000
13.479000000,-0.000000000,-0.800000000,1.200000000,0.000000000,0.800000000,0.000000000
13.500000000,-0.000000000,-0.800000000,1.200000000,0.000000000,0.800000000,0.000000000
13.520000000,-0.000000000,-0.800000000,1.200000000,0.000000000,0.800000000,0.000000000
13.540000000,-0.000000000,-0.800000000,1.200000000,0.000000000,0.800000000,0.000000000
13.560000000,-0.000000000,-0.800000000,1.200000000,0.000000000,0.800000000,0.000000000
13.580000000,-0.000000000,-0.800000000,1.200000000,0.000000000,0.800000000,0.000000000
13.600000000,-0.000000000,-0.800000000,1.200000000,0.000000000,0.800000000,0.000000000
13.619000000,-0.000000000,-0.800000000,1.200000000,0.000000000,0.800000000,0.000000000
13.640000000,-0.000000000,-0.800000000,1.200000000,0.000000000,0.800000000,0.000000000
13.660000000,-0.000000000,-0.800000000,1.200000000,0.000000000,0.800000000,0.000000000
13.680000000,-0.000000000,-0.800000000,1.200000000,0.000000000,0.800000000,0.000000000
13.700000000,-0.000000000,-0.800000000,1.200000000,0.000000000,0.800000000,0.000000000
13.720000000,-0.000000000,-0.800000000,1.200000000,0.000000000,0.800000000,0.000000000
13.739000000,-0.000000000,-0.800000000,1.200000000,0.000000000,0.800000000,0.000000000
13.760000000,-0.000000000,-0.800000000,1.200000000,0.000000000,0.800000000,0.000000000
13.780000000,-0.000000000,-0.800000000,1.200000000,0.000000000,0.800000000,0.000000000
13.800000000,-0.000000000,-0.800000000,1.200000000,0.000000000,0.800000000,0.000000000
13.820000000,-0.000000000,-0.800000000,1.200000000,0.000000000,0.800000000,0.000000000
13.840000000,-0.000000000,-0.800000000,1.200000000,0.000000000,0.800000000,0.000000000
13.860000000,-0.000000000,-0.800000000,1.200000000,0.000000000,0.800000000,0.000000000
13.880000000,-0.000000000,-0.800000000,1.200000000,0.000000000,0.800000000,0.000000000
13.900000000,-0.000000000,-0.800000000,1.200000000,0.000000000,0.800000000,0.000000000
13.920000000,-0.000000000,-0.800000000,1.200000000,0.000000000,0.800000000,0.000000000
13.940000000,-0.000000000,-0.800000000,1.200000000,0.000000000,0.800000000,0.000000000
13.960000000,-0.000000000,-0.800000000,1.200000000,0.000000000,0.800000000,0.000000000
13.980000000,-0.000000000,-0.800000000,1.200000000,0.000000000,0.800000000,0.000000000
14.000000000,-0.000000000,-0.800000000,1.200000000,0.000000000,0.800000000,0.000000000
14.019000000,-0.000000000,-0.800000000,1.200000000,0.000000000,0.800000000,0.000000000
14.040000000,-0.000000000,-0.800000000,1.200000000,0.000000000,0.800000000,0.000000000
14.060000000,-0.000000000,-0.800000000,1.200000000,0.000000000,0.800000000,0.000000000
14.078000000,-0.000000000,-0.800000000,1.200000000,0.000000000,0.800000000,0.000000000
14.097000000,-0.000000000,-0.800000000,1.200000000,0.000000000,0.800000000,0.000000000
14.120000000,-0.000000000,-0.800000000,1.200000000,0.000000000,0.800000000,0.000000000
14.140000000,-0.000000000,-0.800000000,1.200000000,0.000000000,0.800000000,0.000000000
14.160000000,-0.000000000,-0.800000000,1.200000000,0.000000000,0.800000000,0.000000000
14.179000000,-0.000000000,-0.800000000,1.200000000,0.000000000,0.800000000,0.000000000
14.200000000,-0.000000000,-0.800000000,1.200000000,0.000000000,0.800000000,0.000000000
14.220000000,0.000166667,-0.800000000,1.200000000,0.000000000,0.800000000,0.000000000
14.240000000,0.000483333,-0.800000000,1.200000000,0.000000000,0.800000000,0.000000000
14.260000000,0.000935000,-0.800000000,1.200000000,0.000000000,0.800000000,0.000000000
14.280000000,0.001508167,-0.800000000,1.200000000,0.000000000,0.800000000,0.000000000
14.300000000,0.002190683,-0.800000000,1.200000000,0.000000000,0.800000000,0.000000000
14.320000000,0.002971615,-0.800000000,1.200000000,0.000000000,0.800000000,0.000000000
14.340000000,0.003841120,-0.800000000,1.200000000,0.000000000,0.800000000,0.000000000
14.360000000,0.004790341,-0.800000000,1.200000000,0.000000000,0.800000000,0.000000000
14.380000000,0.005811307,-0.800000000,1.200000000,0.000000000,0.800000000,0.000000000
14.400000000,0.006896843,-0.800000000,1.200000000,0.000000000,0.800000000,0.000000000
14.420000000,0.008040492,-0.800000000,1.200000000,0.000000000,0.800000000,0.000000000
14.440000000,0.009236443,-0.800000000,1.200000000,0.000000000,0.800000000,0.000000000
14.460000000,0.010479465,-0.800000000,1.200000000,0.000000000,0.800000000,0.000000000
14.480000000,0.011764852,-0.800000000,1.200000000,0.000000000,0.800000000,0.000000000
14.500000000,0.013088367,-0.800000000,1.200000000,0.000000000,0.800000000,0.000000000
14.520000000,0.014446197,-0.800000000,1.200000000,0.000000000,0.800000000,0.000000000
14.540000000,0.015834911,-0.800000000,1.200000000,0.000000000,0.800000000,0.000000000
14.560000000,0.017251420,-0.800000000,1.200000000,0.000000000,0.800000000,0.000000000
14.580000000,0.018692944,-0.800000000,1.200000000,0.000000000,0.800000000,0.000000000
14.600000000,0.020156983,-0.800000000,1.200000000,0.000000000,0.800000000,0.000000000
14.620000000,0.021641285,-0.800000000,1.200000000,0.000000000,0.800000000,0.000000000
14.640000000,0.023143823,-0.800000000,1.200000000,0.000000000,0.800000000,0.000000000
14.660000000,0.024662774,-0.800000000,1.200000000,0.000000000,0.800000000,0.000000000
14.680000000,0.026196497,-0.800000000,1.200000000,0.000000000,0.800000000,0.000000000
14.700000000,0.027743514,-0.800000000,1.200000000,0.000000000,0.800000000,0.000000000
14.720000000,0.029302496,-0.800000000,1.200000000,0.000000000,0.800000000,0.000000000
14.740000000,0.030872246,-0.800000000,1.200000000,0.000000000,0.800000000,0.000000000
14.760000000,0.032451688,-0.800000000,1.200000000,0.000000000,0.800000000,0.000000000
14.780000000,0.034039853,-0.800000000,1.200000000,0.000000000,0.800000000,0.000000000
14.800000000,0.035635867,-0.800000000,1.200000000,0.000000000,0.800000000,0.000000000
14.820000000,0.037238947,-0.800000000,1.200000000,0.000000000,0.800000000,0.000000000
14.840000000,0.038848386,-0.800000000,1.200000000,0.000000000,0.800000000,0.000000000
14.860000000,0.040463547,-0.800000000,1.200000000,0.000000000,0.800000000,0.000000000
14.880000000,0.042083859,-0.800000000,1.200000000,0.000000000,0.800000000,0.000000000
14.900000000,0.043708807,-0.800000000,1.200000000,0.000000000,0.800000000,0.000000000
14.920000000,0.045337926,-0.800000000,1.200000000,0.000000000,0.800000000,0.000000000
14.940000000,0.046970800,-0.800000000,1.200000000,0.000000000,0.800000000,0.000000000
14.960000000,0.048607053,-0.800000000,1.200000000,0.000000000,0.800000000,0.000000000
14.980000000,0.050246348,-0.800000000,1.200000000,0.000000000,0.800000000,0.000000000
15.000000000,0.051888380,-0.800000000,1.200000000,0.000000000,0.800000000,0.000000000
15.020000000,0.053532875,-0.800000000,1.200000000,0.000000000,0.800000000,0.000000000
15.040000000,0.055179588,-0.800000000,1.200000000,0.000000000,0.800000000,0.000000000
15.060000000,0.056828296,-0.800000000,1.200000000,0.000000000,0.800000000,0.000000000
15.080000000,0.058478799,-0.800000000,1.200000000,0.000000000,0.800000000,0.000000000
15.100000000,0.060130919,-0.800000000,1.200000000,0.000000000,0.800000000,0.000000000
15.120000000,0.061784494,-0.800000000,1.200000000,0.000000000,0.800000000,0.000000000
15.140000000,0.063439378,-0.800000000,1.200000000,0.000000000,0.800000000,0.000000000
15.160000000,0.065095440,-0.800000000,1.200000000,0.000000000,0.800000000,0.000000000
15.180000000,0.066752563,-0.800000000,1.200000000,0.000000000,0.800000000,0.000000000
15.200000000,0.068410640,-0.800000000,1.200000000,0.000000000,0.800000000,0.000000000
15.220000000,0.070069576,-0.800000000,1.200000000,0.000000000,0.800000000,0.000000000
15.240000000,0.071729285,-0.800000000,1.200000000,0.000000000,0.800000000,0.000000000
15.260000000,0.073389690,-0.800000000,1.200000000,0.000000000,0.800000000,0.000000000
15.280000000,0.075050721,-0.800000000,1.200000000,0.000000000,0.800000000,0.000000000
15.300000000,0.076712315,-0.800000000,1.200000000,0.000000000,0.800000000,0.000000000
15.320000000,0.078374417,-0.800000000,1.200000000,0.000000000,0.800000000,0.000000000
15.340000000,0.080036976,-0.800000000,1.200000000,0.000000000,0.800000000,0.000000000
15.360000000,0.081699945,-0.800000000,1.200000000,0.000000000,0.800000000,0.000000000
15.380000000,0.083363284,-0.800000000,1.200000000,0.000000000,0.800000000,0.000000000
15.400000000,0.085026955,-0.800000000,1.200000000,0.000000000,0.800000000,0.000000000
15.420000000,0.086690926,-0.800000000,1.200000000,0.000000000,0.800000000,0.000000000
15.440000000,0.088355167,-0.800000000,1.200000000,0.000000000,0.800000000,0.000000000
15.460000000,0.090019650,-0.800000000,1.200000000,0.000000000,0.800000000,0.000000000
15.480000000,0.091684352,-0.800000000,1.200000000,0.000000000,0.800000000,0.000000000
15.500000000,0.093349250,-0.800000000,1.200000000,0.000000000,0.800000000,0.000000000
15.519000000,0.095014325,-0.800000000,1.200000000,0.000000000,0.800000000,0.000000000
15.540000000,0.096671226,-0.800000000,1.200000000,0.000000000,0.800000000,0.000000000
15.560000000,0.098337437,-0.800000000,1.200000000,0.000000000,0.800000000,0.000000000
15.580000000,0.100003693,-0.800000000,1.200000000,0.000000000,0.800000000,0.000000000
15.600000000,0.101669990,-0.800000000,1.200000000,0.000000000,0.800000000,0.000000000
15.620000000,0.103336325,-0.800000000,1.200000000,0.000000000,0.800000000,0.000000000
15.640000000,0.105002692,-0.800000000,1.200000000,0.000000000,0.800000000,0.000000000
15.660000000,0.106669090,-0.800000000,1.200000000,0.000000000,0.800000000,0.000000000
15.680000000,0.108335514,-0.800000000,1.200000000,0.000000000,0.800000000,0.000000000
15.700000000,0.110001963,-0.800000000,1.200000000,0.000000000,0.800000000,0.000000000
15.720000000,0.111668433,-0.800000000,1.200000000,0.000000000,0.800000000,0.000000000
15.740000000,0.113334923,-0.800000000,1.200000000,0.000000000,0.800000000,0.000000000
15.760000000,0.115001431,-0.800000000,1.200000000,0.000000000,0.800000000,0.000000000
15.780000000,0.116667954,-0.800000000,1.200000000,0.000000000,0.800000000,0.000000000
15.800000000,0.118334492,-0.800000000,1.200000000,0.000000000,0.800000000,0.000000000
15.820000000,0.120001043,-0.800000000,1.200000000,0.000000000,0.800000000,0.000000000
15.840000000,0.121667605,-0.800000000,1.200000000,0.000000000,0.800000000,0.000000000
15.860000000,0.123334178,-0.800000000,1.200000000,0.000000000,0.800000000,0.000000000
15.880000000,0.125000760,-0.800000000,1.200000000,0.000000000,0.800000000,0.000000000
15.900000000,0.126667351,-0.800000000,1.200000000,0.000000000,0.800000000,0.000000000
15.920000000,0.128333949,-0.800000000,1.200000000,0.000000000,0.800000000,0.000000000
15.940000000,0.130000554,-0.800000000,1.200000000,0.000000000,0.800000000,0.000000000
15.960000000,0.131667166,-0.800000000,1.200000000,0.000000000,0.800000000,0.000000000
15.980000000,0.133333782,-0.800000000,1.200000000,0.000000000,0.800000000,0.000000000
16.000000000,0.135000404,-0.800000000,1.200000000,0.000000000,0.800000000,0.000000000
16.020000000,0.136667030,-0.800000000,1.200000000,0.000000000,0.800000000,0.000000000
16.040000000,0.138333661,-0.800000000,1.200000000,0.000000000,0.800000000,0.000000000
16.060000000,0.140000295,-0.800000000,1.200000000,0.000000000,0.800000000,0.000000000
16.080000000,0.141666932,-0.800000000,1.200000000,0.000000000,0.800000000,0.000000000
16.098000000,0.143333572,-0.800000000,1.200000000,0.000000000,0.800000000,0.000000000
16.120000000,0.144983548,-0.800000000,1.200000000,0.000000000,0.800000000,0.000000000
16.140000000,0.146651860,-0.800000000,1.200000000,0.000000000,0.800000000,0.000000000
16.160000000,0.148320007,-0.800000000,1.200000000,0.000000000,0.800000000,0.000000000
16.180000000,0.149988007,-0.800000000,1.200000000,0.000000000,0.800000000,0.000000000
16.200000000,0.151655873,-0.800000000,1.200000000,0.000000000,0.800000000,0.000000000
16.218000000,0.153323619,-0.800000000,1.200000000,0.000000000,0.800000000,0.000000000
16.240000000,0.154974590,-0.800000000,1.200000000,0.000000000,0.800000000,0.000000000
16.260000000,0.156643798,-0.800000000,1.200000000,0.000000000,0.800000000,0.000000000
16.280000000,0.158312751,-0.800000000,1.200000000,0.000000000,0.800000000,0.000000000
16.300000000,0.159981476,-0.800000000,1.200000000,0.000000000,0.800000000,0.000000000
16.320000000,0.161649995,-0.800000000,1.200000000,0.000000000,0.800000000,0.000000000
16.340000000,0.163318329,-0.800000000,1.200000000,0.000000000,0.800000000,0.000000000
16.360000000,0.164986496,-0.800000000,1.200000000,0.000000000,0.800000000,0.000000000
16.378000000,0.166654513,-0.800000000,1.200000000,0.000000000,0.800000000,0.000000000
16.400000000,0.168305729,-0.800000000,1.200000000,0.000000000,0.800000000,0.000000000
16.420000000,0.169975156,-0.800000000,1.200000000,0.000000000,0.800000000,0.000000000
16.440000000,0.171644307,-0.800000000,1.200000000,0.000000000,0.800000000,0.000000000
16.460000000,0.173313209,-0.800000000,1.200000000,0.000000000,0.800000000,0.000000000
16.480000000,0.174981888,-0.800000000,1.200000000,0.000000000,0.800000000,0.000000000
16.500000000,0.176650366,-0.800000000,1.200000000,0.000000000,0.800000000,0.000000000
16.520000000,0.178318663,-0.800000000,1.200000000,0.000000000,0.800000000,0.000000000
16.540000000,0.179986797,-0.800000000,1.200000000,0.000000000,0.800000000,0.000000000
16.560000000,0.181654784,-0.800000000,1.200000000,0.000000000,0.800000000,0.000000000
16.580000000,0.183322639,-0.800000000,1.200000000,0.000000000,0.800000000,0.000000000
16.600000000,0.184990375,-0.800000000,1.200000000,0.000000000,0.800000000,0.000000000
16.620000000,0.186658004,-0.800000000,1.200000000,0.000000000,0.800000000,0.000000000
16.640000000,0.188325537,-0.800000000,1.200000000,0.000000000,0.800000000,0.000000000
16.660000000,0.189992983,-0.800000000,1.200000000,0.000000000,0.800000000,0.000000000
16.680000000,0.191660352,-0.800000000,1.200000000,0.000000000,0.800000000,0.000000000
16.700000000,0.193327650,-0.800000000,1.200000000,0.000000000,0.800000000,0.000000000
16.720000000,0.194994885,-0.800000000,1.200000000,0.000000000,0.800000000,0.000000000
16.740000000,0.196662063,-0.800000000,1.200000000,0.000000000,0.800000000,0.000000000
16.760000000,0.198329190,-0.800000000,1.200000000,0.000000000,0.800000000,0.000000000
16.779000000,0.199996271,-0.800000000,1.200000000,0.000000000,0.800000000,0.000000000
16.800000000,0.201654977,-0.800000000,1.200000000,0.000000000,0.800000000,0.000000000
16.820000000,0.203322813,-0.800000000,1.200000000,0.000000000,0.800000000,0.000000000
16.840000000,0.204990532,-0.800000000,1.200000000,0.000000000,0.800000000,0.000000000
16.860000000,0.206658145,-0.800000000,1.200000000,0.000000000,0.800000000,0.000000000
16.880000000,0.208325664,-0.800000000,1.200000000,0.000000000,0.800000000,0.000000000
16.900000000,0.209993098,-0.800000000,1.200000000,0.000000000,0.800000000,0.000000000
16.920000000,0.211660454,-0.800000000,1.200000000,0.000000000,0.800000000,0.000000000
16.939000000,0.213327742,-0.800000000,1.200000000,0.000000000,0.800000000,0.000000000
16.960000000,0.214986635,-0.800000000,1.200000000,0.000000000,0.800000000,0.000000000
16.980000000,0.216654638,-0.800000000,1.200000000,0.000000000,0.800000000,0.000000000
17.000000000,0.218322507,-0.800000000,1.200000000,0.000000000,0.800000000,0.000000000
17.019000000,0.219990257,-0.800000000,1.200000000,0.000000000,0.800000000,0.000000000
17.040000000,0.221657898,-0.800000000,1.200000000,0.000000000,0.800000000,0.000000000
17.060000000,0.223325441,-0.800000000,1.200000000,0.000000000,0.800000000,0.000000000
17.079000000,0.224992897,-0.800000000,1.200000000,0.000000000,0.800000000,0.000000000
17.100000000,0.226651941,-0.800000000,1.200000000,0.000000000,0.800000000,0.000000000
17.120000000,0.228320080,-0.800000000,1.200000000,0.000000000,0.800000000,0.000000000
17.140000000,0.229988072,-0.800000000,1.200000000,0.000000000,0.800000000,0.000000000
17.160000000,0.231655931,-0.800000000,1.200000000,0.000000000,0.800000000,0.000000000
17.180000000,0.233323672,-0.800000000,1.200000000,0.000000000,0.800000000,0.000000000
17.200000000,0.234991305,-0.800000000,1.200000000,0.000000000,0.800000000,0.000000000
17.220000000,0.236658841,-0.800000000,1.200000000,0.000000000,0.800000000,0.000000000
17.236000000,0.238326290,-0.800000000,1.200000000,0.000000000,0.800000000,0.000000000
17.260000000,0.239960328,-0.800000000,1.200000000,0.000000000,0.800000000,0.000000000
17.280000000,0.241630962,-0.800000000,1.200000000,0.000000000,0.800000000,0.000000000
17.300000000,0.243301199,-0.800000000,1.200000000,0.000000000,0.800000000,0.000000000
17.320000000,0.244971079,-0.800000000,1.200000000,0.000000000,0.800000000,0.000000000
17.340000000,0.246640638,-0.800000000,1.200000000,0.000000000,0.800000000,0.000000000
17.360000000,0.248309907,-0.800000000,1.200000000,0.000000000,0.800000000,0.000000000
17.380000000,0.249978916,-0.800000000,1.200000000,0.000000000,0.800000000,0.000000000
17.400000000,0.251647692,-0.800000000,1.200000000,0.000000000,0.800000000,0.000000000
17.420000000,0.253316256,-0.800000000,1.200000000,0.000000000,0.800000000,0.000000000
17.440000000,0.254984630,-0.800000000,1.200000000,0.000000000,0.800000000,0.000000000
17.460000000,0.256652834,-0.800000000,1.200000000,0.000000000,0.800000000,0.000000000
17.480000000,0.258320884,-0.800000000,1.200000000,0.000000000,0.800000000,0.000000000
17.500000000,0.259988795,-0.800000000,1.200000000,0.000000000,0.800000000,0.000000000
17.520000000,0.261656582,-0.800000000,1.200000000,0.000000000,0.800000000,0.000000000
17.540000000,0.263324258,-0.800000000,1.200000000,0.000000000,0.800000000,0.000000000
17.560000000,0.264991832,-0.800000000,1.200000000,0.000000000,0.800000000,0.000000000
17.580000000,0.266659315,-0.800000000,1.200000000,0.000000000,0.800000000,0.000000000
17.599000000,0.268326717,-0.800000000,1.200000000,0.000000000,0.800000000,0.000000000
17.620000000,0.269985712,-0.800000000,1.200000000,0.000000000,0.800000000,0.000000000
17.640000000,0.271653808,-0.800000000,1.200000000,0.000000000,0.800000000,0.000000000
17.660000000,0.273321760,-0.800000000,1.200000000,0.000000000,0.800000000,0.000000000
17.680000000,0.274989584,-0.800000000,1.200000000,0.000000000,0.800000000,0.000000000
17.700000000,0.276657292,-0.800000000,1.200000000,0.000000000,0.800000000,0.000000000
17.719000000,0.278324896,-0.800000000,1.200000000,0.000000000,0.800000000,0.000000000
17.740000000,0.279984073,-0.800000000,1.200000000,0.000000000,0.800000000,0.000000000
17.760000000,0.281652333,-0.800000000,1.200000000,0.000000000,0.800000000,0.000000000
17.780000000,0.283320433,-0.800000000,1.200000000,0.000000000,0.800000000,0.000000000
17.800000000,0.284988390,-0.800000000,1.200000000,0.000000000,0.800000000,0.000000000
17.820000000,0.286656217,-0.800000000,1.200000000,0.000000000,0.800000000,0.000000000
17.840000000,0.288323929,-0.800000000,1.200000000,0.000000000,0.800000000,0.000000000
17.859000000,0.289991536,-0.800000000,1.200000000,0.000000000,0.800000000,0.000000000
17.880000000,0.291650716,-0.800000000,1.200000000,0.000000000,0.800000000,0.000000000
17.900000000,0.293318977,-0.800000000,1.200000000,0.000000000,0.800000000,0.000000000
17.920000000,0.294987080,-0.800000000,1.200000000,0.000000000,0.800000000,0.000000000
17.940000000,0.296655038,-0.800000000,1.200000000,0.000000000,0.800000000,0.000000000
17.960000000,0.298322868,-0.800000000,1.200000000,0.000000000,0.800000000,0.000000000
17.979000000,0.299990581,-0.800000000,1.200000000,0.000000000,0.800000000,0.000000000
18.000000000,0.301649856,-0.800000000,1.200000000,0.000000000,0.800000000,0.000000000
18.020000000,0.303318204,-0.800000000,1.200000000,0.000000000,0.800000000,0.000000000
18.040000000,0.304986384,-0.800000000,1.200000000,0.000000000,0.800000000,0.000000000
18.060000000,0.306654412,-0.800000000,1.200000000,0.000000000,0.800000000,0.000000000
18.080000000,0.308322304,-0.800000000,1.200000000,0.000000000,0.800000000,0.000000000
18.100000000,0.309990074,-0.800000000,1.200000000,0.000000000,0.800000000,0.000000000
18.120000000,0.311657733,-0.800000000,1.200000000,0.000000000,0.800000000,0.000000000
18.140000000,0.313325293,-0.800000000,1.200000000,0.000000000,0.800000000,0.000000000
18.160000000,0.314992764,-0.800000000,1.200000000,0.000000000,0.800000000,0.000000000
18.180000000,0.316660154,-0.800000000,1.200000000,0.000000000,0.800000000,0.000000000
18.200000000,0.318327472,-0.800000000,1.200000000,0.000000000,0.800000000,0.000000000
18.220000000,0.319994725,-0.800000000,1.200000000,0.000000000,0.800000000,0.000000000
18.240000000,0.321661919,-0.800000000,1.200000000,0.000000000,0.800000000,0.000000000
18.260000000,0.323329060,-0.800000000,1.200000000,0.000000000,0.800000000,0.000000000
18.280000000,0.324996154,-0.800000000,1.200000000,0.000000000,0.800000000,0.000000000
18.300000000,0.326663206,-0.800000000,1.200000000,0.000000000,0.800000000,0.000000000
18.320000000,0.328330218,-0.800000000,1.200000000,0.000000000,0.800000000,0.000000000
18.340000000,0.329997197,-0.800000000,1.200000000,0.000000000,0.800000000,0.000000000
18.360000000,0.331664144,-0.800000000,1.200000000,0.000000000,0.800000000,0.000000000
18.380000000,0.333331063,-0.800000000,1.200000000,0.000000000,0.800000000,0.000000000
18.400000000,0.334997956,-0.800000000,1.200000000,0.000000000,0.800000000,0.000000000
18.419000000,0.336664827,-0.800000000,1.200000000,0.000000000,0.800000000,0.000000000
18.440000000,0.338323345,-0.800000000,1.200000000,0.000000000,0.800000000,0.000000000
18.460000000,0.339991010,-0.800000000,1.200000000,0.000000000,0.800000000,0.000000000
18.480000000,0.341658576,-0.800000000,1.200000000,0.000000000,0.800000000,0.000000000
18.500000000,0.343326052,-0.800000000,1.200000000,0.000000000,0.800000000,0.000000000
18.520000000,0.344993446,-0.800000000,1.200000000,0.000000000,0.800000000,0.000000000
18.540000000,0.346660768,-0.800000000,1.200000000,0.000000000,0.800000000,0.000000000
18.560000000,0.348328025,-0.800000000,1.200000000,0.000000000,0.800000000,0.000000000
18.580000000,0.349995222,-0.800000000,1.200000000,0.000000000,0.800000000,0.000000000
18.600000000,0.351662367,-0.800000000,1.200000000,0.000000000,0.800000000,0.000000000
18.620000000,0.353329463,-0.800000000,1.200000000,0.000000000,0.800000000,0.000000000
18.640000000,0.354996517,-0.800000000,1.200000000,0.000000000,0.800000000,0.000000000
18.660000000,0.356663532,-0.800000000,1.200000000,0.000000000,0.800000000,0.000000000
18.680000000,0.358330512,-0.800000000,1.200000000,0.000000000,0.800000000,0.000000000
18.700000000,0.359997461,-0.800000000,1.200000000,0.000000000,0.800000000,0.000000000
18.720000000,0.361664382,-0.800000000,1.200000000,0.000000000,0.800000000,0.000000000
18.740000000,0.363331277,-0.800000000,1.200000000,0.000000000,0.800000000,0.000000000
18.760000000,0.364998149,-0.800000000,1.200000000,0.000000000,0.800000000,0.000000000
18.780000000,0.366665001,-0.800000000,1.200000000,0.000000000,0.800000000,0.000000000
18.800000000,0.368331834,-0.800000000,1.200000000,0.000000000,0.800000000,0.000000000
18.820000000,0.369998651,-0.800000000,1.200000000,0.000000000,0.800000000,0.000000000
18.840000000,0.371665452,-0.800000000,1.200000000,0.000000000,0.800000000,0.000000000
18.860000000,0.373332240,-0.800000000,1.200000000,0.000000000,0.800000000,0.000000000
18.880000000,0.374999016,-0.800000000,1.200000000,0.000000000,0.800000000,0.000000000
18.900000000,0.376665781,-0.800000000,1.200000000,0.000000000,0.800000000,0.000000000
18.920000000,0.378332537,-0.800000000,1.200000000,0.000000000,0.800000000,0.000000000
18.940000000,0.379999283,-0.800000000,1.200000000,0.000000000,0.800000000,0.000000000
18.960000000,0.381666021,-0.800000000,1.200000000,0.000000000,0.800000000,0.000000000
18.980000000,0.383332752,-0.800000000,1.200000000,0.000000000,0.800000000,0.000000000
19.000000000,0.384999477,-0.800000000,1.200000000,0.000000000,0.800000000,0.000000000
19.020000000,0.386666196,-0.800000000,1.200000000,0.000000000,0.800000000,0.000000000
19.040000000,0.388332910,-0.800000000,1.200000000,0.000000000,0.800000000,0.000000000
19.060000000,0.389999619,-0.800000000,1.200000000,0.000000000,0.800000000,0.000000000
19.080000000,0.391666324,-0.800000000,1.200000000,0.000000000,0.800000000,0.000000000
19.100000000,0.393333025,-0.800000000,1.200000000,0.000000000,0.800000000,0.000000000
19.120000000,0.394999722,-0.800000000,1.200000000,0.000000000,0.800000000,0.000000000
19.140000000,0.396666417,-0.800000000,1.200000000,0.000000000,0.800000000,0.000000000
19.160000000,0.398333108,-0.800000000,1.200000000,0.000000000,0.800000000,0.000000000
19.180000000,0.399999797,-0.800000000,1.200000000,0.000000000,0.800000000,0.000000000
19.200000000,0.401666484,-0.800000000,1.200000000,0.000000000,0.800000000,0.000000000
19.220000000,0.403333169,-0.800000000,1.200000000,0.000000000,0.800000000,0.000000000
19.240000000,0.404999852,-0.800000000,1.200000000,0.000000000,0.800000000,0.000000000
19.260000000,0.406666534,-0.800000000,1.200000000,0.000000000,0.800000000,0.000000000
19.280000000,0.408333214,-0.800000000,1.200000000,0.000000000,0.800000000,0.000000000
19.300000000,0.409999892,-0.800000000,1.200000000,0.000000000,0.800000000,0.000000000
19.320000000,0.411666570,-0.800000000,1.200000000,0.000000000,0.800000000,0.000000000
19.340000000,0.413333246,-0.800000000,1.200000000,0.000000000,0.800000000,0.000000000
19.360000000,0.414999922,-0.800000000,1.200000000,0.000000000,0.800000000,0.000000000
19.380000000,0.416666596,-0.800000000,1.200000000,0.000000000,0.800000000,0.000000000
19.400000000,0.418333270,-0.800000000,1.200000000,0.000000000,0.800000000,0.000000000
19.420000000,0.419999943,-0.800000000,1.200000000,0.000000000,0.800000000,0.000000000
19.440000000,0.421666615,-0.800000000,1.200000000,0.000000000,0.800000000,0.000000000
19.460000000,0.423333287,-0.800000000,1.200000000,0.000000000,0.800000000,0.000000000
19.480000000,0.424999958,-0.800000000,1.200000000,0.000000000,0.800000000,0.000000000
19.500000000,0.426666629,-0.800000000,1.200000000,0.000000000,0.800000000,0.000000000
19.520000000,0.428333300,-0.800000000,1.200000000,0.000000000,0.800000000,0.000000000
19.540000000,0.429999970,-0.800000000,1.200000000,0.000000000,0.800000000,0.000000000
19.560000000,0.431666639,-0.800000000,1.200000000,0.000000000,0.800000000,0.000000000
19.580000000,0.433333309,-0.800000000,1.200000000,0.000000000,0.800000000,0.000000000
19.600000000,0.434999978,-0.800000000,1.200000000,0.000000000,0.800000000,0.000000000
19.619000000,0.436666647,-0.800000000,1.200000000,0.000000000,0.800000000,0.000000000
19.640000000,0.438324982,-0.800000000,1.200000000,0.000000000,0.800000000,0.000000000
19.660000000,0.439992484,-0.800000000,1.200000000,0.000000000,0.800000000,0.000000000
19.680000000,0.441659902,-0.800000000,1.200000000,0.000000000,0.800000000,0.000000000
19.700000000,0.443327245,-0.800000000,1.200000000,0.000000000,0.800000000,0.000000000
19.720000000,0.444994521,-0.800000000,1.200000000,0.000000000,0.800000000,0.000000000
19.740000000,0.446661735,-0.800000000,1.200000000,0.000000000,0.800000000,0.000000000
19.760000000,0.448328895,-0.800000000,1.200000000,0.000000000,0.800000000,0.000000000
19.780000000,0.449996006,-0.800000000,1.200000000,0.000000000,0.800000000,0.000000000
19.800000000,0.451663072,-0.800000000,1.200000000,0.000000000,0.800000000,0.000000000
19.820000000,0.453330098,-0.800000000,1.200000000,0.000000000,0.800000000,0.000000000
19.840000000,0.454997088,-0.800000000,1.200000000,0.000000000,0.800000000,0.000000000
19.860000000,0.456664046,-0.800000000,1.200000000,0.000000000,0.800000000,0.000000000
19.880000000,0.458330975,-0.800000000,1.200000000,0.000000000,0.800000000,0.000000000
19.900000000,0.459997877,-0.800000000,1.200000000,0.000000000,0.800000000,0.000000000
19.920000000,0.461664756,-0.800000000,1.200000000,0.000000000,0.800000000,0.000000000
19.940000000,0.463331614,-0.800000000,1.200000000,0.000000000,0.800000000,0.000000000
19.960000000,0.464998452,-0.800000000,1.200000000,0.000000000,0.800000000,0.000000000
19.980000000,0.466665274,-0.800000000,1.200000000,0.000000000,0.800000000,0.000000000
20.000000000,0.468332080,-0.800000000,1.200000000,0.000000000,0.800000000,0.000000000
20.020000000,0.469998872,-0.800000000,1.200000000,0.000000000,0.800000000,0.000000000
20.040000000,0.471665651,-0.800000000,1.200000000,0.000000000,0.800000000,0.000000000
20.059000000,0.473332420,-0.800000000,1.200000000,0.000000000,0.800000000,0.000000000
20.080000000,0.474990844,-0.800000000,1.200000000,0.000000000,0.800000000,0.000000000
20.100000000,0.476658426,-0.800000000,1.200000000,0.000000000,0.800000000,0.000000000
20.120000000,0.478325917,-0.800000000,1.200000000,0.000000000,0.800000000,0.000000000
20.140000000,0.479993325,-0.800000000,1.200000000,0.000000000,0.800000000,0.000000000
20.160000000,0.481660660,-0.800000000,1.200000000,0.000000000,0.800000000,0.000000000
20.180000000,0.483327927,-0.800000000,1.200000000,0.000000000,0.800000000,0.000000000
20.200000000,0.484995134,-0.800000000,1.200000000,0.000000000,0.800000000,0.000000000
20.220000000,0.486495621,-0.800000000,1.200000000,0.000000000,0.800000000,0.000000000
20.240000000,0.487846059,-0.800000000,1.200000000,0.000000000,0.800000000,0.000000000
20.260000000,0.489061453,-0.800000000,1.200000000,0.000000000,0.800000000,0.000000000
20.280000000,0.490155308,-0.800000000,1.200000000,0.000000000,0.800000000,0.000000000
20.300000000,0.491139777,-0.800000000,1.200000000,0.000000000,0.800000000,0.000000000
20.320000000,0.491142308,-0.800142857,1.200071429,0.000000000,0.799834286,0.000000000
20.340000000,0.491147118,-0.800414286,1.200207143,0.000000000,0.799519429,0.000000000
20.360000000,0.491153979,-0.800801429,1.200400714,0.000000000,0.799070343,0.000000000
20.380000000,0.491162684,-0.801292714,1.200646357,0.000000000,0.798500451,0.000000000
20.399000000,0.491173051,-0.801877729,1.200938864,0.000000000,0.797821835,0.000000000
20.420000000,0.491184786,-0.802539956,1.201269978,0.000000000,0.797053651,0.000000000
20.440000000,0.491198006,-0.803285960,1.201642980,0.000000000,0.796188286,0.000000000
20.460000000,0.491212435,-0.804100221,1.202050111,0.000000000,0.795243743,0.000000000
20.480000000,0.491227952,-0.804975913,1.202487957,0.000000000,0.794227940,0.000000000
20.500000000,0.491244450,-0.805906894,1.202953447,0.000000000,0.793148004,0.000000000
20.520000000,0.491261829,-0.806887633,1.203443816,0.000000000,0.792010346,0.000000000
20.540000000,0.491280001,-0.807913155,1.203956578,0.000000000,0.790820740,0.000000000
20.560000000,0.491298888,-0.808978983,1.204489491,0.000000000,0.789584380,0.000000000
20.580000000,0.491318418,-0.810081084,1.205040542,0.000000000,0.788305942,0.000000000
20.600000000,0.491338526,-0.811215833,1.205607917,0.000000000,0.786989634,0.000000000
20.620000000,0.491359155,-0.812379964,1.206189982,0.000000000,0.785639242,0.000000000
20.640000000,0.491380253,-0.813570539,1.206785270,0.000000000,0.784258175,0.000000000
20.659000000,0.491401772,-0.814784914,1.207392457,0.000000000,0.782849500,0.000000000
20.680000000,0.491423544,-0.816013565,1.208006783,0.000000000,0.781424264,0.000000000
20.700000000,0.491445797,-0.817269351,1.208634676,0.000000000,0.779967552,0.000000000
20.720000000,0.491468357,-0.818542416,1.209271208,0.000000000,0.778490797,0.000000000
20.740000000,0.491491192,-0.819831032,1.209915516,0.000000000,0.776996003,0.000000000
20.760000000,0.491514274,-0.821133643,1.210566822,0.000000000,0.775484974,0.000000000
20.779000000,0.491537580,-0.822448850,1.211224425,0.000000000,0.773959334,0.000000000
20.800000000,0.491560961,-0.823768251,1.211884125,0.000000000,0.772428829,0.000000000
20.820000000,0.491584661,-0.825105711,1.212552856,0.000000000,0.770877375,0.000000000
20.840000000,0.491608523,-0.826452283,1.213226142,0.000000000,0.769315352,0.000000000
20.860000000,0.491632530,-0.827807055,1.213903527,0.000000000,0.767743816,0.000000000
20.880000000,0.491656668,-0.829169206,1.214584603,0.000000000,0.766163720,0.000000000
20.900000000,0.491680924,-0.830538000,1.215269000,0.000000000,0.764575920,0.000000000
20.920000000,0.491705285,-0.831912772,1.215956386,0.000000000,0.762981185,0.000000000
20.940000000,0.491729742,-0.833292923,1.216646462,0.000000000,0.761380209,0.000000000
20.960000000,0.491754285,-0.834677916,1.217338958,0.000000000,0.759773617,0.000000000
20.980000000,0.491778905,-0.836067268,1.218033634,0.000000000,0.758161970,0.000000000
21.000000000,0.491803594,-0.837460541,1.218730270,0.000000000,0.756545773,0.000000000
21.020000000,0.491828346,-0.838857344,1.219428672,0.000000000,0.754925481,0.000000000
21.040000000,0.491853155,-0.840257324,1.220128662,0.000000000,0.753301504,0.000000000
21.060000000,0.491878014,-0.841660163,1.220830081,0.000000000,0.751674211,0.000000000
21.080000000,0.491902918,-0.843065575,1.221532788,0.000000000,0.750043933,0.000000000
21.100000000,0.491927864,-0.844473303,1.222236652,0.000000000,0.748410968,0.000000000
21.120000000,0.491952846,-0.845883116,1.222941558,0.000000000,0.746775586,0.000000000
21.140000000,0.491977862,-0.847294804,1.223647402,0.000000000,0.745138027,0.000000000
21.160000000,0.492002908,-0.848708181,1.224354091,0.000000000,0.743498510,0.000000000
21.180000000,0.492027980,-0.850123077,1.225061539,0.000000000,0.741857231,0.000000000
21.200000000,0.492053077,-0.851539341,1.225769670,0.000000000,0.740214365,0.000000000
21.220000000,0.492078196,-0.852956835,1.226478418,0.000000000,0.738570071,0.000000000
21.240000000,0.492103334,-0.854375438,1.227187719,0.000000000,0.736924492,0.000000000
21.260000000,0.492128490,-0.855795037,1.227897518,0.000000000,0.735277758,0.000000000
21.280000000,0.492153662,-0.857215533,1.228607767,0.000000000,0.733629982,0.000000000
21.300000000,0.492178848,-0.858636837,1.229318418,0.000000000,0.731981269,0.000000000
21.320000000,0.492204047,-0.860058867,1.230029434,0.000000000,0.730331714,0.000000000
21.340000000,0.492229257,-0.861481552,1.230740776,0.000000000,0.728681400,0.000000000
21.360000000,0.492254478,-0.862904825,1.231452413,0.000000000,0.727030402,0.000000000
21.380000000,0.492279709,-0.864328629,1.232164314,0.000000000,0.725378791,0.000000000
21.400000000,0.492304948,-0.865752909,1.232876454,0.000000000,0.723726626,0.000000000
21.420000000,0.492330194,-0.867177618,1.233588809,0.000000000,0.722073963,0.000000000
21.439000000,0.492355448,-0.868602713,1.234301357,0.000000000,0.720420853,0.000000000
21.460000000,0.492380580,-0.870021013,1.235010507,0.000000000,0.718775625,0.000000000
21.480000000,0.492405858,-0.871447483,1.235723742,0.000000000,0.717120919,0.000000000
21.500000000,0.492431140,-0.872874164,1.236437082,0.000000000,0.715465970,0.000000000
21.520000000,0.492456424,-0.874301033,1.237150517,0.000000000,0.713810802,0.000000000
21.540000000,0.492481712,-0.875728072,1.237864036,0.000000000,0.712155436,0.000000000
21.560000000,0.492507003,-0.877155265,1.238577633,0.000000000,0.710499892,0.000000000
21.580000000,0.492532296,-0.878582596,1.239291298,0.000000000,0.708844189,0.000000000
21.600000000,0.492557591,-0.880010051,1.240005025,0.000000000,0.707188341,0.000000000
21.620000000,0.492582888,-0.881437617,1.240718809,0.000000000,0.705532364,0.000000000
21.640000000,0.492608187,-0.882865284,1.241432642,0.000000000,0.703876271,0.000000000
21.660000000,0.492633487,-0.884293041,1.242146521,0.000000000,0.702220072,0.000000000
21.680000000,0.492658789,-0.885720880,1.242860440,0.000000000,0.700563779,0.000000000
21.700000000,0.492684092,-0.887148792,1.243574396,0.000000000,0.698907401,0.000000000
21.720000000,0.492709397,-0.888576770,1.244288385,0.000000000,0.697250947,0.000000000
21.740000000,0.492734702,-0.890004807,1.245002404,0.000000000,0.695594424,0.000000000
21.760000000,0.492760009,-0.891432898,1.245716449,0.000000000,0.693937838,0.000000000
21.780000000,0.492785316,-0.892861037,1.246430518,0.000000000,0.692281198,0.000000000
21.800000000,0.492810624,-0.894289219,1.247144609,0.000000000,0.690624506,0.000000000
21.820000000,0.492835933,-0.895717440,1.247858720,0.000000000,0.688967770,0.000000000
21.840000000,0.492861242,-0.897145696,1.248572848,0.000000000,0.687310993,0.000000000
21.860000000,0.492886552,-0.898573983,1.249286992,0.000000000,0.685654179,0.000000000
21.880000000,0.492911862,-0.900002299,1.250001150,0.000000000,0.683997333,0.000000000
21.900000000,0.492937173,-0.901430641,1.250715320,0.000000000,0.682340457,0.000000000
21.920000000,0.492962484,-0.902859005,1.251429503,0.000000000,0.680683554,0.000000000
21.940000000,0.492987796,-0.904287390,1.252143695,0.000000000,0.679026627,0.000000000
21.960000000,0.493013108,-0.905715794,1.252857897,0.000000000,0.677369679,0.000000000
21.980000000,0.493038420,-0.907144215,1.253572107,0.000000000,0.675712711,0.000000000
22.000000000,0.493063733,-0.908572650,1.254286325,0.000000000,0.674055725,0.000000000
22.020000000,0.493089045,-0.910001100,1.255000550,0.000000000,0.672398724,0.000000000
22.040000000,0.493114358,-0.911429561,1.255714781,0.000000000,0.670741709,0.000000000
22.060000000,0.493139672,-0.912858034,1.256429017,0.000000000,0.669084681,0.000000000
22.080000000,0.493164985,-0.914286516,1.257143258,0.000000000,0.667427641,0.000000000
22.100000000,0.493190298,-0.915715007,1.257857504,0.000000000,0.665770592,0.000000000
22.120000000,0.493215612,-0.917143507,1.258571753,0.000000000,0.664113532,0.000000000
22.140000000,0.493240926,-0.918572013,1.259286007,0.000000000,0.662456465,0.000000000
22.160000000,0.493266240,-0.920000526,1.260000263,0.000000000,0.660799390,0.000000000
22.180000000,0.493291554,-0.921429045,1.260714522,0.000000000,0.659142308,0.000000000
22.200000000,0.493316868,-0.922857569,1.261428784,0.000000000,0.657485220,0.000000000
22.220000000,0.493342182,-0.924286098,1.262143049,0.000000000,0.655828127,0.000000000
22.240000000,0.493367496,-0.925714631,1.262857315,0.000000000,0.654171028,0.000000000
22.260000000,0.493392811,-0.927143168,1.263571584,0.000000000,0.652513925,0.000000000
22.280000000,0.493418125,-0.928571708,1.264285854,0.000000000,0.650856819,0.000000000
22.299000000,0.493443439,-0.930000252,1.265000126,0.000000000,0.649199708,0.000000000
22.320000000,0.493468627,-0.931421655,1.265710828,0.000000000,0.647550880,0.000000000
22.340000000,0.493493954,-0.932850918,1.266425459,0.000000000,0.645892935,0.000000000
22.360000000,0.493519280,-0.934280112,1.267140056,0.000000000,0.644235070,0.000000000
22.380000000,0.493544605,-0.935709244,1.267854622,0.000000000,0.642577277,0.000000000
22.399000000,0.493569929,-0.937138319,1.268569160,0.000000000,0.640919550,0.000000000
22.420000000,0.493595125,-0.938560202,1.269280101,0.000000000,0.639270166,0.000000000
22.440000000,0.493620460,-0.939989896,1.269994948,0.000000000,0.637611721,0.000000000
22.460000000,0.493645793,-0.941419478,1.270709739,0.000000000,0.635953406,0.000000000
22.480000000,0.493671124,-0.942848958,1.271424479,0.000000000,0.634295208,0.000000000
22.500000000,0.493696454,-0.944278348,1.272139174,0.000000000,0.632637116,0.000000000
22.520000000,0.493721782,-0.945707656,1.272853828,0.000000000,0.630979119,0.000000000
22.540000000,0.493747108,-0.947136891,1.273568445,0.000000000,0.629321207,0.000000000
22.560000000,0.493772434,-0.948566059,1.274283029,0.000000000,0.627663372,0.000000000
22.580000000,0.493797758,-0.949995167,1.274997584,0.000000000,0.626005606,0.000000000
22.600000000,0.493823082,-0.951424222,1.275712111,0.000000000,0.624347903,0.000000000
22.620000000,0.493848404,-0.952853228,1.276426614,0.000000000,0.622690255,0.000000000
22.640000000,0.493873726,-0.954282191,1.277141096,0.000000000,0.621032658,0.000000000
22.660000000,0.493899047,-0.955711115,1.277855557,0.000000000,0.619375107,0.000000000
22.680000000,0.493924368,-0.957140003,1.278570002,0.000000000,0.617717596,0.000000000
22.700000000,0.493949688,-0.958568860,1.279284430,0.000000000,0.616060122,0.000000000
22.720000000,0.493975007,-0.959997688,1.279998844,0.000000000,0.614402681,0.000000000
22.740000000,0.494000326,-0.961426491,1.280713246,0.000000000,0.612745270,0.000000000
22.760000000,0.494025645,-0.962855271,1.281427635,0.000000000,0.611087886,0.000000000
22.780000000,0.494050963,-0.964284029,1.282142015,0.000000000,0.609430526,0.000000000
22.800000000,0.494076281,-0.965712769,1.282856385,0.000000000,0.607773188,0.000000000
22.820000000,0.494101599,-0.967141492,1.283570746,0.000000000,0.606115869,0.000000000
22.840000000,0.494126916,-0.968570200,1.284285100,0.000000000,0.604458568,0.000000000
22.860000000,0.494152233,-0.969998894,1.284999447,0.000000000,0.602801283,0.000000000
22.880000000,0.494177550,-0.971427576,1.285713788,0.000000000,0.601144011,0.000000000
22.900000000,0.494202867,-0.972856247,1.286428124,0.000000000,0.599486753,0.000000000
22.920000000,0.494228183,-0.974284908,1.287142454,0.000000000,0.597829506,0.000000000
22.940000000,0.494253500,-0.975713560,1.287856780,0.000000000,0.596172270,0.000000000
22.960000000,0.494278816,-0.977142204,1.288571102,0.000000000,0.594515043,0.000000000
22.980000000,0.494304132,-0.978570841,1.289285421,0.000000000,0.592857824,0.000000000
23.000000000,0.494329448,-0.979999471,1.289999736,0.000000000,0.591200613,0.000000000
23.020000000,0.494354764,-0.981428095,1.290714048,0.000000000,0.589543409,0.000000000
23.040000000,0.494380079,-0.982856715,1.291428357,0.000000000,0.587886211,0.000000000
23.060000000,0.494405395,-0.984285329,1.292142664,0.000000000,0.586229019,0.000000000
23.080000000,0.494430711,-0.985713939,1.292856969,0.000000000,0.584571831,0.000000000
23.100000000,0.494456026,-0.987142545,1.293571272,0.000000000,0.582914648,0.000000000
23.120000000,0.494481342,-0.988571148,1.294285574,0.000000000,0.581257469,0.000000000
23.140000000,0.494506657,-0.989999747,1.294999874,0.000000000,0.579600293,0.000000000
23.160000000,0.494531973,-0.991428344,1.295714172,0.000000000,0.577943121,0.000000000
23.180000000,0.494557288,-0.992856938,1.296428469,0.000000000,0.576285952,0.000000000
23.200000000,0.494582603,-0.994285530,1.297142765,0.000000000,0.574628785,0.000000000
23.220000000,0.494607918,-0.995714120,1.297857060,0.000000000,0.572971621,0.000000000
23.240000000,0.494633234,-0.997142708,1.298571354,0.000000000,0.571314459,0.000000000
23.260000000,0.494658549,-0.998571294,1.299285647,0.000000000,0.569657299,0.000000000
23.280000000,0.494683864,-0.999999879,1.299999940,0.000000000,0.568000140,0.000000000
23.300000000,0.494709179,-1.001428463,1.300714231,0.000000000,0.566342983,0.000000000
23.320000000,0.494734494,-1.002857045,1.301428522,0.000000000,0.564685828,0.000000000
23.340000000,0.494759809,-1.004285626,1.302142813,0.000000000,0.563028674,0.000000000
23.360000000,0.494785124,-1.005714206,1.302857103,0.000000000,0.561371521,0.000000000
23.380000000,0.494810439,-1.007142786,1.303571393,0.000000000,0.559714369,0.000000000
23.400000000,0.494835754,-1.008571364,1.304285682,0.000000000,0.558057217,0.000000000
23.420000000,0.494861070,-1.009999942,1.304999971,0.000000000,0.556400067,0.000000000
23.440000000,0.494886385,-1.011428519,1.305714260,0.000000000,0.554742918,0.000000000
23.460000000,0.494911700,-1.012857096,1.306428548,0.000000000,0.553085769,0.000000000
23.480000000,0.494937015,-1.014285672,1.307142836,0.000000000,0.551428620,0.000000000
23.500000000,0.494962330,-1.015714248,1.307857124,0.000000000,0.549771473,0.000000000
23.519000000,0.494987645,-1.017142823,1.308571412,0.000000000,0.548114325,0.000000000
23.540000000,0.495012833,-1.018564255,1.309282128,0.000000000,0.546465464,0.000000000
23.560000000,0.495038161,-1.019993544,1.309996772,0.000000000,0.544807489,0.000000000
23.580000000,0.495063487,-1.021422761,1.310711380,0.000000000,0.543149597,0.000000000
23.600000000,0.495088812,-1.022851913,1.311425957,0.000000000,0.541491781,0.000000000
23.620000000,0.495114136,-1.024281008,1.312140504,0.000000000,0.539834031,0.000000000
23.640000000,0.495139460,-1.025710050,1.312855025,0.000000000,0.538176342,0.000000000
23.660000000,0.495164782,-1.027139045,1.313569522,0.000000000,0.536518708,0.000000000
23.680000000,0.495190104,-1.028567997,1.314283999,0.000000000,0.534861123,0.000000000
23.700000000,0.495215425,-1.029996912,1.314998456,0.000000000,0.533203582,0.000000000
23.720000000,0.495240745,-1.031425792,1.315712896,0.000000000,0.531546081,0.000000000
23.740000000,0.495266065,-1.032854642,1.316427321,0.000000000,0.529888616,0.000000000
23.760000000,0.495291384,-1.034283463,1.317141732,0.000000000,0.528231183,0.000000000
23.780000000,0.495316703,-1.035712260,1.317856130,0.000000000,0.526573779,0.000000000
23.800000000,0.495342022,-1.037141034,1.318570517,0.000000000,0.524916401,0.000000000
23.820000000,0.495367340,-1.038569787,1.319284894,0.000000000,0.523259047,0.000000000
23.840000000,0.495392658,-1.039998523,1.319999262,0.000000000,0.521601713,0.000000000
23.860000000,0.495417975,-1.041427242,1.320713621,0.000000000,0.519944399,0.000000000
23.880000000,0.495443293,-1.042855946,1.321427973,0.000000000,0.518287102,0.000000000
23.900000000,0.495468610,-1.044284638,1.322142319,0.000000000,0.516629820,0.000000000
23.920000000,0.495493926,-1.045713317,1.322856658,0.000000000,0.514972553,0.000000000
23.940000000,0.495519243,-1.047141985,1.323570993,0.000000000,0.513315297,0.000000000
23.960000000,0.495544560,-1.048570644,1.324285322,0.000000000,0.511658053,0.000000000
23.980000000,0.495569876,-1.049999294,1.324999647,0.000000000,0.510000819,0.000000000
24.000000000,0.495595192,-1.051427936,1.325713968,0.000000000,0.508343595,0.000000000
24.020000000,0.495620508,-1.052856571,1.326428285,0.000000000,0.506686378,0.000000000
24.040000000,0.495645824,-1.054285199,1.327142600,0.000000000,0.505029169,0.000000000
24.060000000,0.495671140,-1.055713822,1.327856911,0.000000000,0.503371966,0.000000000
24.080000000,0.495696456,-1.057142440,1.328571220,0.000000000,0.501714770,0.000000000
24.100000000,0.495721771,-1.058571053,1.329285527,0.000000000,0.500057578,0.000000000
24.120000000,0.495747087,-1.059999662,1.329999831,0.000000000,0.498400392,0.000000000
24.140000000,0.495772402,-1.061428267,1.330714134,0.000000000,0.496743210,0.000000000
24.160000000,0.495797718,-1.062856869,1.331428435,0.000000000,0.495086032,0.000000000
24.180000000,0.495823033,-1.064285468,1.332142734,0.000000000,0.493428857,0.000000000
24.200000000,0.495848349,-1.065714064,1.332857032,0.000000000,0.491771686,0.000000000
24.220000000,0.495873664,-1.067142658,1.333571329,0.000000000,0.490114517,0.000000000
24.240000000,0.495898979,-1.068571249,1.334285625,0.000000000,0.488457351,0.000000000
24.260000000,0.495924294,-1.069999838,1.334999919,0.000000000,0.486800187,0.000000000
24.280000000,0.495949610,-1.071428426,1.335714213,0.000000000,0.485143026,0.000000000
24.300000000,0.495974925,-1.072857012,1.336428506,0.000000000,0.483485866,0.000000000
24.320000000,0.496000240,-1.074285596,1.337142798,0.000000000,0.481828708,0.000000000
24.340000000,0.496025555,-1.075714180,1.337857090,0.000000000,0.480171552,0.000000000
24.360000000,0.496050870,-1.077142762,1.338571381,0.000000000,0.478514396,0.000000000
24.380000000,0.496076185,-1.078571343,1.339285671,0.000000000,0.476857243,0.000000000
24.400000000,0.496101500,-1.079999923,1.339999961,0.000000000,0.475200090,0.000000000
24.420000000,0.496126815,-1.081428502,1.340714251,0.000000000,0.473542938,0.000000000
24.440000000,0.496152131,-1.082857080,1.341428540,0.000000000,0.471885787,0.000000000
24.460000000,0.496177446,-1.084285658,1.342142829,0.000000000,0.470228637,0.000000000
24.480000000,0.496202761,-1.085714235,1.342857118,0.000000000,0.468571487,0.000000000
24.500000000,0.496228076,-1.087142811,1.343571406,0.000000000,0.466914339,0.000000000
24.520000000,0.496253391,-1.088571387,1.344285694,0.000000000,0.465257191,0.000000000
24.540000000,0.496278706,-1.089999963,1.344999982,0.000000000,0.463600043,0.000000000
24.560000000,0.496304021,-1.091428538,1.345714269,0.000000000,0.461942896,0.000000000
24.580000000,0.496329336,-1.092857113,1.346428556,0.000000000,0.460285749,0.000000000
24.600000000,0.496354651,-1.094285687,1.347142844,0.000000000,0.458628603,0.000000000
24.620000000,0.496379966,-1.095714261,1.347857131,0.000000000,0.456971457,0.000000000
