Omar-H-Khedr/robotics_project/ros2_ws/install/experiment_manager/lib/python3.12/site-packages/results/baseline_trials/trial_20260514_172324/joint_states.csv
ros_time_sec,joint_1,joint_2,joint_3,joint_4,joint_5,joint_6
1666.548000000,0.003500000,-0.800000000,1.200000000,0.000000000,0.800000000,0.000000000
1666.568000000,0.003500000,-0.800000000,1.200000000,0.000000000,0.800000000,0.000000000
1666.587000000,0.003500000,-0.800000000,1.200000000,0.000000000,0.800000000,0.000000000
1666.607000000,0.003500000,-0.800000000,1.200000000,0.000000000,0.800000000,0.000000000
1666.628000000,0.003500000,-0.800000000,1.200000000,0.000000000,0.800000000,0.000000000
1666.648000000,0.003500000,-0.800000000,1.200000000,0.000000000,0.800000000,0.000000000
1666.668000000,0.003500000,-0.800000000,1.200000000,0.000000000,0.800000000,0.000000000
1666.686000000,0.003500000,-0.800000000,1.200000000,0.000000000,0.800000000,0.000000000
1666.706000000,0.003500000,-0.800000000,1.200000000,0.000000000,0.800000000,0.000000000
1666.726000000,0.003500000,-0.800000000,1.200000000,0.000000000,0.800000000,0.000000000
1666.747000000,0.003500000,-0.800000000,1.200000000,0.000000000,0.800000000,0.000000000
1666.768000000,0.003500000,-0.800000000,1.200000000,0.000000000,0.800000000,0.000000000
1666.786000000,0.003500000,-0.800000000,1.200000000,0.000000000,0.800000000,0.000000000
1666.802000000,0.003500000,-0.800000000,1.200000000,0.000000000,0.800000000,0.000000000
1666.828000000,0.003500000,-0.800000000,1.200000000,0.000000000,0.800000000,0.000000000
1666.848000000,0.003500000,-0.800000000,1.200000000,0.000000000,0.800000000,0.000000000
1666.868000000,0.003500000,-0.800000000,1.200000000,0.000000000,0.800000000,0.000000000
1666.888000000,0.003500000,-0.800000000,1.200000000,0.000000000,0.800000000,0.000000000
1666.905000000,0.003500000,-0.800000000,1.200000000,0.000000000,0.800000000,0.000000000
1666.928000000,0.003500000,-0.800000000,1.200000000,0.000000000,0.800000000,0.000000000
1666.946000000,0.003500000,-0.800000000,1.200000000,0.000000000,0.800000000,0.000000000
1666.968000000,0.003500000,-0.800000000,1.200000000,0.000000000,0.800000000,0.000000000
1666.986000000,0.003500000,-0.800000000,1.200000000,0.000000000,0.800000000,0.000000000
1667.008000000,0.003500000,-0.800000000,1.200000000,0.000000000,0.800000000,0.000000000
1667.027000000,0.003500000,-0.800000000,1.200000000,0.000000000,0.800000000,0.000000000
1667.048000000,0.003500000,-0.800000000,1.200000000,0.000000000,0.800000000,0.000000000
1667.068000000,0.003500000,-0.800000000,1.200000000,0.000000000,0.800000000,0.000000000
1667.088000000,0.003500000,-0.800000000,1.200000000,0.000000000,0.800000000,0.000000000
1667.108000000,0.003500000,-0.800000000,1.200000000,0.000000000,0.800000000,0.000000000
1667.122000000,0.003500000,-0.800000000,1.200000000,0.000000000,0.800000000,0.000000000
1667.147000000,0.003500000,-0.800000000,1.200000000,0.000000000,0.800000000,0.000000000
1667.168000000,0.003500000,-0.800000000,1.200000000,0.000000000,0.800000000,0.000000000
1667.187000000,0.003500000,-0.800000000,1.200000000,0.000000000,0.800000000,0.000000000
1667.207000000,0.003500000,-0.800000000,1.200000000,0.000000000,0.800000000,0.000000000
1667.228000000,0.003500000,-0.800000000,1.200000000,0.000000000,0.800000000,0.000000000
1667.248000000,0.003500000,-0.800000000,1.200000000,0.000000000,0.800000000,0.000000000
1667.268000000,0.003500000,-0.800000000,1.200000000,0.000000000,0.800000000,0.000000000
1667.285000000,0.003500000,-0.800000000,1.200000000,0.000000000,0.800000000,0.000000000
1667.303000000,0.003500000,-0.800000000,1.200000000,0.000000000,0.800000000,0.000000000
1667.328000000,0.003500000,-0.800000000,1.200000000,0.000000000,0.800000000,0.000000000
1667.345000000,0.003500000,-0.800000000,1.200000000,0.000000000,0.800000000,0.000000000
1667.368000000,0.003500000,-0.800000000,1.200000000,0.000000000,0.800000000,0.000000000
1667.384000000,0.003500000,-0.800000000,1.200000000,0.000000000,0.800000000,0.000000000
1667.401000000,0.003500000,-0.800000000,1.200000000,0.000000000,0.800000000,0.000000000
1667.428000000,0.003500000,-0.800000000,1.200000000,0.000000000,0.800000000,0.000000000
1667.448000000,0.003500000,-0.800000000,1.200000000,0.000000000,0.800000000,0.000000000
1667.467000000,0.003500000,-0.800000000,1.200000000,0.000000000,0.800000000,0.000000000
1667.485000000,0.003500000,-0.800000000,1.200000000,0.000000000,0.800000000,0.000000000
1667.508000000,0.003500000,-0.800000000,1.200000000,0.000000000,0.800000000,0.000000000
1667.528000000,0.003500000,-0.800000000,1.200000000,0.000000000,0.800000000,0.000000000
1667.548000000,0.003500000,-0.800000000,1.200000000,0.000000000,0.800000000,0.000000000
1667.568000000,0.003500000,-0.800000000,1.200000000,0.000000000,0.800000000,0.000000000
1667.588000000,0.003500000,-0.800000000,1.200000000,0.000000000,0.800000000,0.000000000
1667.608000000,0.003500000,-0.800000000,1.200000000,0.000000000,0.800000000,0.000000000
1667.628000000,0.003500000,-0.800000000,1.200000000,0.000000000,0.800000000,0.000000000
1667.648000000,0.003500000,-0.800000000,1.200000000,0.000000000,0.800000000,0.000000000
1667.667000000,0.003500000,-0.800000000,1.200000000,0.000000000,0.800000000,0.000000000
1667.688000000,0.003500000,-0.800000000,1.200000000,0.000000000,0.800000000,0.000000000
1667.708000000,0.003500000,-0.800000000,1.200000000,0.000000000,0.800000000,0.000000000
1667.728000000,0.003500000,-0.800000000,1.200000000,0.000000000,0.800000000,0.000000000
1667.748000000,0.003500000,-0.800000000,1.200000000,0.000000000,0.800000000,0.000000000
1667.767000000,0.003500000,-0.800000000,1.200000000,0.000000000,0.800000000,0.000000000
1667.788000000,0.003500000,-0.800000000,1.200000000,0.000000000,0.800000000,0.000000000
1667.808000000,0.003500000,-0.800000000,1.200000000,0.000000000,0.800000000,0.000000000
1667.828000000,0.003500000,-0.800000000,1.200000000,0.000000000,0.800000000,0.000000000
1667.847000000,0.003500000,-0.800000000,1.200000000,0.000000000,0.800000000,0.000000000
1667.867000000,0.003500000,-0.800000000,1.200000000,0.000000000,0.800000000,0.000000000
1667.888000000,0.003500000,-0.800000000,1.200000000,0.000000000,0.800000000,0.000000000
1667.908000000,0.003500000,-0.800000000,1.200000000,0.000000000,0.800000000,0.000000000
1667.928000000,0.003500000,-0.800000000,1.200000000,0.000000000,0.800000000,0.000000000
1667.947000000,0.003500000,-0.800000000,1.200000000,0.000000000,0.800000000,0.000000000
1667.968000000,0.003500000,-0.800000000,1.200000000,0.000000000,0.800000000,0.000000000
1667.988000000,0.003500000,-0.800000000,1.200000000,0.000000000,0.800000000,0.000000000
1668.008000000,0.003500000,-0.800000000,1.200000000,0.000000000,0.800000000,0.000000000
1668.028000000,0.003500000,-0.800000000,1.200000000,0.000000000,0.800000000,0.000000000
1668.046000000,0.003500000,-0.800000000,1.200000000,0.000000000,0.800000000,0.000000000
1668.068000000,0.003500000,-0.800000000,1.200000000,0.000000000,0.800000000,0.000000000
1668.088000000,0.003500000,-0.800000000,1.200000000,0.000000000,0.800000000,0.000000000
1668.106000000,0.003500000,-0.800000000,1.200000000,0.000000000,0.800000000,0.000000000
1668.128000000,0.003500000,-0.800000000,1.200000000,0.000000000,0.800000000,0.000000000
1668.146000000,0.003500000,-0.800000000,1.200000000,0.000000000,0.800000000,0.000000000
1668.167000000,0.003500000,-0.800000000,1.200000000,0.000000000,0.800000000,0.000000000
1668.188000000,0.003500000,-0.800000000,1.200000000,0.000000000,0.800000000,0.000000000
1668.208000000,0.003500000,-0.800000000,1.200000000,0.000000000,0.800000000,0.000000000
1668.228000000,0.003500000,-0.800000000,1.200000000,0.000000000,0.800000000,0.000000000
1668.248000000,0.003500000,-0.800000000,1.200000000,0.000000000,0.800000000,0.000000000
1668.268000000,0.003500000,-0.800000000,1.200000000,0.000000000,0.800000000,0.000000000
1668.288000000,0.003500000,-0.800000000,1.200000000,0.000000000,0.800000000,0.000000000
1668.308000000,0.003500000,-0.800000000,1.200000000,0.000000000,0.800000000,0.000000000
1668.328000000,0.003500000,-0.800000000,1.200000000,0.000000000,0.800000000,0.000000000
1668.347000000,0.003500000,-0.800000000,1.200000000,0.000000000,0.800000000,0.000000000
1668.368000000,0.003500000,-0.800000000,1.200000000,0.000000000,0.800000000,0.000000000
1668.388000000,0.003500000,-0.800000000,1.200000000,0.000000000,0.800000000,0.000000000
1668.408000000,0.003500000,-0.800000000,1.200000000,0.000000000,0.800000000,0.000000000
1668.428000000,0.003500000,-0.800000000,1.200000000,0.000000000,0.800000000,0.000000000
1668.448000000,0.003500000,-0.800000000,1.200000000,0.000000000,0.800000000,0.000000000
1668.468000000,0.003500000,-0.800000000,1.200000000,0.000000000,0.800000000,0.000000000
1668.488000000,0.003500000,-0.800000000,1.200000000,0.000000000,0.800000000,0.000000000
1668.508000000,0.003500000,-0.800000000,1.200000000,0.000000000,0.800000000,0.000000000
1668.527000000,0.003500000,-0.800000000,1.200000000,0.000000000,0.800000000,0.000000000
1668.546000000,0.003500000,-0.800000000,1.200000000,0.000000000,0.800000000,0.000000000
1668.568000000,0.003500000,-0.800000000,1.200000000,0.000000000,0.800000000,0.000000000
1668.588000000,0.003500000,-0.800000000,1.200000000,0.000000000,0.800000000,0.000000000
1668.607000000,0.003500000,-0.800000000,1.200000000,0.000000000,0.800000000,0.000000000
1668.628000000,0.003500000,-0.800000000,1.200000000,0.000000000,0.800000000,0.000000000
1668.648000000,0.003500000,-0.800000000,1.200000000,0.000000000,0.800000000,0.000000000
1668.668000000,0.003500000,-0.800000000,1.200000000,0.000000000,0.800000000,0.000000000
1668.688000000,0.003500000,-0.800000000,1.200000000,0.000000000,0.800000000,0.000000000
1668.708000000,0.003500000,-0.800000000,1.200000000,0.000000000,0.800000000,0.000000000
1668.728000000,0.003500000,-0.800000000,1.200000000,0.000000000,0.800000000,0.000000000
1668.748000000,0.003500000,-0.800000000,1.200000000,0.000000000,0.800000000,0.000000000
1668.768000000,0.003500000,-0.800000000,1.200000000,0.000000000,0.800000000,0.000000000
1668.784000000,0.003500000,-0.800000000,1.200000000,0.000000000,0.800000000,0.000000000
1668.808000000,0.003500000,-0.800000000,1.200000000,0.000000000,0.800000000,0.000000000
1668.828000000,0.003500000,-0.800000000,1.200000000,0.000000000,0.800000000,0.000000000
1668.848000000,0.003500000,-0.800000000,1.200000000,0.000000000,0.800000000,0.000000000
1668.868000000,0.003500000,-0.800000000,1.200000000,0.000000000,0.800000000,0.000000000
1668.888000000,0.003500000,-0.800000000,1.200000000,0.000000000,0.800000000,0.000000000
1668.908000000,0.003500000,-0.800000000,1.200000000,0.000000000,0.800000000,0.000000000
1668.928000000,0.003500000,-0.800000000,1.200000000,0.000000000,0.800000000,0.000000000
1668.948000000,0.003500000,-0.800000000,1.200000000,0.000000000,0.800000000,0.000000000
1668.968000000,0.003500000,-0.800000000,1.200000000,0.000000000,0.800000000,0.000000000
1668.987000000,0.003500000,-0.800000000,1.200000000,0.000000000,0.800000000,0.000000000
1669.008000000,0.003500000,-0.800000000,1.200000000,0.000000000,0.800000000,0.000000000
1669.026000000,0.003500000,-0.800000000,1.200000000,0.000000000,0.800000000,0.000000000
1669.048000000,0.003500000,-0.800000000,1.200000000,0.000000000,0.800000000,0.000000000
1669.068000000,0.003500000,-0.800000000,1.200000000,0.000000000,0.800000000,0.000000000
1669.088000000,0.003500000,-0.800000000,1.200000000,0.000000000,0.800000000,0.000000000
1669.107000000,0.003500000,-0.800000000,1.200000000,0.000000000,0.800000000,0.000000000
1669.127000000,0.003500000,-0.800000000,1.200000000,0.000000000,0.800000000,0.000000000
1669.148000000,0.003500000,-0.800000000,1.200000000,0.000000000,0.800000000,0.000000000
1669.168000000,0.003500000,-0.800000000,1.200000000,0.000000000,0.800000000,0.000000000
1669.188000000,0.003500000,-0.800000000,1.200000000,0.000000000,0.800000000,0.000000000
1669.208000000,0.003500000,-0.800000000,1.200000000,0.000000000,0.800000000,0.000000000
1669.228000000,0.003500000,-0.800000000,1.200000000,0.000000000,0.800000000,0.000000000
1669.248000000,0.003500000,-0.800000000,1.200000000,0.000000000,0.800000000,0.000000000
1669.268000000,0.003500000,-0.800000000,1.200000000,0.000000000,0.800000000,0.000000000
1669.285000000,0.003500000,-0.800000000,1.200000000,0.000000000,0.800000000,0.000000000
1669.306000000,0.003500000,-0.800000000,1.200000000,0.000000000,0.800000000,0.000000000
1669.328000000,0.003500000,-0.800000000,1.200000000,0.000000000,0.800000000,0.000000000
1669.348000000,0.003500000,-0.800000000,1.200000000,0.000000000,0.800000000,0.000000000
1669.361000000,0.003500000,-0.800000000,1.200000000,0.000000000,0.800000000,0.000000000
1669.388000000,0.003500000,-0.800000000,1.200000000,0.000000000,0.800000000,0.000000000
1669.407000000,0.003500000,-0.800000000,1.200000000,0.000000000,0.800000000,0.000000000
1669.423000000,0.003500000,-0.800000000,1.200000000,0.000000000,0.800000000,0.000000000
1669.448000000,0.003500000,-0.800000000,1.200000000,0.000000000,0.800000000,0.000000000
1669.468000000,0.003500000,-0.800000000,1.200000000,0.000000000,0.800000000,0.000000000
1669.488000000,0.003500000,-0.800000000,1.200000000,0.000000000,0.800000000,0.000000000
1669.508000000,0.003500000,-0.800000000,1.200000000,0.000000000,0.800000000,0.000000000
1669.528000000,0.003500000,-0.800000000,1.200000000,0.000000000,0.800000000,0.000000000
1669.548000000,0.003500000,-0.800000000,1.200000000,0.000000000,0.800000000,0.000000000
1669.568000000,0.003500000,-0.800000000,1.200000000,0.000000000,0.800000000,0.000000000
1669.587000000,0.003500000,-0.800000000,1.200000000,0.000000000,0.800000000,0.000000000
1669.608000000,0.003500000,-0.800000000,1.200000000,0.000000000,0.800000000,0.000000000
1669.628000000,0.003500000,-0.800000000,1.200000000,0.000000000,0.800000000,0.000000000
1669.648000000,0.003500000,-0.800000000,1.200000000,0.000000000,0.800000000,0.000000000
1669.668000000,0.003500000,-0.800000000,1.200000000,0.000000000,0.800000000,0.000000000
1669.688000000,0.003500000,-0.800000000,1.200000000,0.000000000,0.800000000,0.000000000
1669.707000000,0.003500000,-0.800000000,1.200000000,0.000000000,0.800000000,0.000000000
1669.728000000,0.003500000,-0.800000000,1.200000000,0.000000000,0.800000000,0.000000000
1669.748000000,0.003500000,-0.800000000,1.200000000,0.000000000,0.800000000,0.000000000
1669.767000000,0.003500000,-0.800000000,1.200000000,0.000000000,0.800000000,0.000000000
1669.786000000,0.003500000,-0.800000000,1.200000000,0.000000000,0.800000000,0.000000000
1669.808000000,0.003500000,-0.800000000,1.200000000,0.000000000,0.800000000,0.000000000
1669.828000000,0.003500000,-0.800000000,1.200000000,0.000000000,0.800000000,0.000000000
1669.848000000,0.003500000,-0.800000000,1.200000000,0.000000000,0.800000000,0.000000000
1669.868000000,0.003500000,-0.800000000,1.200000000,0.000000000,0.800000000,0.000000000
1669.888000000,0.003500000,-0.800000000,1.200000000,0.000000000,0.800000000,0.000000000
1669.908000000,0.003500000,-0.800000000,1.200000000,0.000000000,0.800000000,0.000000000
1669.926000000,0.003500000,-0.800000000,1.200000000,0.000000000,0.800000000,0.000000000
1669.947000000,0.003500000,-0.800000000,1.200000000,0.000000000,0.800000000,0.000000000
1669.968000000,0.003500000,-0.800000000,1.200000000,0.000000000,0.800000000,0.000000000
1669.987000000,0.003500000,-0.800000000,1.200000000,0.000000000,0.800000000,0.000000000
1670.008000000,0.003500000,-0.800000000,1.200000000,0.000000000,0.800000000,0.000000000
1670.028000000,0.003500000,-0.800000000,1.200000000,0.000000000,0.800000000,0.000000000
1670.048000000,0.003500000,-0.800000000,1.200000000,0.000000000,0.800000000,0.000000000
1670.068000000,0.003500000,-0.800000000,1.200000000,0.000000000,0.800000000,0.000000000
1670.088000000,0.003500000,-0.800000000,1.200000000,0.000000000,0.800000000,0.000000000
1670.108000000,0.003500000,-0.800000000,1.200000000,0.000000000,0.800000000,0.000000000
1670.128000000,0.003500000,-0.800000000,1.200000000,0.000000000,0.800000000,0.000000000
1670.148000000,0.003500000,-0.800000000,1.200000000,0.000000000,0.800000000,0.000000000
1670.168000000,0.003500000,-0.800000000,1.200000000,0.000000000,0.800000000,0.000000000
1670.188000000,0.003500000,-0.800000000,1.200000000,0.000000000,0.800000000,0.000000000
1670.208000000,0.003500000,-0.800000000,1.200000000,0.000000000,0.800000000,0.000000000
1670.228000000,0.003500000,-0.800000000,1.200000000,0.000000000,0.800000000,0.000000000
1670.247000000,0.003500000,-0.800000000,1.200000000,0.000000000,0.800000000,0.000000000
1670.268000000,0.003500000,-0.800000000,1.200000000,0.000000000,0.800000000,0.000000000
1670.288000000,0.003500000,-0.800000000,1.200000000,0.000000000,0.800000000,0.000000000
1670.308000000,0.003500000,-0.800000000,1.200000000,0.000000000,0.800000000,0.000000000
1670.328000000,0.003500000,-0.800000000,1.200000000,0.000000000,0.800000000,0.000000000
1670.346000000,0.003500000,-0.800000000,1.200000000,0.000000000,0.800000000,0.000000000
1670.368000000,0.003500000,-0.800000000,1.200000000,0.000000000,0.800000000,0.000000000
1670.386000000,0.003500000,-0.800000000,1.200000000,0.000000000,0.800000000,0.000000000
1670.408000000,0.003500000,-0.800000000,1.200000000,0.000000000,0.800000000,0.000000000
1670.428000000,0.003500000,-0.800000000,1.200000000,0.000000000,0.800000000,0.000000000
1670.446000000,0.003500000,-0.800000000,1.200000000,0.000000000,0.800000000,0.000000000
1670.468000000,0.003500000,-0.800000000,1.200000000,0.000000000,0.800000000,0.000000000
1670.488000000,0.003500000,-0.800000000,1.200000000,0.000000000,0.800000000,0.000000000
1670.508000000,0.003500000,-0.800000000,1.200000000,0.000000000,0.800000000,0.000000000
1670.528000000,0.003500000,-0.800000000,1.200000000,0.000000000,0.800000000,0.000000000
1670.548000000,0.003500000,-0.800000000,1.200000000,0.000000000,0.800000000,0.000000000
1670.568000000,0.003500000,-0.800000000,1.200000000,0.000000000,0.800000000,0.000000000
1670.588000000,0.003500000,-0.800000000,1.200000000,0.000000000,0.800000000,0.000000000
1670.608000000,0.003500000,-0.800000000,1.200000000,0.000000000,0.800000000,0.000000000
1670.628000000,0.003500000,-0.800000000,1.200000000,0.000000000,0.800000000,0.000000000
1670.648000000,0.003500000,-0.800000000,1.200000000,0.000000000,0.800000000,0.000000000
1670.668000000,0.003500000,-0.800000000,1.200000000,0.000000000,0.800000000,0.000000000
1670.688000000,0.003500000,-0.800000000,1.200000000,0.000000000,0.800000000,0.000000000
1670.708000000,0.003500000,-0.800000000,1.200000000,0.000000000,0.800000000,0.000000000
1670.728000000,0.003500000,-0.800000000,1.200000000,0.000000000,0.800000000,0.000000000
1670.748000000,0.003500000,-0.800000000,1.200000000,0.000000000,0.800000000,0.000000000
1670.764000000,0.003500000,-0.800000000,1.200000000,0.000000000,0.800000000,0.000000000
1670.788000000,0.003500000,-0.800000000,1.200000000,0.000000000,0.800000000,0.000000000
1670.807000000,0.003500000,-0.800000000,1.200000000,0.000000000,0.800000000,0.000000000
1670.828000000,0.003500000,-0.800000000,1.200000000,0.000000000,0.800000000,0.000000000
1670.847000000,0.003500000,-0.800000000,1.200000000,0.000000000,0.800000000,0.000000000
1670.868000000,0.003500000,-0.800000000,1.200000000,0.000000000,0.800000000,0.000000000
1670.888000000,0.003500000,-0.800000000,1.200000000,0.000000000,0.800000000,0.000000000
1670.908000000,0.003500000,-0.800000000,1.200000000,0.000000000,0.800000000,0.000000000
1670.928000000,0.003500000,-0.800000000,1.200000000,0.000000000,0.800000000,0.000000000
1670.948000000,0.003500000,-0.800000000,1.200000000,0.000000000,0.800000000,0.000000000
1670.968000000,0.003500000,-0.800000000,1.200000000,0.000000000,0.800000000,0.000000000
1670.988000000,0.003500000,-0.800000000,1.200000000,0.000000000,0.800000000,0.000000000
1671.007000000,0.003500000,-0.800000000,1.200000000,0.000000000,0.800000000,0.000000000
1671.028000000,0.003500000,-0.800000000,1.200000000,0.000000000,0.800000000,0.000000000
1671.048000000,0.003500000,-0.800000000,1.200000000,0.000000000,0.800000000,0.000000000
1671.068000000,0.003500000,-0.800000000,1.200000000,0.000000000,0.800000000,0.000000000
1671.088000000,0.003500000,-0.800000000,1.200000000,0.000000000,0.800000000,0.000000000
1671.108000000,0.003500000,-0.800000000,1.200000000,0.000000000,0.800000000,0.000000000
1671.128000000,0.003500000,-0.800000000,1.200000000,0.000000000,0.800000000,0.000000000
1671.148000000,0.003500000,-0.800000000,1.200000000,0.000000000,0.800000000,0.000000000
1671.168000000,0.003500000,-0.800000000,1.200000000,0.000000000,0.800000000,0.000000000
1671.187000000,0.003500000,-0.800000000,1.200000000,0.000000000,0.800000000,0.000000000
1671.208000000,0.003500000,-0.800000000,1.200000000,0.000000000,0.800000000,0.000000000
1671.228000000,0.003500000,-0.800000000,1.200000000,0.000000000,0.800000000,0.000000000
1671.247000000,0.003500000,-0.800000000,1.200000000,0.000000000,0.800000000,0.000000000
1671.268000000,0.003500000,-0.800000000,1.200000000,0.000000000,0.800000000,0.000000000
1671.288000000,0.003500000,-0.800000000,1.200000000,0.000000000,0.800000000,0.000000000
1671.308000000,0.003500000,-0.800000000,1.200000000,0.000000000,0.800000000,0.000000000
1671.328000000,0.003500000,-0.800000000,1.200000000,0.000000000,0.800000000,0.000000000
1671.346000000,0.003500000,-0.800000000,1.200000000,0.000000000,0.800000000,0.000000000
1671.368000000,0.003500000,-0.800000000,1.200000000,0.000000000,0.800000000,0.000000000
1671.388000000,0.003500000,-0.800000000,1.200000000,0.000000000,0.800000000,0.000000000
1671.408000000,0.003500000,-0.800000000,1.200000000,0.000000000,0.800000000,0.000000000
1671.428000000,0.003500000,-0.800000000,1.200000000,0.000000000,0.800000000,0.000000000
1671.448000000,0.003500000,-0.800000000,1.200000000,0.000000000,0.800000000,0.000000000
1671.468000000,0.003500000,-0.800000000,1.200000000,0.000000000,0.800000000,0.000000000
1671.488000000,0.003500000,-0.800000000,1.200000000,0.000000000,0.800000000,0.000000000
1671.507000000,0.003500000,-0.800000000,1.200000000,0.000000000,0.800000000,0.000000000
1671.528000000,0.003500000,-0.800000000,1.200000000,0.000000000,0.800000000,0.000000000
1671.548000000,0.003500000,-0.800000000,1.200000000,0.000000000,0.800000000,0.000000000
1671.568000000,0.003500000,-0.800000000,1.200000000,0.000000000,0.800000000,0.000000000
1671.588000000,0.003500000,-0.800000000,1.200000000,0.000000000,0.800000000,0.000000000
1671.608000000,0.003500000,-0.800000000,1.200000000,0.000000000,0.800000000,0.000000000
1671.627000000,0.003500000,-0.800000000,1.200000000,0.000000000,0.800000000,0.000000000
1671.648000000,0.003500000,-0.800000000,1.200000000,0.000000000,0.800000000,0.000000000
1671.668000000,0.003500000,-0.800000000,1.200000000,0.000000000,0.800000000,0.000000000
1671.688000000,0.003500000,-0.800000000,1.200000000,0.000000000,0.800000000,0.000000000
1671.708000000,0.003500000,-0.800000000,1.200000000,0.000000000,0.800000000,0.000000000
1671.728000000,0.003500000,-0.800000000,1.200000000,0.000000000,0.800000000,0.000000000
1671.748000000,0.003500000,-0.800000000,1.200000000,0.000000000,0.800000000,0.000000000
1671.768000000,0.003500000,-0.800000000,1.200000000,0.000000000,0.800000000,0.000000000
1671.788000000,0.003500000,-0.800000000,1.200000000,0.000000000,0.800000000,0.000000000
1671.808000000,0.003500000,-0.800000000,1.200000000,0.000000000,0.800000000,0.000000000
1671.827000000,0.003500000,-0.800000000,1.200000000,0.000000000,0.800000000,0.000000000
1671.848000000,0.003500000,-0.800000000,1.200000000,0.000000000,0.800000000,0.000000000
1671.868000000,0.003500000,-0.800000000,1.200000000,0.000000000,0.800000000,0.000000000
1671.888000000,0.003500000,-0.800000000,1.200000000,0.000000000,0.800000000,0.000000000
1671.906000000,0.003500000,-0.800000000,1.200000000,0.000000000,0.800000000,0.000000000
1671.928000000,0.003500000,-0.800000000,1.200000000,0.000000000,0.800000000,0.000000000
1671.948000000,0.003500000,-0.800000000,1.200000000,0.000000000,0.800000000,0.000000000
1671.964000000,0.003500000,-0.800000000,1.200000000,0.000000000,0.800000000,0.000000000
1671.988000000,0.003500000,-0.800000000,1.200000000,0.000000000,0.800000000,0.000000000
1672.008000000,0.003500000,-0.800000000,1.200000000,0.000000000,0.800000000,0.000000000
1672.028000000,0.003500000,-0.800000000,1.200000000,0.000000000,0.800000000,0.000000000
1672.048000000,0.003500000,-0.800000000,1.200000000,0.000000000,0.800000000,0.000000000
1672.068000000,0.003500000,-0.800000000,1.200000000,0.000000000,0.800000000,0.000000000
1672.088000000,0.003500000,-0.800000000,1.200000000,0.000000000,0.800000000,0.000000000
1672.108000000,0.003500000,-0.800000000,1.200000000,0.000000000,0.800000000,0.000000000
1672.128000000,0.003500000,-0.800000000,1.200000000,0.000000000,0.800000000,0.000000000
1672.148000000,0.003500000,-0.800000000,1.200000000,0.000000000,0.800000000,0.000000000
1672.168000000,0.003500000,-0.800000000,1.200000000,0.000000000,0.800000000,0.000000000
1672.188000000,0.003500000,-0.800000000,1.200000000,0.000000000,0.800000000,0.000000000
1672.207000000,0.003500000,-0.800000000,1.200000000,0.000000000,0.800000000,0.000000000
1672.228000000,0.003500000,-0.800000000,1.200000000,0.000000000,0.800000000,0.000000000
1672.248000000,0.003500000,-0.800000000,1.200000000,0.000000000,0.800000000,0.000000000
1672.268000000,0.003500000,-0.800000000,1.200000000,0.000000000,0.800000000,0.000000000
1672.288000000,0.003500000,-0.800000000,1.200000000,0.000000000,0.800000000,0.000000000
1672.308000000,0.003500000,-0.800000000,1.200000000,0.000000000,0.800000000,0.000000000
1672.328000000,0.003500000,-0.800000000,1.200000000,0.000000000,0.800000000,0.000000000
1672.348000000,0.003500000,-0.800000000,1.200000000,0.000000000,0.800000000,0.000000000
1672.361000000,0.003500000,-0.800000000,1.200000000,0.000000000,0.800000000,0.000000000
1672.388000000,0.003500000,-0.800000000,1.200000000,0.000000000,0.800000000,0.000000000
1672.408000000,0.003500000,-0.800000000,1.200000000,0.000000000,0.800000000,0.000000000
1672.428000000,0.003500000,-0.800000000,1.200000000,0.000000000,0.800000000,0.000000000
1672.448000000,0.003500000,-0.800000000,1.200000000,0.000000000,0.800000000,0.000000000
1672.468000000,0.003500000,-0.800000000,1.200000000,0.000000000,0.800000000,0.000000000
1672.488000000,0.003500000,-0.800000000,1.200000000,0.000000000,0.800000000,0.000000000
1672.508000000,0.003500000,-0.800000000,1.200000000,0.000000000,0.800000000,0.000000000
1672.528000000,0.003500000,-0.800000000,1.200000000,0.000000000,0.800000000,0.000000000
1672.548000000,0.003500000,-0.800000000,1.200000000,0.000000000,0.800000000,0.000000000
1672.568000000,0.003500000,-0.800000000,1.200000000,0.000000000,0.800000000,0.000000000
1672.588000000,0.003500000,-0.800000000,1.200000000,0.000000000,0.800000000,0.000000000
1672.608000000,0.003500000,-0.800000000,1.200000000,0.000000000,0.800000000,0.000000000
1672.628000000,0.003500000,-0.800000000,1.200000000,0.000000000,0.800000000,0.000000000
1672.648000000,0.003500000,-0.800000000,1.200000000,0.000000000,0.800000000,0.000000000
1672.668000000,0.003500000,-0.800000000,1.200000000,0.000000000,0.800000000,0.000000000
1672.687000000,0.003500000,-0.800000000,1.200000000,0.000000000,0.800000000,0.000000000
1672.708000000,0.003500000,-0.800000000,1.200000000,0.000000000,0.800000000,0.000000000
1672.728000000,0.003500000,-0.800000000,1.200000000,0.000000000,0.800000000,0.000000000
1672.748000000,0.003500000,-0.800000000,1.200000000,0.000000000,0.800000000,0.000000000
1672.768000000,0.003500000,-0.800000000,1.200000000,0.000000000,0.800000000,0.000000000
1672.788000000,0.003500000,-0.800000000,1.200000000,0.000000000,0.800000000,0.000000000
1672.808000000,0.003500000,-0.800000000,1.200000000,0.000000000,0.800000000,0.000000000
1672.827000000,0.003500000,-0.800000000,1.200000000,0.000000000,0.800000000,0.000000000
1672.848000000,0.003500000,-0.800000000,1.200000000,0.000000000,0.800000000,0.000000000
1672.867000000,0.003500000,-0.800000000,1.200000000,0.000000000,0.800000000,0.000000000
1672.888000000,0.003500000,-0.800000000,1.200000000,0.000000000,0.800000000,0.000000000
1672.908000000,0.003500000,-0.800000000,1.200000000,0.000000000,0.800000000,0.000000000
1672.928000000,0.003500000,-0.800000000,1.200000000,0.000000000,0.800000000,0.000000000
1672.948000000,0.003500000,-0.800000000,1.200000000,0.000000000,0.800000000,0.000000000
1672.968000000,0.003500000,-0.800000000,1.200000000,0.000000000,0.800000000,0.000000000
1672.988000000,0.003500000,-0.800000000,1.200000000,0.000000000,0.800000000,0.000000000
1673.008000000,0.003500000,-0.800000000,1.200000000,0.000000000,0.800000000,0.000000000
1673.028000000,0.003500000,-0.800000000,1.200000000,0.000000000,0.800000000,0.000000000
1673.048000000,0.003500000,-0.800000000,1.200000000,0.000000000,0.800000000,0.000000000
1673.068000000,0.003500000,-0.800000000,1.200000000,0.000000000,0.800000000,0.000000000
1673.088000000,0.003500000,-0.800000000,1.200000000,0.000000000,0.800000000,0.000000000
1673.108000000,0.003500000,-0.800000000,1.200000000,0.000000000,0.800000000,0.000000000
1673.128000000,0.003500000,-0.800000000,1.200000000,0.000000000,0.800000000,0.000000000
1673.148000000,0.003500000,-0.800000000,1.200000000,0.000000000,0.800000000,0.000000000
1673.168000000,0.003500000,-0.800000000,1.200000000,0.000000000,0.800000000,0.000000000
1673.188000000,0.003500000,-0.800000000,1.200000000,0.000000000,0.800000000,0.000000000
1673.208000000,0.003500000,-0.800000000,1.200000000,0.000000000,0.800000000,0.000000000
1673.227000000,0.003500000,-0.800000000,1.200000000,0.000000000,0.800000000,0.000000000
1673.248000000,0.003500000,-0.800000000,1.200000000,0.000000000,0.800000000,0.000000000
1673.267000000,0.003500000,-0.800000000,1.200000000,0.000000000,0.800000000,0.000000000
1673.288000000,0.003500000,-0.800000000,1.200000000,0.000000000,0.800000000,0.000000000
1673.308000000,0.003500000,-0.800000000,1.200000000,0.000000000,0.800000000,0.000000000
1673.328000000,0.003500000,-0.800000000,1.200000000,0.000000000,0.800000000,0.000000000
1673.348000000,0.003500000,-0.800000000,1.200000000,0.000000000,0.800000000,0.000000000
1673.368000000,0.003500000,-0.800000000,1.200000000,0.000000000,0.800000000,0.000000000
1673.388000000,0.003500000,-0.800000000,1.200000000,0.000000000,0.800000000,0.000000000
1673.408000000,0.003500000,-0.800000000,1.200000000,0.000000000,0.800000000,0.000000000
1673.428000000,0.003500000,-0.800000000,1.200000000,0.000000000,0.800000000,0.000000000
1673.448000000,0.003500000,-0.800000000,1.200000000,0.000000000,0.800000000,0.000000000
1673.468000000,0.003500000,-0.800000000,1.200000000,0.000000000,0.800000000,0.000000000
1673.488000000,0.003500000,-0.800000000,1.200000000,0.000000000,0.800000000,0.000000000
1673.508000000,0.003500000,-0.800000000,1.200000000,0.000000000,0.800000000,0.000000000
1673.528000000,0.003500000,-0.800000000,1.200000000,0.000000000,0.800000000,0.000000000
1673.548000000,0.003500000,-0.800000000,1.200000000,0.000000000,0.800000000,0.000000000
1673.568000000,0.003500000,-0.800000000,1.200000000,0.000000000,0.800000000,0.000000000
1673.587000000,0.003500000,-0.800000000,1.200000000,0.000000000,0.800000000,0.000000000
1673.608000000,0.003500000,-0.800000000,1.200000000,0.000000000,0.800000000,0.000000000
1673.628000000,0.003500000,-0.800000000,1.200000000,0.000000000,0.800000000,0.000000000
1673.648000000,0.003500000,-0.800000000,1.200000000,0.000000000,0.800000000,0.000000000
1673.668000000,0.003500000,-0.800000000,1.200000000,0.000000000,0.800000000,0.000000000
1673.688000000,0.003500000,-0.800000000,1.200000000,0.000000000,0.800000000,0.000000000
1673.708000000,0.003500000,-0.800000000,1.200000000,0.000000000,0.800000000,0.000000000
1673.728000000,0.003500000,-0.800000000,1.200000000,0.000000000,0.800000000,0.000000000
1673.748000000,0.003500000,-0.800000000,1.200000000,0.000000000,0.800000000,0.000000000
1673.768000000,0.003500000,-0.800000000,1.200000000,0.000000000,0.800000000,0.000000000
1673.788000000,0.003500000,-0.800000000,1.200000000,0.000000000,0.800000000,0.000000000
1673.808000000,0.003500000,-0.800000000,1.200000000,0.000000000,0.800000000,0.000000000
1673.828000000,0.003500000,-0.800000000,1.200000000,0.000000000,0.800000000,0.000000000
1673.848000000,0.003500000,-0.800000000,1.200000000,0.000000000,0.800000000,0.000000000
1673.867000000,0.003500000,-0.800000000,1.200000000,0.000000000,0.800000000,0.000000000
1673.888000000,0.003500000,-0.800000000,1.200000000,0.000000000,0.800000000,0.000000000
1673.908000000,0.003500000,-0.800000000,1.200000000,0.000000000,0.800000000,0.000000000
1673.928000000,0.003500000,-0.800000000,1.200000000,0.000000000,0.800000000,0.000000000
1673.948000000,0.003500000,-0.800000000,1.200000000,0.000000000,0.800000000,0.000000000
1673.968000000,0.003500000,-0.800000000,1.200000000,0.000000000,0.800000000,0.000000000
1673.988000000,0.003500000,-0.800000000,1.200000000,0.000000000,0.800000000,0.000000000
1674.008000000,0.003500000,-0.800000000,1.200000000,0.000000000,0.800000000,0.000000000
1674.028000000,0.003500000,-0.800000000,1.200000000,0.000000000,0.800000000,0.000000000
1674.047000000,0.003500000,-0.800000000,1.200000000,0.000000000,0.800000000,0.000000000
1674.067000000,0.003500000,-0.800000000,1.200000000,0.000000000,0.800000000,0.000000000
1674.088000000,0.003500000,-0.800000000,1.200000000,0.000000000,0.800000000,0.000000000
1674.107000000,0.003500000,-0.800000000,1.200000000,0.000000000,0.800000000,0.000000000
1674.128000000,0.003500000,-0.800000000,1.200000000,0.000000000,0.800000000,0.000000000
1674.148000000,0.003500000,-0.800000000,1.200000000,0.000000000,0.800000000,0.000000000
1674.168000000,0.003500000,-0.800000000,1.200000000,0.000000000,0.800000000,0.000000000
1674.187000000,0.003500000,-0.800000000,1.200000000,0.000000000,0.800000000,0.000000000
1674.208000000,0.003500000,-0.800000000,1.200000000,0.000000000,0.800000000,0.000000000
1674.228000000,0.003500000,-0.800000000,1.200000000,0.000000000,0.800000000,0.000000000
1674.248000000,0.003500000,-0.800000000,1.200000000,0.000000000,0.800000000,0.000000000
1674.268000000,0.003500000,-0.800000000,1.200000000,0.000000000,0.800000000,0.000000000
1674.288000000,0.003500000,-0.800000000,1.200000000,0.000000000,0.800000000,0.000000000
1674.305000000,0.003500000,-0.800000000,1.200000000,0.000000000,0.800000000,0.000000000
1674.327000000,0.003500000,-0.800000000,1.200000000,0.000000000,0.800000000,0.000000000
1674.348000000,0.003500000,-0.800000000,1.200000000,0.000000000,0.800000000,0.000000000
1674.365000000,0.003500000,-0.800000000,1.200000000,0.000000000,0.800000000,0.000000000
1674.388000000,0.003500000,-0.800000000,1.200000000,0.000000000,0.800000000,0.000000000
1674.408000000,0.003500000,-0.800000000,1.200000000,0.000000000,0.800000000,0.000000000
1674.428000000,0.003500000,-0.800000000,1.200000000,0.000000000,0.800000000,0.000000000
1674.448000000,0.003500000,-0.800000000,1.200000000,0.000000000,0.800000000,0.000000000
1674.468000000,0.003500000,-0.800000000,1.200000000,0.000000000,0.800000000,0.000000000
1674.488000000,0.003500000,-0.800000000,1.200000000,0.000000000,0.800000000,0.000000000
1674.508000000,0.003500000,-0.800000000,1.200000000,0.000000000,0.800000000,0.000000000
1674.528000000,0.003500000,-0.800000000,1.200000000,0.000000000,0.800000000,0.000000000
1674.548000000,0.003500000,-0.800000000,1.200000000,0.000000000,0.800000000,0.000000000
1674.568000000,0.003500000,-0.800000000,1.200000000,0.000000000,0.800000000,0.000000000
1674.588000000,0.003500000,-0.800000000,1.200000000,0.000000000,0.800000000,0.000000000
1674.608000000,0.003500000,-0.800000000,1.200000000,0.000000000,0.800000000,0.000000000
1674.628000000,0.003500000,-0.800000000,1.200000000,0.000000000,0.800000000,0.000000000
1674.648000000,0.003500000,-0.800000000,1.200000000,0.000000000,0.800000000,0.000000000
1674.668000000,0.003500000,-0.800000000,1.200000000,0.000000000,0.800000000,0.000000000
1674.688000000,0.003500000,-0.800000000,1.200000000,0.000000000,0.800000000,0.000000000
1674.708000000,0.003500000,-0.800000000,1.200000000,0.000000000,0.800000000,0.000000000
1674.728000000,0.003500000,-0.800000000,1.200000000,0.000000000,0.800000000,0.000000000
1674.747000000,0.003500000,-0.800000000,1.200000000,0.000000000,0.800000000,0.000000000
1674.768000000,0.003500000,-0.800000000,1.200000000,0.000000000,0.800000000,0.000000000
1674.788000000,0.003500000,-0.800000000,1.200000000,0.000000000,0.800000000,0.000000000
1674.807000000,0.003500000,-0.800000000,1.200000000,0.000000000,0.800000000,0.000000000
1674.828000000,0.003500000,-0.800000000,1.200000000,0.000000000,0.800000000,0.000000000
1674.846000000,0.003500000,-0.800000000,1.200000000,0.000000000,0.800000000,0.000000000
1674.868000000,0.003500000,-0.800000000,1.200000000,0.000000000,0.800000000,0.000000000
1674.888000000,0.003500000,-0.800000000,1.200000000,0.000000000,0.800000000,0.000000000
1674.908000000,0.003500000,-0.800000000,1.200000000,0.000000000,0.800000000,0.000000000
1674.927000000,0.003500000,-0.800000000,1.200000000,0.000000000,0.800000000,0.000000000
1674.946000000,0.003500000,-0.800000000,1.200000000,0.000000000,0.800000000,0.000000000
1674.968000000,0.003500000,-0.800000000,1.200000000,0.000000000,0.800000000,0.000000000
1674.988000000,0.003500000,-0.800000000,1.200000000,0.000000000,0.800000000,0.000000000
1675.008000000,0.003500000,-0.800000000,1.200000000,0.000000000,0.800000000,0.000000000
1675.025000000,0.003500000,-0.800000000,1.200000000,0.000000000,0.800000000,0.000000000
1675.048000000,0.003500000,-0.800000000,1.200000000,0.000000000,0.800000000,0.000000000
1675.067000000,0.003500000,-0.800000000,1.200000000,0.000000000,0.800000000,0.000000000
1675.088000000,0.003500000,-0.800000000,1.200000000,0.000000000,0.800000000,0.000000000
1675.107000000,0.003500000,-0.800000000,1.200000000,0.000000000,0.800000000,0.000000000
1675.128000000,0.003500000,-0.800000000,1.200000000,0.000000000,0.800000000,0.000000000
1675.148000000,0.003500000,-0.800000000,1.200000000,0.000000000,0.800000000,0.000000000
1675.167000000,0.003500000,-0.800000000,1.200000000,0.000000000,0.800000000,0.000000000
1675.188000000,0.003500000,-0.800000000,1.200000000,0.000000000,0.800000000,0.000000000
1675.204000000,0.003500000,-0.800000000,1.200000000,0.000000000,0.800000000,0.000000000
1675.227000000,0.003500000,-0.800000000,1.200000000,0.000000000,0.800000000,0.000000000
1675.241000000,0.003500000,-0.800000000,1.200000000,0.000000000,0.800000000,0.000000000
1675.267000000,0.003500000,-0.800000000,1.200000000,0.000000000,0.800000000,0.000000000
1675.288000000,0.003500000,-0.800000000,1.200000000,0.000000000,0.800000000,0.000000000
1675.308000000,0.003500000,-0.800000000,1.200000000,0.000000000,0.800000000,0.000000000
1675.328000000,0.003500000,-0.800000000,1.200000000,0.000000000,0.800000000,0.000000000
1675.348000000,0.003500000,-0.800000000,1.200000000,0.000000000,0.800000000,0.000000000
1675.368000000,0.003500000,-0.800000000,1.200000000,0.000000000,0.800000000,0.000000000
1675.388000000,0.003500000,-0.800000000,1.200000000,0.000000000,0.800000000,0.000000000
1675.408000000,0.003500000,-0.800000000,1.200000000,0.000000000,0.800000000,0.000000000
1675.428000000,0.003500000,-0.800000000,1.200000000,0.000000000,0.800000000,0.000000000
1675.448000000,0.003500000,-0.800000000,1.200000000,0.000000000,0.800000000,0.000000000
1675.468000000,0.003500000,-0.800000000,1.200000000,0.000000000,0.800000000,0.000000000
1675.488000000,0.003500000,-0.800000000,1.200000000,0.000000000,0.800000000,0.000000000
1675.508000000,0.003500000,-0.800000000,1.200000000,0.000000000,0.800000000,0.000000000
1675.528000000,0.003500000,-0.800000000,1.200000000,0.000000000,0.800000000,0.000000000
1675.548000000,0.003500000,-0.800000000,1.200000000,0.000000000,0.800000000,0.000000000
1675.568000000,0.003500000,-0.800000000,1.200000000,0.000000000,0.800000000,0.000000000
1675.588000000,0.003500000,-0.800000000,1.200000000,0.000000000,0.800000000,0.000000000
1675.608000000,0.003500000,-0.800000000,1.200000000,0.000000000,0.800000000,0.000000000
1675.628000000,0.003500000,-0.800000000,1.200000000,0.000000000,0.800000000,0.000000000
1675.648000000,0.003500000,-0.800000000,1.200000000,0.000000000,0.800000000,0.000000000
1675.668000000,0.003500000,-0.800000000,1.200000000,0.000000000,0.800000000,0.000000000
1675.688000000,0.003500000,-0.800000000,1.200000000,0.000000000,0.800000000,0.000000000
1675.708000000,0.003500000,-0.800000000,1.200000000,0.000000000,0.800000000,0.000000000
1675.728000000,0.003500000,-0.800000000,1.200000000,0.000000000,0.800000000,0.000000000
1675.748000000,0.003500000,-0.800000000,1.200000000,0.000000000,0.800000000,0.000000000
1675.768000000,0.003500000,-0.800000000,1.200000000,0.000000000,0.800000000,0.000000000
1675.788000000,0.003500000,-0.800000000,1.200000000,0.000000000,0.800000000,0.000000000
1675.808000000,0.003500000,-0.800000000,1.200000000,0.000000000,0.800000000,0.000000000
1675.828000000,0.003500000,-0.800000000,1.200000000,0.000000000,0.800000000,0.000000000
1675.848000000,0.003500000,-0.800000000,1.200000000,0.000000000,0.800000000,0.000000000
1675.868000000,0.003500000,-0.800000000,1.200000000,0.000000000,0.800000000,0.000000000
1675.888000000,0.003500000,-0.800000000,1.200000000,0.000000000,0.800000000,0.000000000
1675.908000000,0.003500000,-0.800000000,1.200000000,0.000000000,0.800000000,0.000000000
1675.928000000,0.003500000,-0.800000000,1.200000000,0.000000000,0.800000000,0.000000000
1675.947000000,0.003500000,-0.800000000,1.200000000,0.000000000,0.800000000,0.000000000
1675.968000000,0.003500000,-0.800000000,1.200000000,0.000000000,0.800000000,0.000000000
1675.988000000,0.003500000,-0.800000000,1.200000000,0.000000000,0.800000000,0.000000000
1676.008000000,0.003500000,-0.800000000,1.200000000,0.000000000,0.800000000,0.000000000
1676.028000000,0.003500000,-0.800000000,1.200000000,0.000000000,0.800000000,0.000000000
1676.046000000,0.003500000,-0.800000000,1.200000000,0.000000000,0.800000000,0.000000000
1676.068000000,0.003500000,-0.800000000,1.200000000,0.000000000,0.800000000,0.000000000
1676.088000000,0.003500000,-0.800000000,1.200000000,0.000000000,0.800000000,0.000000000
1676.108000000,0.003500000,-0.800000000,1.200000000,0.000000000,0.800000000,0.000000000
1676.127000000,0.003500000,-0.800000000,1.200000000,0.000000000,0.800000000,0.000000000
1676.148000000,0.003500000,-0.800000000,1.200000000,0.000000000,0.800000000,0.000000000
1676.168000000,0.003500000,-0.800000000,1.200000000,0.000000000,0.800000000,0.000000000
1676.188000000,0.003500000,-0.800000000,1.200000000,0.000000000,0.800000000,0.000000000
1676.208000000,0.003500000,-0.800000000,1.200000000,0.000000000,0.800000000,0.000000000
1676.228000000,0.003500000,-0.800000000,1.200000000,0.000000000,0.800000000,0.000000000
1676.248000000,0.003500000,-0.800000000,1.200000000,0.000000000,0.800000000,0.000000000
1676.268000000,0.003500000,-0.800000000,1.200000000,0.000000000,0.800000000,0.000000000
1676.285000000,0.003500000,-0.800000000,1.200000000,0.000000000,0.800000000,0.000000000
1676.308000000,0.003500000,-0.800000000,1.200000000,0.000000000,0.800000000,0.000000000
1676.326000000,0.003500000,-0.800000000,1.200000000,0.000000000,0.800000000,0.000000000
1676.348000000,0.003500000,-0.800000000,1.200000000,0.000000000,0.800000000,0.000000000
1676.368000000,0.003500000,-0.800000000,1.200000000,0.000000000,0.800000000,0.000000000
1676.388000000,0.003500000,-0.800000000,1.200000000,0.000000000,0.800000000,0.000000000
1676.408000000,0.003500000,-0.800000000,1.200000000,0.000000000,0.800000000,0.000000000
1676.428000000,0.003500000,-0.800000000,1.200000000,0.000000000,0.800000000,0.000000000
1676.448000000,0.003500000,-0.800000000,1.200000000,0.000000000,0.800000000,0.000000000
1676.468000000,0.003500000,-0.800000000,1.200000000,0.000000000,0.800000000,0.000000000
1676.488000000,0.003500000,-0.800000000,1.200000000,0.000000000,0.800000000,0.000000000
1676.508000000,0.003500000,-0.800000000,1.200000000,0.000000000,0.800000000,0.000000000
1676.527000000,0.003500000,-0.800000000,1.200000000,0.000000000,0.800000000,0.000000000
1676.548000000,0.003500000,-0.800000000,1.200000000,0.000000000,0.800000000,0.000000000
1676.568000000,0.003500000,-0.800000000,1.200000000,0.000000000,0.800000000,0.000000000
1676.588000000,0.003500000,-0.800000000,1.200000000,0.000000000,0.800000000,0.000000000
1676.608000000,0.003500000,-0.800000000,1.200000000,0.000000000,0.800000000,0.000000000
1676.628000000,0.003500000,-0.800000000,1.200000000,0.000000000,0.800000000,0.000000000
1676.648000000,0.003500000,-0.800000000,1.200000000,0.000000000,0.800000000,0.000000000
1676.668000000,0.003500000,-0.800000000,1.200000000,0.000000000,0.800000000,0.000000000
1676.688000000,0.003500000,-0.800000000,1.200000000,0.000000000,0.800000000,0.000000000
1676.708000000,0.003500000,-0.800000000,1.200000000,0.000000000,0.800000000,0.000000000
1676.728000000,0.003500000,-0.800000000,1.200000000,0.000000000,0.800000000,0.000000000
1676.748000000,0.003500000,-0.800000000,1.200000000,0.000000000,0.800000000,0.000000000
1676.768000000,0.003500000,-0.800000000,1.200000000,0.000000000,0.800000000,0.000000000
1676.788000000,0.003500000,-0.800000000,1.200000000,0.000000000,0.800000000,0.000000000
1676.808000000,0.003500000,-0.800000000,1.200000000,0.000000000,0.800000000,0.000000000
1676.827000000,0.003500000,-0.800000000,1.200000000,0.000000000,0.800000000,0.000000000
1676.848000000,0.003500000,-0.800000000,1.200000000,0.000000000,0.800000000,0.000000000
1676.867000000,0.003500000,-0.800000000,1.200000000,0.000000000,0.800000000,0.000000000
1676.888000000,0.003500000,-0.800000000,1.200000000,0.000000000,0.800000000,0.000000000
1676.908000000,0.003500000,-0.800000000,1.200000000,0.000000000,0.800000000,0.000000000
1676.927000000,0.003500000,-0.800000000,1.200000000,0.000000000,0.800000000,0.000000000
1676.948000000,0.003500000,-0.800000000,1.200000000,0.000000000,0.800000000,0.000000000
1676.968000000,0.003500000,-0.800000000,1.200000000,0.000000000,0.800000000,0.000000000
1676.984000000,0.003500000,-0.800000000,1.200000000,0.000000000,0.800000000,0.000000000
1677.008000000,0.003500000,-0.800000000,1.200000000,0.000000000,0.800000000,0.000000000
1677.028000000,0.003500000,-0.800000000,1.200000000,0.000000000,0.800000000,0.000000000
1677.044000000,0.003500000,-0.800000000,1.200000000,0.000000000,0.800000000,0.000000000
1677.068000000,0.003500000,-0.800000000,1.200000000,0.000000000,0.800000000,0.000000000
1677.085000000,0.003500000,-0.800000000,1.200000000,0.000000000,0.800000000,0.000000000
1677.108000000,0.003500000,-0.800000000,1.200000000,0.000000000,0.800000000,0.000000000
1677.128000000,0.003500000,-0.800000000,1.200000000,0.000000000,0.800000000,0.000000000
1677.148000000,0.003500000,-0.800000000,1.200000000,0.000000000,0.800000000,0.000000000
1677.168000000,0.003500000,-0.800000000,1.200000000,0.000000000,0.800000000,0.000000000
1677.188000000,0.003500000,-0.800000000,1.200000000,0.000000000,0.800000000,0.000000000
1677.208000000,0.003500000,-0.800000000,1.200000000,0.000000000,0.800000000,0.000000000
1677.228000000,0.003500000,-0.800000000,1.200000000,0.000000000,0.800000000,0.000000000
1677.248000000,0.003500000,-0.800000000,1.200000000,0.000000000,0.800000000,0.000000000
1677.268000000,0.003500000,-0.800000000,1.200000000,0.000000000,0.800000000,0.000000000
1677.288000000,0.003500000,-0.800000000,1.200000000,0.000000000,0.800000000,0.000000000
1677.308000000,0.003500000,-0.800000000,1.200000000,0.000000000,0.800000000,0.000000000
1677.328000000,0.003500000,-0.800000000,1.200000000,0.000000000,0.800000000,0.000000000
1677.348000000,0.003500000,-0.800000000,1.200000000,0.000000000,0.800000000,0.000000000
1677.368000000,0.003500000,-0.800000000,1.200000000,0.000000000,0.800000000,0.000000000
1677.388000000,0.003500000,-0.800000000,1.200000000,0.000000000,0.800000000,0.000000000
1677.407000000,0.003500000,-0.800000000,1.200000000,0.000000000,0.800000000,0.000000000
1677.428000000,0.003500000,-0.800000000,1.200000000,0.000000000,0.800000000,0.000000000
1677.448000000,0.003500000,-0.800000000,1.200000000,0.000000000,0.800000000,0.000000000
1677.468000000,0.003500000,-0.800000000,1.200000000,0.000000000,0.800000000,0.000000000
1677.488000000,0.003500000,-0.800000000,1.200000000,0.000000000,0.800000000,0.000000000
1677.503000000,0.003500000,-0.800000000,1.200000000,0.000000000,0.800000000,0.000000000
1677.528000000,0.003500000,-0.800000000,1.200000000,0.000000000,0.800000000,0.000000000
1677.548000000,0.003500000,-0.800000000,1.200000000,0.000000000,0.800000000,0.000000000
1677.568000000,0.003500000,-0.800000000,1.200000000,0.000000000,0.800000000,0.000000000
1677.588000000,0.003500000,-0.800000000,1.200000000,0.000000000,0.800000000,0.000000000
1677.608000000,0.003500000,-0.800000000,1.200000000,0.000000000,0.800000000,0.000000000
1677.628000000,0.003500000,-0.800000000,1.200000000,0.000000000,0.800000000,0.000000000
1677.648000000,0.003500000,-0.800000000,1.200000000,0.000000000,0.800000000,0.000000000
1677.668000000,0.003500000,-0.800000000,1.200000000,0.000000000,0.800000000,0.000000000
1677.688000000,0.003500000,-0.800000000,1.200000000,0.000000000,0.800000000,0.000000000
1677.706000000,0.003500000,-0.800000000,1.200000000,0.000000000,0.800000000,0.000000000
1677.728000000,0.003500000,-0.800000000,1.200000000,0.000000000,0.800000000,0.000000000
1677.748000000,0.003500000,-0.800000000,1.200000000,0.000000000,0.800000000,0.000000000
1677.768000000,0.003500000,-0.800000000,1.200000000,0.000000000,0.800000000,0.000000000
1677.788000000,0.003500000,-0.800000000,1.200000000,0.000000000,0.800000000,0.000000000
1677.808000000,0.003500000,-0.800000000,1.200000000,0.000000000,0.800000000,0.000000000
1677.828000000,0.003500000,-0.800000000,1.200000000,0.000000000,0.800000000,0.000000000
1677.848000000,0.003500000,-0.800000000,1.200000000,0.000000000,0.800000000,0.000000000
1677.868000000,0.003500000,-0.800000000,1.200000000,0.000000000,0.800000000,0.000000000
1677.888000000,0.003500000,-0.800000000,1.200000000,0.000000000,0.800000000,0.000000000
1677.908000000,0.003500000,-0.800000000,1.200000000,0.000000000,0.800000000,0.000000000
1677.928000000,0.003500000,-0.800000000,1.200000000,0.000000000,0.800000000,0.000000000
1677.948000000,0.003500000,-0.800000000,1.200000000,0.000000000,0.800000000,0.000000000
1677.968000000,0.003500000,-0.800000000,1.200000000,0.000000000,0.800000000,0.000000000
1677.988000000,0.003500000,-0.800000000,1.200000000,0.000000000,0.800000000,0.000000000
1678.008000000,0.003500000,-0.800000000,1.200000000,0.000000000,0.800000000,0.000000000
1678.028000000,0.003500000,-0.800000000,1.200000000,0.000000000,0.800000000,0.000000000
1678.048000000,0.003500000,-0.800000000,1.200000000,0.000000000,0.800000000,0.000000000
1678.068000000,0.003500000,-0.800000000,1.200000000,0.000000000,0.800000000,0.000000000
1678.088000000,0.003500000,-0.800000000,1.200000000,0.000000000,0.800000000,0.000000000
1678.106000000,0.003500000,-0.800000000,1.200000000,0.000000000,0.800000000,0.000000000
1678.128000000,0.003500000,-0.800000000,1.200000000,0.000000000,0.800000000,0.000000000
1678.147000000,0.003500000,-0.800000000,1.200000000,0.000000000,0.800000000,0.000000000
1678.168000000,0.003500000,-0.800000000,1.200000000,0.000000000,0.800000000,0.000000000
1678.188000000,0.003500000,-0.800000000,1.200000000,0.000000000,0.800000000,0.000000000
1678.208000000,0.003500000,-0.800000000,1.200000000,0.000000000,0.800000000,0.000000000
1678.228000000,0.003500000,-0.800000000,1.200000000,0.000000000,0.800000000,0.000000000
1678.248000000,0.003500000,-0.800000000,1.200000000,0.000000000,0.800000000,0.000000000
1678.268000000,0.003500000,-0.800000000,1.200000000,0.000000000,0.800000000,0.000000000
1678.288000000,0.003500000,-0.800000000,1.200000000,0.000000000,0.800000000,0.000000000
1678.308000000,0.003500000,-0.800000000,1.200000000,0.000000000,0.800000000,0.000000000
1678.328000000,0.003500000,-0.800000000,1.200000000,0.000000000,0.800000000,0.000000000
1678.348000000,0.003500000,-0.800000000,1.200000000,0.000000000,0.800000000,0.000000000
1678.368000000,0.003500000,-0.800000000,1.200000000,0.000000000,0.800000000,0.000000000
1678.387000000,0.003500000,-0.800000000,1.200000000,0.000000000,0.800000000,0.000000000
1678.407000000,0.003500000,-0.800000000,1.200000000,0.000000000,0.800000000,0.000000000
1678.428000000,0.003500000,-0.800000000,1.200000000,0.000000000,0.800000000,0.000000000
1678.448000000,0.003500000,-0.800000000,1.200000000,0.000000000,0.800000000,0.000000000
1678.465000000,0.003500000,-0.800000000,1.200000000,0.000000000,0.800000000,0.000000000
1678.488000000,0.003500000,-0.800000000,1.200000000,0.000000000,0.800000000,0.000000000
1678.508000000,0.003500000,-0.800000000,1.200000000,0.000000000,0.800000000,0.000000000
1678.528000000,0.003500000,-0.800000000,1.200000000,0.000000000,0.800000000,0.000000000
1678.548000000,0.003500000,-0.800000000,1.200000000,0.000000000,0.800000000,0.000000000
1678.568000000,0.003500000,-0.800000000,1.200000000,0.000000000,0.800000000,0.000000000
1678.588000000,0.003500000,-0.800000000,1.200000000,0.000000000,0.800000000,0.000000000
1678.608000000,0.003500000,-0.800000000,1.200000000,0.000000000,0.800000000,0.000000000
1678.626000000,0.003500000,-0.800000000,1.200000000,0.000000000,0.800000000,0.000000000
1678.648000000,0.003500000,-0.800000000,1.200000000,0.000000000,0.800000000,0.000000000
1678.668000000,0.003500000,-0.800000000,1.200000000,0.000000000,0.800000000,0.000000000
1678.686000000,0.003500000,-0.800000000,1.200000000,0.000000000,0.800000000,0.000000000
1678.708000000,0.003500000,-0.800000000,1.200000000,0.000000000,0.800000000,0.000000000
1678.728000000,0.003500000,-0.800000000,1.200000000,0.000000000,0.800000000,0.000000000
1678.748000000,0.003500000,-0.800000000,1.200000000,0.000000000,0.800000000,0.000000000
1678.768000000,0.003500000,-0.800000000,1.200000000,0.000000000,0.800000000,0.000000000
1678.788000000,0.003500000,-0.800000000,1.200000000,0.000000000,0.800000000,0.000000000
1678.808000000,0.003500000,-0.800000000,1.200000000,0.000000000,0.800000000,0.000000000
1678.828000000,0.003500000,-0.800000000,1.200000000,0.000000000,0.800000000,0.000000000
1678.848000000,0.003500000,-0.800000000,1.200000000,0.000000000,0.800000000,0.000000000
1678.868000000,0.003500000,-0.800000000,1.200000000,0.000000000,0.800000000,0.000000000
1678.888000000,0.003500000,-0.800000000,1.200000000,0.000000000,0.800000000,0.000000000
1678.908000000,0.003500000,-0.800000000,1.200000000,0.000000000,0.800000000,0.000000000
1678.927000000,0.003500000,-0.800000000,1.200000000,0.000000000,0.800000000,0.000000000
1678.948000000,0.003500000,-0.800000000,1.200000000,0.000000000,0.800000000,0.000000000
1678.968000000,0.003500000,-0.800000000,1.200000000,0.000000000,0.800000000,0.000000000
1678.988000000,0.003500000,-0.800000000,1.200000000,0.000000000,0.800000000,0.000000000
1679.008000000,0.003500000,-0.800000000,1.200000000,0.000000000,0.800000000,0.000000000
1679.028000000,0.003500000,-0.800000000,1.200000000,0.000000000,0.800000000,0.000000000
1679.048000000,0.003500000,-0.800000000,1.200000000,0.000000000,0.800000000,0.000000000
1679.068000000,0.003500000,-0.800000000,1.200000000,0.000000000,0.800000000,0.000000000
1679.087000000,0.003500000,-0.800000000,1.200000000,0.000000000,0.800000000,0.000000000
1679.108000000,0.003500000,-0.800000000,1.200000000,0.000000000,0.800000000,0.000000000
1679.126000000,0.003500000,-0.800000000,1.200000000,0.000000000,0.800000000,0.000000000
1679.147000000,0.003500000,-0.800000000,1.200000000,0.000000000,0.800000000,0.000000000
1679.168000000,0.003500000,-0.800000000,1.200000000,0.000000000,0.800000000,0.000000000
1679.188000000,0.003500000,-0.800000000,1.200000000,0.000000000,0.800000000,0.000000000
1679.207000000,0.003500000,-0.800000000,1.200000000,0.000000000,0.800000000,0.000000000
1679.225000000,0.003500000,-0.800000000,1.200000000,0.000000000,0.800000000,0.000000000
1679.248000000,0.003500000,-0.800000000,1.200000000,0.000000000,0.800000000,0.000000000
1679.268000000,0.003500000,-0.800000000,1.200000000,0.000000000,0.800000000,0.000000000
1679.288000000,0.003500000,-0.800000000,1.200000000,0.000000000,0.800000000,0.000000000
1679.308000000,0.003500000,-0.800000000,1.200000000,0.000000000,0.800000000,0.000000000
1679.328000000,0.003500000,-0.800000000,1.200000000,0.000000000,0.800000000,0.000000000
1679.347000000,0.003500000,-0.800000000,1.200000000,0.000000000,0.800000000,0.000000000
1679.368000000,0.003500000,-0.800000000,1.200000000,0.000000000,0.800000000,0.000000000
1679.387000000,0.003500000,-0.800000000,1.200000000,0.000000000,0.800000000,0.000000000
1679.408000000,0.003500000,-0.800000000,1.200000000,0.000000000,0.800000000,0.000000000
1679.428000000,0.003500000,-0.800000000,1.200000000,0.000000000,0.800000000,0.000000000
1679.448000000,0.003500000,-0.800000000,1.200000000,0.000000000,0.800000000,0.000000000
1679.468000000,0.003500000,-0.800000000,1.200000000,0.000000000,0.800000000,0.000000000
1679.488000000,0.003500000,-0.800000000,1.200000000,0.000000000,0.800000000,0.000000000
1679.508000000,0.003500000,-0.800000000,1.200000000,0.000000000,0.800000000,0.000000000
1679.528000000,0.003500000,-0.800000000,1.200000000,0.000000000,0.800000000,0.000000000
1679.548000000,0.003500000,-0.800000000,1.200000000,0.000000000,0.800000000,0.000000000
1679.568000000,0.003500000,-0.800000000,1.200000000,0.000000000,0.800000000,0.000000000
1679.588000000,0.003500000,-0.800000000,1.200000000,0.000000000,0.800000000,0.000000000
1679.608000000,0.003500000,-0.800000000,1.200000000,0.000000000,0.800000000,0.000000000
1679.625000000,0.003500000,-0.800000000,1.200000000,0.000000000,0.800000000,0.000000000
1679.648000000,0.003500000,-0.800000000,1.200000000,0.000000000,0.800000000,0.000000000
1679.667000000,0.003500000,-0.800000000,1.200000000,0.000000000,0.800000000,0.000000000
1679.688000000,0.003500000,-0.800000000,1.200000000,0.000000000,0.800000000,0.000000000
1679.708000000,0.003500000,-0.800000000,1.200000000,0.000000000,0.800000000,0.000000000
1679.728000000,0.003500000,-0.800000000,1.200000000,0.000000000,0.800000000,0.000000000
1679.748000000,0.003500000,-0.800000000,1.200000000,0.000000000,0.800000000,0.000000000
1679.768000000,0.003500000,-0.800000000,1.200000000,0.000000000,0.800000000,0.000000000
1679.788000000,0.003500000,-0.800000000,1.200000000,0.000000000,0.800000000,0.000000000
1679.808000000,0.003500000,-0.800000000,1.200000000,0.000000000,0.800000000,0.000000000
1679.828000000,0.003500000,-0.800000000,1.200000000,0.000000000,0.800000000,0.000000000
1679.848000000,0.003500000,-0.800000000,1.200000000,0.000000000,0.800000000,0.000000000
1679.868000000,0.003500000,-0.800000000,1.200000000,0.000000000,0.800000000,0.000000000
1679.888000000,0.003500000,-0.800000000,1.200000000,0.000000000,0.800000000,0.000000000
1679.908000000,0.003500000,-0.800000000,1.200000000,0.000000000,0.800000000,0.000000000
1679.928000000,0.003500000,-0.800000000,1.200000000,0.000000000,0.800000000,0.000000000
1679.948000000,0.003500000,-0.800000000,1.200000000,0.000000000,0.800000000,0.000000000
1679.968000000,0.003500000,-0.800000000,1.200000000,0.000000000,0.800000000,0.000000000
1679.988000000,0.003500000,-0.800000000,1.200000000,0.000000000,0.800000000,0.000000000
1680.006000000,0.003500000,-0.800000000,1.200000000,0.000000000,0.800000000,0.000000000
1680.028000000,0.003500000,-0.800000000,1.200000000,0.000000000,0.800000000,0.000000000
1680.048000000,0.003500000,-0.800000000,1.200000000,0.000000000,0.800000000,0.000000000
1680.068000000,0.003500000,-0.800000000,1.200000000,0.000000000,0.800000000,0.000000000
1680.088000000,0.003500000,-0.800000000,1.200000000,0.000000000,0.800000000,0.000000000
1680.108000000,0.003500000,-0.800000000,1.200000000,0.000000000,0.800000000,0.000000000
1680.128000000,0.003500000,-0.800000000,1.200000000,0.000000000,0.800000000,0.000000000
1680.148000000,0.003500000,-0.800000000,1.200000000,0.000000000,0.800000000,0.000000000
1680.168000000,0.003500000,-0.800000000,1.200000000,0.000000000,0.800000000,0.000000000
1680.188000000,0.003500000,-0.800000000,1.200000000,0.000000000,0.800000000,0.000000000
1680.208000000,0.003500000,-0.800000000,1.200000000,0.000000000,0.800000000,0.000000000
1680.227000000,0.003500000,-0.800000000,1.200000000,0.000000000,0.800000000,0.000000000
1680.248000000,0.003500000,-0.800000000,1.200000000,0.000000000,0.800000000,0.000000000
1680.268000000,0.003500000,-0.800000000,1.200000000,0.000000000,0.800000000,0.000000000
1680.287000000,0.003500000,-0.800000000,1.200000000,0.000000000,0.800000000,0.000000000
1680.308000000,0.003500000,-0.800000000,1.200000000,0.000000000,0.800000000,0.000000000
1680.328000000,0.003500000,-0.800000000,1.200000000,0.000000000,0.800000000,0.000000000
1680.345000000,0.003500000,-0.800000000,1.200000000,0.000000000,0.800000000,0.000000000
1680.368000000,0.003500000,-0.800000000,1.200000000,0.000000000,0.800000000,0.000000000
1680.388000000,0.003500000,-0.800000000,1.200000000,0.000000000,0.800000000,0.000000000
1680.408000000,0.003500000,-0.800000000,1.200000000,0.000000000,0.800000000,0.000000000
1680.428000000,0.003500000,-0.800000000,1.200000000,0.000000000,0.800000000,0.000000000
1680.448000000,0.003500000,-0.800000000,1.200000000,0.000000000,0.800000000,0.000000000
1680.468000000,0.003500000,-0.800000000,1.200000000,0.000000000,0.800000000,0.000000000
1680.488000000,0.003500000,-0.800000000,1.200000000,0.000000000,0.800000000,0.000000000
1680.508000000,0.003500000,-0.800000000,1.200000000,0.000000000,0.800000000,0.000000000
1680.528000000,0.003500000,-0.800000000,1.200000000,0.000000000,0.800000000,0.000000000
1680.548000000,0.003500000,-0.800000000,1.200000000,0.000000000,0.800000000,0.000000000
1680.568000000,0.003500000,-0.800000000,1.200000000,0.000000000,0.800000000,0.000000000
1680.588000000,0.003500000,-0.800000000,1.200000000,0.000000000,0.800000000,0.000000000
1680.608000000,0.003500000,-0.800000000,1.200000000,0.000000000,0.800000000,0.000000000
1680.627000000,0.003500000,-0.800000000,1.200000000,0.000000000,0.800000000,0.000000000
1680.648000000,0.003500000,-0.800000000,1.200000000,0.000000000,0.800000000,0.000000000
1680.668000000,0.003500000,-0.800000000,1.200000000,0.000000000,0.800000000,0.000000000
1680.688000000,0.003500000,-0.800000000,1.200000000,0.000000000,0.800000000,0.000000000
1680.706000000,0.003500000,-0.800000000,1.200000000,0.000000000,0.800000000,0.000000000
1680.728000000,0.003500000,-0.800000000,1.200000000,0.000000000,0.800000000,0.000000000
1680.748000000,0.003500000,-0.800000000,1.200000000,0.000000000,0.800000000,0.000000000
1680.768000000,0.003500000,-0.800000000,1.200000000,0.000000000,0.800000000,0.000000000
1680.788000000,0.003500000,-0.800000000,1.200000000,0.000000000,0.800000000,0.000000000
1680.808000000,0.003500000,-0.800000000,1.200000000,0.000000000,0.800000000,0.000000000
1680.828000000,0.003500000,-0.800000000,1.200000000,0.000000000,0.800000000,0.000000000
1680.846000000,0.003500000,-0.800000000,1.200000000,0.000000000,0.800000000,0.000000000
1680.868000000,0.003500000,-0.800000000,1.200000000,0.000000000,0.800000000,0.000000000
1680.888000000,0.003500000,-0.800000000,1.200000000,0.000000000,0.800000000,0.000000000
1680.908000000,0.003500000,-0.800000000,1.200000000,0.000000000,0.800000000,0.000000000
1680.928000000,0.003500000,-0.800000000,1.200000000,0.000000000,0.800000000,0.000000000
1680.948000000,0.003500000,-0.800000000,1.200000000,0.000000000,0.800000000,0.000000000
1680.968000000,0.003500000,-0.800000000,1.200000000,0.000000000,0.800000000,0.000000000
1680.988000000,0.003500000,-0.800000000,1.200000000,0.000000000,0.800000000,0.000000000
1681.007000000,0.003500000,-0.800000000,1.200000000,0.000000000,0.800000000,0.000000000
1681.028000000,0.003500000,-0.800000000,1.200000000,0.000000000,0.800000000,0.000000000
1681.048000000,0.003500000,-0.800000000,1.200000000,0.000000000,0.800000000,0.000000000
1681.060000000,0.003500000,-0.800000000,1.200000000,0.000000000,0.800000000,0.000000000
1681.088000000,0.003500000,-0.800000000,1.200000000,0.000000000,0.800000000,0.000000000
1681.107000000,0.003500000,-0.800000000,1.200000000,0.000000000,0.800000000,0.000000000
1681.124000000,0.003500000,-0.800000000,1.200000000,0.000000000,0.800000000,0.000000000
1681.148000000,0.003500000,-0.800000000,1.200000000,0.000000000,0.800000000,0.000000000
1681.168000000,0.003500000,-0.800000000,1.200000000,0.000000000,0.800000000,0.000000000
1681.187000000,0.003500000,-0.800000000,1.200000000,0.000000000,0.800000000,0.000000000
1681.208000000,0.003500000,-0.800000000,1.200000000,0.000000000,0.800000000,0.000000000
1681.228000000,0.003500000,-0.800000000,1.200000000,0.000000000,0.800000000,0.000000000
1681.248000000,0.003500000,-0.800000000,1.200000000,0.000000000,0.800000000,0.000000000
1681.268000000,0.003500000,-0.800000000,1.200000000,0.000000000,0.800000000,0.000000000
1681.288000000,0.003500000,-0.800000000,1.200000000,0.000000000,0.800000000,0.000000000
1681.308000000,0.003500000,-0.800000000,1.200000000,0.000000000,0.800000000,0.000000000
1681.328000000,0.003500000,-0.800000000,1.200000000,0.000000000,0.800000000,0.000000000
1681.348000000,0.003500000,-0.800000000,1.200000000,0.000000000,0.800000000,0.000000000
1681.368000000,0.003500000,-0.800000000,1.200000000,0.000000000,0.800000000,0.000000000
1681.388000000,0.003500000,-0.800000000,1.200000000,0.000000000,0.800000000,0.000000000
1681.406000000,0.003500000,-0.800000000,1.200000000,0.000000000,0.800000000,0.000000000
1681.428000000,0.003500000,-0.800000000,1.200000000,0.000000000,0.800000000,0.000000000
1681.448000000,0.003500000,-0.800000000,1.200000000,0.000000000,0.800000000,0.000000000
1681.466000000,0.003500000,-0.800000000,1.200000000,0.000000000,0.800000000,0.000000000
1681.488000000,0.003500000,-0.800000000,1.200000000,0.000000000,0.800000000,0.000000000
1681.507000000,0.003500000,-0.800000000,1.200000000,0.000000000,0.800000000,0.000000000
1681.528000000,0.003500000,-0.800000000,1.200000000,0.000000000,0.800000000,0.000000000
1681.548000000,0.003500000,-0.800000000,1.200000000,0.000000000,0.800000000,0.000000000
1681.568000000,0.003500000,-0.800000000,1.200000000,0.000000000,0.800000000,0.000000000
1681.587000000,0.003500000,-0.800000000,1.200000000,0.000000000,0.800000000,0.000000000
1681.608000000,0.003500000,-0.800000000,1.200000000,0.000000000,0.800000000,0.000000000
1681.628000000,0.003500000,-0.800000000,1.200000000,0.000000000,0.800000000,0.000000000
1681.648000000,0.003500000,-0.800000000,1.200000000,0.000000000,0.800000000,0.000000000
1681.668000000,0.003500000,-0.800000000,1.200000000,0.000000000,0.800000000,0.000000000
1681.687000000,0.003500000,-0.800000000,1.200000000,0.000000000,0.800000000,0.000000000
1681.708000000,0.003500000,-0.800000000,1.200000000,0.000000000,0.800000000,0.000000000
1681.728000000,0.003500000,-0.800000000,1.200000000,0.000000000,0.800000000,0.000000000
1681.748000000,0.003500000,-0.800000000,1.200000000,0.000000000,0.800000000,0.000000000
1681.768000000,0.003500000,-0.800000000,1.200000000,0.000000000,0.800000000,0.000000000
1681.788000000,0.003500000,-0.800000000,1.200000000,0.000000000,0.800000000,0.000000000
1681.808000000,0.003500000,-0.800000000,1.200000000,0.000000000,0.800000000,0.000000000
1681.828000000,0.003500000,-0.800000000,1.200000000,0.000000000,0.800000000,0.000000000
1681.848000000,0.003500000,-0.800000000,1.200000000,0.000000000,0.800000000,0.000000000
1681.868000000,0.003500000,-0.800000000,1.200000000,0.000000000,0.800000000,0.000000000
1681.888000000,0.003500000,-0.800000000,1.200000000,0.000000000,0.800000000,0.000000000
1681.908000000,0.003500000,-0.800000000,1.200000000,0.000000000,0.800000000,0.000000000
1681.928000000,0.003500000,-0.800000000,1.200000000,0.000000000,0.800000000,0.000000000
1681.948000000,0.003500000,-0.800000000,1.200000000,0.000000000,0.800000000,0.000000000
1681.968000000,0.003500000,-0.800000000,1.200000000,0.000000000,0.800000000,0.000000000
1681.987000000,0.003500000,-0.800000000,1.200000000,0.000000000,0.800000000,0.000000000
1682.008000000,0.003500000,-0.800000000,1.200000000,0.000000000,0.800000000,0.000000000
1682.027000000,0.003500000,-0.800000000,1.200000000,0.000000000,0.800000000,0.000000000
1682.048000000,0.003500000,-0.800000000,1.200000000,0.000000000,0.800000000,0.000000000
1682.068000000,0.003500000,-0.800000000,1.200000000,0.000000000,0.800000000,0.000000000
1682.088000000,0.003500000,-0.800000000,1.200000000,0.000000000,0.800000000,0.000000000
1682.108000000,0.003500000,-0.800000000,1.200000000,0.000000000,0.800000000,0.000000000
1682.128000000,0.003500000,-0.800000000,1.200000000,0.000000000,0.800000000,0.000000000
1682.148000000,0.003500000,-0.800000000,1.200000000,0.000000000,0.800000000,0.000000000
1682.168000000,0.003500000,-0.800000000,1.200000000,0.000000000,0.800000000,0.000000000
1682.187000000,0.003500000,-0.800000000,1.200000000,0.000000000,0.800000000,0.000000000
1682.208000000,0.003500000,-0.800000000,1.200000000,0.000000000,0.800000000,0.000000000
1682.228000000,0.003500000,-0.800000000,1.200000000,0.000000000,0.800000000,0.000000000
1682.248000000,0.003500000,-0.800000000,1.200000000,0.000000000,0.800000000,0.000000000
1682.268000000,0.003500000,-0.800000000,1.200000000,0.000000000,0.800000000,0.000000000
1682.288000000,0.003500000,-0.800000000,1.200000000,0.000000000,0.800000000,0.000000000
1682.308000000,0.003500000,-0.800000000,1.200000000,0.000000000,0.800000000,0.000000000
1682.328000000,0.003500000,-0.800000000,1.200000000,0.000000000,0.800000000,0.000000000
1682.348000000,0.003500000,-0.800000000,1.200000000,0.000000000,0.800000000,0.000000000
1682.368000000,0.003500000,-0.800000000,1.200000000,0.000000000,0.800000000,0.000000000
1682.382000000,0.003500000,-0.800000000,1.200000000,0.000000000,0.800000000,0.000000000
1682.408000000,0.003500000,-0.800000000,1.200000000,0.000000000,0.800000000,0.000000000
1682.428000000,0.003500000,-0.800000000,1.200000000,0.000000000,0.800000000,0.000000000
1682.448000000,0.003500000,-0.800000000,1.200000000,0.000000000,0.800000000,0.000000000
1682.468000000,0.003500000,-0.800000000,1.200000000,0.000000000,0.800000000,0.000000000
1682.488000000,0.003500000,-0.800000000,1.200000000,0.000000000,0.800000000,0.000000000
1682.508000000,0.003500000,-0.800000000,1.200000000,0.000000000,0.800000000,0.000000000
1682.528000000,0.003500000,-0.800000000,1.200000000,0.000000000,0.800000000,0.000000000
1682.548000000,0.003500000,-0.800000000,1.200000000,0.000000000,0.800000000,0.000000000
1682.568000000,0.003500000,-0.800000000,1.200000000,0.000000000,0.800000000,0.000000000
1682.588000000,0.003500000,-0.800000000,1.200000000,0.000000000,0.800000000,0.000000000
1682.608000000,0.003500000,-0.800000000,1.200000000,0.000000000,0.800000000,0.000000000
1682.627000000,0.003500000,-0.800000000,1.200000000,0.000000000,0.800000000,0.000000000
1682.648000000,0.003500000,-0.800000000,1.200000000,0.000000000,0.800000000,0.000000000
1682.668000000,0.003500000,-0.800000000,1.200000000,0.000000000,0.800000000,0.000000000
1682.688000000,0.003500000,-0.800000000,1.200000000,0.000000000,0.800000000,0.000000000
1682.701000000,0.003500000,-0.800000000,1.200000000,0.000000000,0.800000000,0.000000000
1682.728000000,0.003500000,-0.800000000,1.200000000,0.000000000,0.800000000,0.000000000
1682.748000000,0.003500000,-0.800000000,1.200000000,0.000000000,0.800000000,0.000000000
1682.768000000,0.003500000,-0.800000000,1.200000000,0.000000000,0.800000000,0.000000000
1682.788000000,0.003500000,-0.800000000,1.200000000,0.000000000,0.800000000,0.000000000
1682.808000000,0.003500000,-0.800000000,1.200000000,0.000000000,0.800000000,0.000000000
1682.828000000,0.003500000,-0.800000000,1.200000000,0.000000000,0.800000000,0.000000000
1682.848000000,0.003500000,-0.800000000,1.200000000,0.000000000,0.800000000,0.000000000
1682.868000000,0.003500000,-0.800000000,1.200000000,0.000000000,0.800000000,0.000000000
1682.888000000,0.003500000,-0.800000000,1.200000000,0.000000000,0.800000000,0.000000000
1682.908000000,0.003500000,-0.800000000,1.200000000,0.000000000,0.800000000,0.000000000
1682.926000000,0.003500000,-0.800000000,1.200000000,0.000000000,0.800000000,0.000000000
1682.948000000,0.003500000,-0.800000000,1.200000000,0.000000000,0.800000000,0.000000000
1682.963000000,0.003500000,-0.800000000,1.200000000,0.000000000,0.800000000,0.000000000
1682.988000000,0.003500000,-0.800000000,1.200000000,0.000000000,0.800000000,0.000000000
1683.006000000,0.003500000,-0.800000000,1.200000000,0.000000000,0.800000000,0.000000000
1683.027000000,0.003500000,-0.800000000,1.200000000,0.000000000,0.800000000,0.000000000
1683.048000000,0.003500000,-0.800000000,1.200000000,0.000000000,0.800000000,0.000000000
1683.068000000,0.003500000,-0.800000000,1.200000000,0.000000000,0.800000000,0.000000000
1683.088000000,0.003500000,-0.800000000,1.200000000,0.000000000,0.800000000,0.000000000
1683.106000000,0.003500000,-0.800000000,1.200000000,0.000000000,0.800000000,0.000000000
1683.127000000,0.003500000,-0.800000000,1.200000000,0.000000000,0.800000000,0.000000000
1683.148000000,0.003500000,-0.800000000,1.200000000,0.000000000,0.800000000,0.000000000
1683.166000000,0.003500000,-0.800000000,1.200000000,0.000000000,0.800000000,0.000000000
1683.188000000,0.003500000,-0.800000000,1.200000000,0.000000000,0.800000000,0.000000000
1683.208000000,0.003500000,-0.800000000,1.200000000,0.000000000,0.800000000,0.000000000
1683.228000000,0.003500000,-0.800000000,1.200000000,0.000000000,0.800000000,0.000000000
1683.248000000,0.003500000,-0.800000000,1.200000000,0.000000000,0.800000000,0.000000000
1683.268000000,0.003500000,-0.800000000,1.200000000,0.000000000,0.800000000,0.000000000
1683.288000000,0.003500000,-0.800000000,1.200000000,0.000000000,0.800000000,0.000000000
1683.308000000,0.003500000,-0.800000000,1.200000000,0.000000000,0.800000000,0.000000000
1683.328000000,0.003500000,-0.800000000,1.200000000,0.000000000,0.800000000,0.000000000
1683.348000000,0.003500000,-0.800000000,1.200000000,0.000000000,0.800000000,0.000000000
1683.366000000,0.003500000,-0.800000000,1.200000000,0.000000000,0.800000000,0.000000000
1683.388000000,0.003500000,-0.800000000,1.200000000,0.000000000,0.800000000,0.000000000
1683.408000000,0.003500000,-0.800000000,1.200000000,0.000000000,0.800000000,0.000000000
1683.428000000,0.003500000,-0.800000000,1.200000000,0.000000000,0.800000000,0.000000000
1683.448000000,0.003500000,-0.800000000,1.200000000,0.000000000,0.800000000,0.000000000
1683.468000000,0.003500000,-0.800000000,1.200000000,0.000000000,0.800000000,0.000000000
1683.488000000,0.003500000,-0.800000000,1.200000000,0.000000000,0.800000000,0.000000000
1683.508000000,0.003500000,-0.800000000,1.200000000,0.000000000,0.800000000,0.000000000
1683.527000000,0.003500000,-0.800000000,1.200000000,0.000000000,0.800000000,0.000000000
1683.548000000,0.003500000,-0.800000000,1.200000000,0.000000000,0.800000000,0.000000000
1683.567000000,0.003500000,-0.800000000,1.200000000,0.000000000,0.800000000,0.000000000
1683.584000000,0.003500000,-0.800000000,1.200000000,0.000000000,0.800000000,0.000000000
1683.608000000,0.003500000,-0.800000000,1.200000000,0.000000000,0.800000000,0.000000000
1683.628000000,0.003500000,-0.800000000,1.200000000,0.000000000,0.800000000,0.000000000
1683.648000000,0.003500000,-0.800000000,1.200000000,0.000000000,0.800000000,0.000000000
1683.668000000,0.003500000,-0.800000000,1.200000000,0.000000000,0.800000000,0.000000000
1683.688000000,0.003500000,-0.800000000,1.200000000,0.000000000,0.800000000,0.000000000
1683.708000000,0.003500000,-0.800000000,1.200000000,0.000000000,0.800000000,0.000000000
1683.728000000,0.003500000,-0.800000000,1.200000000,0.000000000,0.800000000,0.000000000
1683.748000000,0.003500000,-0.800000000,1.200000000,0.000000000,0.800000000,0.000000000
1683.768000000,0.003500000,-0.800000000,1.200000000,0.000000000,0.800000000,0.000000000
1683.788000000,0.003500000,-0.800000000,1.200000000,0.000000000,0.800000000,0.000000000
1683.808000000,0.003500000,-0.800000000,1.200000000,0.000000000,0.800000000,0.000000000
1683.828000000,0.003500000,-0.800000000,1.200000000,0.000000000,0.800000000,0.000000000
1683.848000000,0.003500000,-0.800000000,1.200000000,0.000000000,0.800000000,0.000000000
1683.868000000,0.003500000,-0.800000000,1.200000000,0.000000000,0.800000000,0.000000000
1683.887000000,0.003500000,-0.800000000,1.200000000,0.000000000,0.800000000,0.000000000
1683.908000000,0.003500000,-0.800000000,1.200000000,0.000000000,0.800000000,0.000000000
1683.928000000,0.003500000,-0.800000000,1.200000000,0.000000000,0.800000000,0.000000000
1683.948000000,0.003500000,-0.800000000,1.200000000,0.000000000,0.800000000,0.000000000
1683.968000000,0.003500000,-0.800000000,1.200000000,0.000000000,0.800000000,0.000000000
1683.988000000,0.003500000,-0.800000000,1.200000000,0.000000000,0.800000000,0.000000000
1684.008000000,0.003500000,-0.800000000,1.200000000,0.000000000,0.800000000,0.000000000
1684.028000000,0.003500000,-0.800000000,1.200000000,0.000000000,0.800000000,0.000000000
1684.048000000,0.003500000,-0.800000000,1.200000000,0.000000000,0.800000000,0.000000000
1684.068000000,0.003500000,-0.800000000,1.200000000,0.000000000,0.800000000,0.000000000
1684.088000000,0.003500000,-0.800000000,1.200000000,0.000000000,0.800000000,0.000000000
1684.108000000,0.003500000,-0.800000000,1.200000000,0.000000000,0.800000000,0.000000000
1684.128000000,0.003500000,-0.800000000,1.200000000,0.000000000,0.800000000,0.000000000
1684.147000000,0.003500000,-0.800000000,1.200000000,0.000000000,0.800000000,0.000000000
1684.167000000,0.003500000,-0.800000000,1.200000000,0.000000000,0.800000000,0.000000000
1684.188000000,0.003500000,-0.800000000,1.200000000,0.000000000,0.800000000,0.000000000
1684.208000000,0.003500000,-0.800000000,1.200000000,0.000000000,0.800000000,0.000000000
1684.228000000,0.003500000,-0.800000000,1.200000000,0.000000000,0.800000000,0.000000000
1684.248000000,0.003500000,-0.800000000,1.200000000,0.000000000,0.800000000,0.000000000
1684.268000000,0.003500000,-0.800000000,1.200000000,0.000000000,0.800000000,0.000000000
1684.288000000,0.003500000,-0.800000000,1.200000000,0.000000000,0.800000000,0.000000000
1684.308000000,0.003500000,-0.800000000,1.200000000,0.000000000,0.800000000,0.000000000
1684.328000000,0.003500000,-0.800000000,1.200000000,0.000000000,0.800000000,0.000000000
1684.348000000,0.003500000,-0.800000000,1.200000000,0.000000000,0.800000000,0.000000000
1684.368000000,0.003500000,-0.800000000,1.200000000,0.000000000,0.800000000,0.000000000
1684.388000000,0.003500000,-0.800000000,1.200000000,0.000000000,0.800000000,0.000000000
1684.401000000,0.003500000,-0.800000000,1.200000000,0.000000000,0.800000000,0.000000000
1684.428000000,0.003500000,-0.800000000,1.200000000,0.000000000,0.800000000,0.000000000
1684.447000000,0.003500000,-0.800000000,1.200000000,0.000000000,0.800000000,0.000000000
1684.464000000,0.003500000,-0.800000000,1.200000000,0.000000000,0.800000000,0.000000000
1684.487000000,0.003500000,-0.800000000,1.200000000,0.000000000,0.800000000,0.000000000
1684.508000000,0.003500000,-0.800000000,1.200000000,0.000000000,0.800000000,0.000000000
1684.528000000,0.003500000,-0.800000000,1.200000000,0.000000000,0.800000000,0.000000000
1684.548000000,0.003500000,-0.800000000,1.200000000,0.000000000,0.800000000,0.000000000
1684.568000000,0.003500000,-0.800000000,1.200000000,0.000000000,0.800000000,0.000000000
1684.588000000,0.003500000,-0.800000000,1.200000000,0.000000000,0.800000000,0.000000000
1684.608000000,0.003500000,-0.800000000,1.200000000,0.000000000,0.800000000,0.000000000
1684.628000000,0.003500000,-0.800000000,1.200000000,0.000000000,0.800000000,0.000000000
1684.648000000,0.003500000,-0.800000000,1.200000000,0.000000000,0.800000000,0.000000000
1684.668000000,0.003500000,-0.800000000,1.200000000,0.000000000,0.800000000,0.000000000
1684.688000000,0.003500000,-0.800000000,1.200000000,0.000000000,0.800000000,0.000000000
1684.708000000,0.003500000,-0.800000000,1.200000000,0.000000000,0.800000000,0.000000000
1684.728000000,0.003500000,-0.800000000,1.200000000,0.000000000,0.800000000,0.000000000
1684.748000000,0.003500000,-0.800000000,1.200000000,0.000000000,0.800000000,0.000000000
1684.768000000,0.003500000,-0.800000000,1.200000000,0.000000000,0.800000000,0.000000000
1684.788000000,0.003500000,-0.800000000,1.200000000,0.000000000,0.800000000,0.000000000
1684.807000000,0.003500000,-0.800000000,1.200000000,0.000000000,0.800000000,0.000000000
1684.828000000,0.003500000,-0.800000000,1.200000000,0.000000000,0.800000000,0.000000000
1684.848000000,0.003500000,-0.800000000,1.200000000,0.000000000,0.800000000,0.000000000
1684.866000000,0.003500000,-0.800000000,1.200000000,0.000000000,0.800000000,0.000000000
1684.888000000,0.003500000,-0.800000000,1.200000000,0.000000000,0.800000000,0.000000000
1684.906000000,0.003500000,-0.800000000,1.200000000,0.000000000,0.800000000,0.000000000
1684.928000000,0.003500000,-0.800000000,1.200000000,0.000000000,0.800000000,0.000000000
1684.948000000,0.003500000,-0.800000000,1.200000000,0.000000000,0.800000000,0.000000000
1684.968000000,0.003500000,-0.800000000,1.200000000,0.000000000,0.800000000,0.000000000
1684.988000000,0.003500000,-0.800000000,1.200000000,0.000000000,0.800000000,0.000000000
1685.008000000,0.003500000,-0.800000000,1.200000000,0.000000000,0.800000000,0.000000000
1685.028000000,0.003500000,-0.800000000,1.200000000,0.000000000,0.800000000,0.000000000
1685.048000000,0.003500000,-0.800000000,1.200000000,0.000000000,0.800000000,0.000000000
1685.067000000,0.003500000,-0.800000000,1.200000000,0.000000000,0.800000000,0.000000000
1685.067000000,0.003500000,-0.800000000,1.200000000,0.000000000,0.800000000,0.000000000
1685.067000000,0.003500000,-0.800000000,1.200000000,0.000000000,0.800000000,0.000000000
1685.067000000,0.003500000,-0.800000000,1.200000000,0.000000000,0.800000000,0.000000000
1685.067000000,0.003500000,-0.800000000,1.200000000,0.000000000,0.800000000,0.000000000
1685.067000000,0.003500000,-0.800000000,1.200000000,0.000000000,0.800000000,0.000000000
1685.067000000,0.003500000,-0.800000000,1.200000000,0.000000000,0.800000000,0.000000000
1685.067000000,0.003500000,-0.800000000,1.200000000,0.000000000,0.800000000,0.000000000
1685.067000000,0.003500000,-0.800000000,1.200000000,0.000000000,0.800000000,0.000000000
1685.067000000,0.003500000,-0.800000000,1.200000000,0.000000000,0.800000000,0.000000000
1685.067000000,0.003500000,-0.800000000,1.200000000,0.000000000,0.800000000,0.000000000
1685.067000000,0.003500000,-0.800000000,1.200000000,0.000000000,0.800000000,0.000000000
1685.067000000,0.003500000,-0.800000000,1.200000000,0.000000000,0.800000000,0.000000000
1685.067000000,0.003500000,-0.800000000,1.200000000,0.000000000,0.800000000,0.000000000
1685.067000000,0.003500000,-0.800000000,1.200000000,0.000000000,0.800000000,0.000000000
1685.067000000,0.003500000,-0.800000000,1.200000000,0.000000000,0.800000000,0.000000000
1685.073000000,0.003500000,-0.800000000,1.200000000,0.000000000,0.800000000,0.000000000
1685.408000000,0.003500000,-0.800000000,1.200000000,0.000000000,0.800000000,0.000000000
1685.428000000,0.003500000,-0.800000000,1.200000000,0.000000000,0.800000000,0.000000000
1685.448000000,0.003500000,-0.800000000,1.200000000,0.000000000,0.800000000,0.000000000
1685.468000000,0.003500000,-0.800000000,1.200000000,0.000000000,0.800000000,0.000000000
1685.488000000,0.003500000,-0.800000000,1.200000000,0.000000000,0.800000000,0.000000000
1685.508000000,0.003500000,-0.800000000,1.200000000,0.000000000,0.800000000,0.000000000
1685.528000000,0.003500000,-0.800000000,1.200000000,0.000000000,0.800000000,0.000000000
1685.548000000,0.003500000,-0.800000000,1.200000000,0.000000000,0.800000000,0.000000000
1685.567000000,0.003500000,-0.800000000,1.200000000,0.000000000,0.800000000,0.000000000
1685.588000000,0.003500000,-0.800000000,1.200000000,0.000000000,0.800000000,0.000000000
1685.608000000,0.003500000,-0.800000000,1.200000000,0.000000000,0.800000000,0.000000000
1685.628000000,0.003500000,-0.800000000,1.200000000,0.000000000,0.800000000,0.000000000
1685.646000000,0.003500000,-0.800000000,1.200000000,0.000000000,0.800000000,0.000000000
1685.668000000,0.003500000,-0.800000000,1.200000000,0.000000000,0.800000000,0.000000000
1685.687000000,0.003500000,-0.800000000,1.200000000,0.000000000,0.800000000,0.000000000
1685.708000000,0.003500000,-0.800000000,1.200000000,0.000000000,0.800000000,0.000000000
1685.728000000,0.003500000,-0.800000000,1.200000000,0.000000000,0.800000000,0.000000000
1685.748000000,0.003500000,-0.800000000,1.200000000,0.000000000,0.800000000,0.000000000
1685.768000000,0.003500000,-0.800000000,1.200000000,0.000000000,0.800000000,0.000000000
1685.788000000,0.003500000,-0.800000000,1.200000000,0.000000000,0.800000000,0.000000000
1685.808000000,0.003500000,-0.800000000,1.200000000,0.000000000,0.800000000,0.000000000
1685.827000000,0.003500000,-0.800000000,1.200000000,0.000000000,0.800000000,0.000000000
1685.848000000,0.003500000,-0.800000000,1.200000000,0.000000000,0.800000000,0.000000000
1685.868000000,0.003500000,-0.800000000,1.200000000,0.000000000,0.800000000,0.000000000
1685.887000000,0.003500000,-0.800000000,1.200000000,0.000000000,0.800000000,0.000000000
1685.908000000,0.003500000,-0.800000000,1.200000000,0.000000000,0.800000000,0.000000000
1685.928000000,0.003500000,-0.800000000,1.200000000,0.000000000,0.800000000,0.000000000
1685.948000000,0.003500000,-0.800000000,1.200000000,0.000000000,0.800000000,0.000000000
1685.968000000,0.003500000,-0.800000000,1.200000000,0.000000000,0.800000000,0.000000000
1685.988000000,0.003500000,-0.800000000,1.200000000,0.000000000,0.800000000,0.000000000
1686.008000000,0.003500000,-0.800000000,1.200000000,0.000000000,0.800000000,0.000000000
1686.028000000,0.003500000,-0.800000000,1.200000000,0.000000000,0.800000000,0.000000000
1686.048000000,0.003500000,-0.800000000,1.200000000,0.000000000,0.800000000,0.000000000
1686.068000000,0.003500000,-0.800000000,1.200000000,0.000000000,0.800000000,0.000000000
1686.082000000,0.003500000,-0.800000000,1.200000000,0.000000000,0.800000000,0.000000000
1686.108000000,0.003500000,-0.800000000,1.200000000,0.000000000,0.800000000,0.000000000
1686.128000000,0.003500000,-0.800000000,1.200000000,0.000000000,0.800000000,0.000000000
1686.148000000,0.003500000,-0.800000000,1.200000000,0.000000000,0.800000000,0.000000000
1686.168000000,0.003500000,-0.800000000,1.200000000,0.000000000,0.800000000,0.000000000
1686.188000000,0.003500000,-0.800000000,1.200000000,0.000000000,0.800000000,0.000000000
1686.208000000,0.003500000,-0.800000000,1.200000000,0.000000000,0.800000000,0.000000000
1686.228000000,0.003500000,-0.800000000,1.200000000,0.000000000,0.800000000,0.000000000
1686.248000000,0.003500000,-0.800000000,1.200000000,0.000000000,0.800000000,0.000000000
1686.268000000,0.003500000,-0.800000000,1.200000000,0.000000000,0.800000000,0.000000000
1686.288000000,0.003500000,-0.800000000,1.200000000,0.000000000,0.800000000,0.000000000
1686.308000000,0.003500000,-0.800000000,1.200000000,0.000000000,0.800000000,0.000000000
1686.328000000,0.003500000,-0.800000000,1.200000000,0.000000000,0.800000000,0.000000000
1686.348000000,0.003500000,-0.800000000,1.200000000,0.000000000,0.800000000,0.000000000
1686.368000000,0.003500000,-0.800000000,1.200000000,0.000000000,0.800000000,0.000000000
1686.388000000,0.003500000,-0.800000000,1.200000000,0.000000000,0.800000000,0.000000000
1686.408000000,0.003500000,-0.800000000,1.200000000,0.000000000,0.800000000,0.000000000
1686.428000000,0.003500000,-0.800000000,1.200000000,0.000000000,0.800000000,0.000000000
1686.448000000,0.003500000,-0.800000000,1.200000000,0.000000000,0.800000000,0.000000000
1686.468000000,0.003500000,-0.800000000,1.200000000,0.000000000,0.800000000,0.000000000
1686.488000000,0.003500000,-0.800000000,1.200000000,0.000000000,0.800000000,0.000000000
1686.508000000,0.003500000,-0.800000000,1.200000000,0.000000000,0.800000000,0.000000000
1686.528000000,0.003500000,-0.800000000,1.200000000,0.000000000,0.800000000,0.000000000
1686.548000000,0.003500000,-0.800000000,1.200000000,0.000000000,0.800000000,0.000000000
1686.568000000,0.003500000,-0.800000000,1.200000000,0.000000000,0.800000000,0.000000000
1686.588000000,0.003500000,-0.800000000,1.200000000,0.000000000,0.800000000,0.000000000
1686.608000000,0.003500000,-0.800000000,1.200000000,0.000000000,0.800000000,0.000000000
1686.628000000,0.003500000,-0.800000000,1.200000000,0.000000000,0.800000000,0.000000000
1686.648000000,0.003500000,-0.800000000,1.200000000,0.000000000,0.800000000,0.000000000
1686.667000000,0.003500000,-0.800000000,1.200000000,0.000000000,0.800000000,0.000000000
1686.688000000,0.003500000,-0.800000000,1.200000000,0.000000000,0.800000000,0.000000000
1686.708000000,0.003500000,-0.800000000,1.200000000,0.000000000,0.800000000,0.000000000
1686.728000000,0.003500000,-0.800000000,1.200000000,0.000000000,0.800000000,0.000000000
1686.748000000,0.003500000,-0.800000000,1.200000000,0.000000000,0.800000000,0.000000000
1686.766000000,0.003500000,-0.800000000,1.200000000,0.000000000,0.800000000,0.000000000
1686.787000000,0.003500000,-0.800000000,1.200000000,0.000000000,0.800000000,0.000000000
1686.808000000,0.003500000,-0.800000000,1.200000000,0.000000000,0.800000000,0.000000000
1686.828000000,0.003500000,-0.800000000,1.200000000,0.000000000,0.800000000,0.000000000
1686.848000000,0.003500000,-0.800000000,1.200000000,0.000000000,0.800000000,0.000000000
1686.868000000,0.003500000,-0.800000000,1.200000000,0.000000000,0.800000000,0.000000000
1686.888000000,0.003500000,-0.800000000,1.200000000,0.000000000,0.800000000,0.000000000
1686.907000000,0.003500000,-0.800000000,1.200000000,0.000000000,0.800000000,0.000000000
1686.927000000,0.003500000,-0.800000000,1.200000000,0.000000000,0.800000000,0.000000000
1686.948000000,0.003500000,-0.800000000,1.200000000,0.000000000,0.800000000,0.000000000
1686.957000000,0.003500000,-0.800000000,1.200000000,0.000000000,0.800000000,0.000000000
1686.988000000,0.003500000,-0.800000000,1.200000000,0.000000000,0.800000000,0.000000000
1687.008000000,0.003500000,-0.800000000,1.200000000,0.000000000,0.800000000,0.000000000
1687.028000000,0.003500000,-0.800000000,1.200000000,0.000000000,0.800000000,0.000000000
1687.048000000,0.003500000,-0.800000000,1.200000000,0.000000000,0.800000000,0.000000000
1687.068000000,0.003500000,-0.800000000,1.200000000,0.000000000,0.800000000,0.000000000
1687.088000000,0.003500000,-0.800000000,1.200000000,0.000000000,0.800000000,0.000000000
1687.108000000,0.003500000,-0.800000000,1.200000000,0.000000000,0.800000000,0.000000000
1687.128000000,0.003500000,-0.800000000,1.200000000,0.000000000,0.800000000,0.000000000
1687.148000000,0.003500000,-0.800000000,1.200000000,0.000000000,0.800000000,0.000000000
1687.168000000,0.003500000,-0.800000000,1.200000000,0.000000000,0.800000000,0.000000000
1687.188000000,0.003500000,-0.800000000,1.200000000,0.000000000,0.800000000,0.000000000
1687.208000000,0.003500000,-0.800000000,1.200000000,0.000000000,0.800000000,0.000000000
1687.227000000,0.003500000,-0.800000000,1.200000000,0.000000000,0.800000000,0.000000000
1687.248000000,0.003500000,-0.800000000,1.200000000,0.000000000,0.800000000,0.000000000
1687.268000000,0.003500000,-0.800000000,1.200000000,0.000000000,0.800000000,0.000000000
1687.288000000,0.003500000,-0.800000000,1.200000000,0.000000000,0.800000000,0.000000000
1687.308000000,0.003500000,-0.800000000,1.200000000,0.000000000,0.800000000,0.000000000
1687.328000000,0.003500000,-0.800000000,1.200000000,0.000000000,0.800000000,0.000000000
1687.348000000,0.003500000,-0.800000000,1.200000000,0.000000000,0.800000000,0.000000000
1687.368000000,0.003500000,-0.800000000,1.200000000,0.000000000,0.800000000,0.000000000
1687.388000000,0.003500000,-0.800000000,1.200000000,0.000000000,0.800000000,0.000000000
1687.408000000,0.003500000,-0.800000000,1.200000000,0.000000000,0.800000000,0.000000000
1687.428000000,0.003500000,-0.800000000,1.200000000,0.000000000,0.800000000,0.000000000
1687.448000000,0.003500000,-0.800000000,1.200000000,0.000000000,0.800000000,0.000000000
1687.468000000,0.003500000,-0.800000000,1.200000000,0.000000000,0.800000000,0.000000000
1687.488000000,0.003500000,-0.800000000,1.200000000,0.000000000,0.800000000,0.000000000
1687.508000000,0.003500000,-0.800000000,1.200000000,0.000000000,0.800000000,0.000000000
1687.528000000,0.003500000,-0.800000000,1.200000000,0.000000000,0.800000000,0.000000000
1687.548000000,0.003500000,-0.800000000,1.200000000,0.000000000,0.800000000,0.000000000
1687.568000000,0.003500000,-0.800000000,1.200000000,0.000000000,0.800000000,0.000000000
1687.588000000,0.003500000,-0.800000000,1.200000000,0.000000000,0.800000000,0.000000000
1687.608000000,0.003500000,-0.800000000,1.200000000,0.000000000,0.800000000,0.000000000
1687.628000000,0.003500000,-0.800000000,1.200000000,0.000000000,0.800000000,0.000000000
1687.648000000,0.003500000,-0.800000000,1.200000000,0.000000000,0.800000000,0.000000000
1687.668000000,0.003500000,-0.800000000,1.200000000,0.000000000,0.800000000,0.000000000
1687.688000000,0.003500000,-0.800000000,1.200000000,0.000000000,0.800000000,0.000000000
1687.708000000,0.003500000,-0.800000000,1.200000000,0.000000000,0.800000000,0.000000000
1687.728000000,0.003500000,-0.800000000,1.200000000,0.000000000,0.800000000,0.000000000
1687.748000000,0.003500000,-0.800000000,1.200000000,0.000000000,0.800000000,0.000000000
1687.768000000,0.003500000,-0.800000000,1.200000000,0.000000000,0.800000000,0.000000000
1687.788000000,0.003500000,-0.800000000,1.200000000,0.000000000,0.800000000,0.000000000
1687.808000000,0.003500000,-0.800000000,1.200000000,0.000000000,0.800000000,0.000000000
1687.828000000,0.003500000,-0.800000000,1.200000000,0.000000000,0.800000000,0.000000000
1687.844000000,0.003500000,-0.800000000,1.200000000,0.000000000,0.800000000,0.000000000
1687.868000000,0.003500000,-0.800000000,1.200000000,0.000000000,0.800000000,0.000000000
1687.887000000,0.003500000,-0.800000000,1.200000000,0.000000000,0.800000000,0.000000000
1687.908000000,0.003500000,-0.800000000,1.200000000,0.000000000,0.800000000,0.000000000
1687.928000000,0.003500000,-0.800000000,1.200000000,0.000000000,0.800000000,0.000000000
1687.948000000,0.003500000,-0.800000000,1.200000000,0.000000000,0.800000000,0.000000000
1687.968000000,0.003500000,-0.800000000,1.200000000,0.000000000,0.800000000,0.000000000
1687.988000000,0.003500000,-0.800000000,1.200000000,0.000000000,0.800000000,0.000000000
1688.008000000,0.003500000,-0.800000000,1.200000000,0.000000000,0.800000000,0.000000000
1688.028000000,0.003500000,-0.800000000,1.200000000,0.000000000,0.800000000,0.000000000
1688.048000000,0.003500000,-0.800000000,1.200000000,0.000000000,0.800000000,0.000000000
1688.068000000,0.003500000,-0.800000000,1.200000000,0.000000000,0.800000000,0.000000000
1688.087000000,0.003500000,-0.800000000,1.200000000,0.000000000,0.800000000,0.000000000
1688.105000000,0.003500000,-0.800000000,1.200000000,0.000000000,0.800000000,0.000000000
1688.128000000,0.003500000,-0.800000000,1.200000000,0.000000000,0.800000000,0.000000000
1688.148000000,0.003500000,-0.800000000,1.200000000,0.000000000,0.800000000,0.000000000
1688.168000000,0.003500000,-0.800000000,1.200000000,0.000000000,0.800000000,0.000000000
1688.188000000,0.003500000,-0.800000000,1.200000000,0.000000000,0.800000000,0.000000000
1688.208000000,0.003500000,-0.800000000,1.200000000,0.000000000,0.800000000,0.000000000
1688.228000000,0.003500000,-0.800000000,1.200000000,0.000000000,0.800000000,0.000000000
1688.248000000,0.003500000,-0.800000000,1.200000000,0.000000000,0.800000000,0.000000000
1688.268000000,0.003500000,-0.800000000,1.200000000,0.000000000,0.800000000,0.000000000
1688.288000000,0.003500000,-0.800000000,1.200000000,0.000000000,0.800000000,0.000000000
1688.308000000,0.003500000,-0.800000000,1.200000000,0.000000000,0.800000000,0.000000000
1688.328000000,0.003500000,-0.800000000,1.200000000,0.000000000,0.800000000,0.000000000
1688.348000000,0.003500000,-0.800000000,1.200000000,0.000000000,0.800000000,0.000000000
1688.368000000,0.003500000,-0.800000000,1.200000000,0.000000000,0.800000000,0.000000000
1688.388000000,0.003500000,-0.800000000,1.200000000,0.000000000,0.800000000,0.000000000
1688.408000000,0.003500000,-0.800000000,1.200000000,0.000000000,0.800000000,0.000000000
1688.428000000,0.003500000,-0.800000000,1.200000000,0.000000000,0.800000000,0.000000000
1688.448000000,0.003500000,-0.800000000,1.200000000,0.000000000,0.800000000,0.000000000
1688.468000000,0.003500000,-0.800000000,1.200000000,0.000000000,0.800000000,0.000000000
1688.488000000,0.003500000,-0.800000000,1.200000000,0.000000000,0.800000000,0.000000000
1688.508000000,0.003500000,-0.800000000,1.200000000,0.000000000,0.800000000,0.000000000
1688.528000000,0.003500000,-0.800000000,1.200000000,0.000000000,0.800000000,0.000000000
1688.548000000,0.003500000,-0.800000000,1.200000000,0.000000000,0.800000000,0.000000000
1688.568000000,0.003500000,-0.800000000,1.200000000,0.000000000,0.800000000,0.000000000
1688.588000000,0.003500000,-0.800000000,1.200000000,0.000000000,0.800000000,0.000000000
1688.608000000,0.003500000,-0.800000000,1.200000000,0.000000000,0.800000000,0.000000000
1688.628000000,0.003500000,-0.800000000,1.200000000,0.000000000,0.800000000,0.000000000
1688.648000000,0.003500000,-0.800000000,1.200000000,0.000000000,0.800000000,0.000000000
1688.667000000,0.003500000,-0.800000000,1.200000000,0.000000000,0.800000000,0.000000000
1688.682000000,0.003500000,-0.800000000,1.200000000,0.000000000,0.800000000,0.000000000
1688.708000000,0.003500000,-0.800000000,1.200000000,0.000000000,0.800000000,0.000000000
1688.728000000,0.003500000,-0.800000000,1.200000000,0.000000000,0.800000000,0.000000000
1688.743000000,0.003500000,-0.800000000,1.200000000,0.000000000,0.800000000,0.000000000
1688.768000000,0.003500000,-0.800000000,1.200000000,0.000000000,0.800000000,0.000000000
1688.788000000,0.003500000,-0.800000000,1.200000000,0.000000000,0.800000000,0.000000000
1688.808000000,0.003500000,-0.800000000,1.200000000,0.000000000,0.800000000,0.000000000
1688.828000000,0.003500000,-0.800000000,1.200000000,0.000000000,0.800000000,0.000000000
1688.847000000,0.003500000,-0.800000000,1.200000000,0.000000000,0.800000000,0.000000000
1688.868000000,0.003500000,-0.800000000,1.200000000,0.000000000,0.800000000,0.000000000
1688.887000000,0.003500000,-0.800000000,1.200000000,0.000000000,0.800000000,0.000000000
1688.904000000,0.003500000,-0.800000000,1.200000000,0.000000000,0.800000000,0.000000000
1688.925000000,0.003500000,-0.800000000,1.200000000,0.000000000,0.800000000,0.000000000
1688.948000000,0.003500000,-0.800000000,1.200000000,0.000000000,0.800000000,0.000000000
1688.968000000,0.003500000,-0.800000000,1.200000000,0.000000000,0.800000000,0.000000000
