Omar-H-Khedr/robotics_project/ros2_ws/install/experiment_manager/lib/python3.12/site-packages/results/baseline_trials/trial_20260514_171530/joint_states.csv
ros_time_sec,joint_1,joint_2,joint_3,joint_4,joint_5,joint_6
1202.826000000,-0.000000000,-0.800000000,1.200000000,0.000000000,0.800000000,0.000000000
1202.848000000,-0.000000000,-0.800000000,1.200000000,0.000000000,0.800000000,0.000000000
1202.868000000,-0.000000000,-0.800000000,1.200000000,0.000000000,0.800000000,0.000000000
1202.888000000,-0.000000000,-0.800000000,1.200000000,0.000000000,0.800000000,0.000000000
1202.908000000,-0.000000000,-0.800000000,1.200000000,0.000000000,0.800000000,0.000000000
1202.928000000,-0.000000000,-0.800000000,1.200000000,0.000000000,0.800000000,0.000000000
1202.948000000,-0.000000000,-0.800000000,1.200000000,0.000000000,0.800000000,0.000000000
1202.967000000,-0.000000000,-0.800000000,1.200000000,0.000000000,0.800000000,0.000000000
1202.988000000,-0.000000000,-0.800000000,1.200000000,0.000000000,0.800000000,0.000000000
1203.008000000,-0.000000000,-0.800000000,1.200000000,0.000000000,0.800000000,0.000000000
1203.028000000,-0.000000000,-0.800000000,1.200000000,0.000000000,0.800000000,0.000000000
1203.048000000,-0.000000000,-0.800000000,1.200000000,0.000000000,0.800000000,0.000000000
1203.068000000,-0.000000000,-0.800000000,1.200000000,0.000000000,0.800000000,0.000000000
1203.088000000,-0.000000000,-0.800000000,1.200000000,0.000000000,0.800000000,0.000000000
1203.108000000,-0.000000000,-0.800000000,1.200000000,0.000000000,0.800000000,0.000000000
1203.128000000,-0.000000000,-0.800000000,1.200000000,0.000000000,0.800000000,0.000000000
1203.148000000,-0.000000000,-0.800000000,1.200000000,0.000000000,0.800000000,0.000000000
1203.168000000,-0.000000000,-0.800000000,1.200000000,0.000000000,0.800000000,0.000000000
1203.188000000,-0.000000000,-0.800000000,1.200000000,0.000000000,0.800000000,0.000000000
1203.208000000,-0.000000000,-0.800000000,1.200000000,0.000000000,0.800000000,0.000000000
1203.228000000,-0.000000000,-0.800000000,1.200000000,0.000000000,0.800000000,0.000000000
1203.248000000,-0.000000000,-0.800000000,1.200000000,0.000000000,0.800000000,0.000000000
1203.268000000,-0.000000000,-0.800000000,1.200000000,0.000000000,0.800000000,0.000000000
1203.288000000,-0.000000000,-0.800000000,1.200000000,0.000000000,0.800000000,0.000000000
1203.308000000,-0.000000000,-0.800000000,1.200000000,0.000000000,0.800000000,0.000000000
1203.328000000,-0.000000000,-0.800000000,1.200000000,0.000000000,0.800000000,0.000000000
1203.348000000,-0.000000000,-0.800000000,1.200000000,0.000000000,0.800000000,0.000000000
1203.368000000,-0.000000000,-0.800000000,1.200000000,0.000000000,0.800000000,0.000000000
1203.388000000,-0.000000000,-0.800000000,1.200000000,0.000000000,0.800000000,0.000000000
1203.408000000,-0.000000000,-0.800000000,1.200000000,0.000000000,0.800000000,0.000000000
1203.428000000,-0.000000000,-0.800000000,1.200000000,0.000000000,0.800000000,0.000000000
1203.448000000,-0.000000000,-0.800000000,1.200000000,0.000000000,0.800000000,0.000000000
1203.468000000,-0.000000000,-0.800000000,1.200000000,0.000000000,0.800000000,0.000000000
1203.488000000,-0.000000000,-0.800000000,1.200000000,0.000000000,0.800000000,0.000000000
1203.508000000,-0.000000000,-0.800000000,1.200000000,0.000000000,0.800000000,0.000000000
1203.528000000,-0.000000000,-0.800000000,1.200000000,0.000000000,0.800000000,0.000000000
1203.548000000,-0.000000000,-0.800000000,1.200000000,0.000000000,0.800000000,0.000000000
1203.568000000,-0.000000000,-0.800000000,1.200000000,0.000000000,0.800000000,0.000000000
1203.588000000,-0.000000000,-0.800000000,1.200000000,0.000000000,0.800000000,0.000000000
1203.607000000,-0.000000000,-0.800000000,1.200000000,0.000000000,0.800000000,0.000000000
1203.628000000,-0.000000000,-0.800000000,1.200000000,0.000000000,0.800000000,0.000000000
1203.648000000,-0.000000000,-0.800000000,1.200000000,0.000000000,0.800000000,0.000000000
1203.668000000,-0.000000000,-0.800000000,1.200000000,0.000000000,0.800000000,0.000000000
1203.687000000,-0.000000000,-0.800000000,1.200000000,0.000000000,0.800000000,0.000000000
1203.708000000,-0.000000000,-0.800000000,1.200000000,0.000000000,0.800000000,0.000000000
1203.728000000,-0.000000000,-0.800000000,1.200000000,0.000000000,0.800000000,0.000000000
1203.748000000,-0.000000000,-0.800000000,1.200000000,0.000000000,0.800000000,0.000000000
1203.768000000,-0.000000000,-0.800000000,1.200000000,0.000000000,0.800000000,0.000000000
1203.788000000,-0.000000000,-0.800000000,1.200000000,0.000000000,0.800000000,0.000000000
1203.808000000,-0.000000000,-0.800000000,1.200000000,0.000000000,0.800000000,0.000000000
1203.828000000,-0.000000000,-0.800000000,1.200000000,0.000000000,0.800000000,0.000000000
1203.839000000,-0.000000590,-0.799990635,1.200001832,0.000009971,0.799990619,-0.000001132
1203.848000000,-0.000000000,-0.800000000,1.200000000,0.000000000,0.800000000,0.000000000
1203.853000000,-0.000000590,-0.799990635,1.200001832,0.000009971,0.799990619,-0.000001132
1203.868000000,-0.000000000,-0.800000000,1.200000000,0.000000000,0.800000000,0.000000000
1203.870000000,-0.000000590,-0.799990635,1.200001832,0.000009971,0.799990619,-0.000001132
1203.888000000,-0.000000000,-0.800000000,1.200000000,0.000000000,0.800000000,0.000000000
1203.889000000,-0.000000590,-0.799990635,1.200001832,0.000009971,0.799990619,-0.000001132
1203.904000000,-0.000000590,-0.799990635,1.200001832,0.000009971,0.799990619,-0.000001132
1203.908000000,-0.000000000,-0.800000000,1.200000000,0.000000000,0.800000000,0.000000000
1203.927000000,-0.000000000,-0.800000000,1.200000000,0.000000000,0.800000000,0.000000000
1203.933000000,-0.000000590,-0.799990635,1.200001832,0.000009971,0.799990619,-0.000001132
1203.947000000,-0.000000000,-0.800000000,1.200000000,0.000000000,0.800000000,0.000000000
1203.951000000,-0.000000590,-0.799990635,1.200001832,0.000009971,0.799990619,-0.000001132
1203.968000000,-0.000000000,-0.800000000,1.200000000,0.000000000,0.800000000,0.000000000
1203.971000000,-0.000000590,-0.799990635,1.200001832,0.000009971,0.799990619,-0.000001132
1203.988000000,-0.000000000,-0.800000000,1.200000000,0.000000000,0.800000000,0.000000000
1204.003000000,-0.000000590,-0.799990635,1.200001832,0.000009971,0.799990619,-0.000001132
1204.008000000,-0.000000000,-0.800000000,1.200000000,0.000000000,0.800000000,0.000000000
1204.024000000,-0.000000590,-0.799990635,1.200001832,0.000009971,0.799990619,-0.000001132
1204.027000000,-0.000000000,-0.800000000,1.200000000,0.000000000,0.800000000,0.000000000
1204.048000000,-0.000000000,-0.800000000,1.200000000,0.000000000,0.800000000,0.000000000
1204.049000000,-0.000000590,-0.799990635,1.200001832,0.000009971,0.799990619,-0.000001132
1204.067000000,-0.000000590,-0.799990635,1.200001832,0.000009971,0.799990619,-0.000001132
1204.068000000,-0.000000000,-0.800000000,1.200000000,0.000000000,0.800000000,0.000000000
1204.088000000,-0.000000000,-0.800000000,1.200000000,0.000000000,0.800000000,0.000000000
1204.091000000,-0.000000590,-0.799990635,1.200001832,0.000009971,0.799990619,-0.000001132
1204.105000000,-0.000000590,-0.799990635,1.200001832,0.000009971,0.799990619,-0.000001132
1204.108000000,-0.000000000,-0.800000000,1.200000000,0.000000000,0.800000000,0.000000000
1204.128000000,-0.000000000,-0.800000000,1.200000000,0.000000000,0.800000000,0.000000000
1204.129000000,-0.000000590,-0.799990635,1.200001832,0.000009971,0.799990619,-0.000001132
1204.146000000,-0.000000590,-0.799990635,1.200001832,0.000009971,0.799990619,-0.000001132
1204.148000000,-0.000000000,-0.800000000,1.200000000,0.000000000,0.800000000,0.000000000
1204.166000000,-0.000000590,-0.799990635,1.200001832,0.000009971,0.799990619,-0.000001132
1204.168000000,-0.000000000,-0.800000000,1.200000000,0.000000000,0.800000000,0.000000000
1204.184000000,-0.000000590,-0.799990635,1.200001832,0.000009971,0.799990619,-0.000001132
1204.188000000,-0.000000000,-0.800000000,1.200000000,0.000000000,0.800000000,0.000000000
1204.201000000,-0.000000590,-0.799990635,1.200001832,0.000009971,0.799990619,-0.000001132
1204.207000000,-0.000000000,-0.800000000,1.200000000,0.000000000,0.800000000,0.000000000
1204.219000000,-0.000000590,-0.799990635,1.200001832,0.000009971,0.799990619,-0.000001132
1204.228000000,-0.000000000,-0.800000000,1.200000000,0.000000000,0.800000000,0.000000000
1204.236000000,-0.000000590,-0.799990635,1.200001832,0.000009971,0.799990619,-0.000001132
1204.248000000,-0.000000000,-0.800000000,1.200000000,0.000000000,0.800000000,0.000000000
1204.257000000,-0.000000590,-0.799990635,1.200001832,0.000009971,0.799990619,-0.000001132
1204.268000000,-0.000000000,-0.800000000,1.200000000,0.000000000,0.800000000,0.000000000
1204.273000000,-0.000000590,-0.799990635,1.200001832,0.000009971,0.799990619,-0.000001132
1204.288000000,-0.000000000,-0.800000000,1.200000000,0.000000000,0.800000000,0.000000000
1204.292000000,-0.000000590,-0.799990635,1.200001832,0.000009971,0.799990619,-0.000001132
1204.308000000,-0.000000000,-0.800000000,1.200000000,0.000000000,0.800000000,0.000000000
1204.314000000,-0.000000590,-0.799990635,1.200001832,0.000009971,0.799990619,-0.000001132
1204.328000000,-0.000000000,-0.800000000,1.200000000,0.000000000,0.800000000,0.000000000
1204.338000000,-0.000000590,-0.799990635,1.200001832,0.000009971,0.799990619,-0.000001132
1204.347000000,-0.000000000,-0.800000000,1.200000000,0.000000000,0.800000000,0.000000000
1204.359000000,-0.000000590,-0.799990635,1.200001832,0.000009971,0.799990619,-0.000001132
1204.368000000,-0.000000000,-0.800000000,1.200000000,0.000000000,0.800000000,0.000000000
1204.379000000,-0.000000590,-0.799990635,1.200001832,0.000009971,0.799990619,-0.000001132
1204.388000000,-0.000000000,-0.800000000,1.200000000,0.000000000,0.800000000,0.000000000
1204.395000000,-0.000000590,-0.799990635,1.200001832,0.000009971,0.799990619,-0.000001132
1204.407000000,-0.000000000,-0.800000000,1.200000000,0.000000000,0.800000000,0.000000000
1204.419000000,-0.000000590,-0.799990635,1.200001832,0.000009971,0.799990619,-0.000001132
1204.428000000,-0.000000000,-0.800000000,1.200000000,0.000000000,0.800000000,0.000000000
1204.439000000,-0.000000590,-0.799990635,1.200001832,0.000009971,0.799990619,-0.000001132
1204.447000000,-0.000000000,-0.800000000,1.200000000,0.000000000,0.800000000,0.000000000
1204.461000000,-0.000000590,-0.799990635,1.200001832,0.000009971,0.799990619,-0.000001132
1204.465000000,-0.000000000,-0.800000000,1.200000000,0.000000000,0.800000000,0.000000000
1204.487000000,-0.000000000,-0.800000000,1.200000000,0.000000000,0.800000000,0.000000000
1204.495000000,-0.000000590,-0.799990635,1.200001832,0.000009971,0.799990619,-0.000001132
1204.508000000,-0.000000000,-0.800000000,1.200000000,0.000000000,0.800000000,0.000000000
1204.515000000,-0.000000590,-0.799990635,1.200001832,0.000009971,0.799990619,-0.000001132
1204.528000000,-0.000000000,-0.800000000,1.200000000,0.000000000,0.800000000,0.000000000
1204.536000000,-0.000000590,-0.799990635,1.200001832,0.000009971,0.799990619,-0.000001132
1204.548000000,-0.000000000,-0.800000000,1.200000000,0.000000000,0.800000000,0.000000000
1204.551000000,-0.000000590,-0.799990635,1.200001832,0.000009971,0.799990619,-0.000001132
1204.564000000,-0.000000590,-0.799990635,1.200001832,0.000009971,0.799990619,-0.000001132
1204.567000000,-0.000000000,-0.800000000,1.200000000,0.000000000,0.800000000,0.000000000
1204.583000000,-0.000000590,-0.799990635,1.200001832,0.000009971,0.799990619,-0.000001132
1204.588000000,-0.000000000,-0.800000000,1.200000000,0.000000000,0.800000000,0.000000000
1204.603000000,-0.000000590,-0.799990635,1.200001832,0.000009971,0.799990619,-0.000001132
1204.608000000,-0.000000000,-0.800000000,1.200000000,0.000000000,0.800000000,0.000000000
1204.622000000,-0.000000590,-0.799990635,1.200001832,0.000009971,0.799990619,-0.000001132
1204.628000000,-0.000000000,-0.800000000,1.200000000,0.000000000,0.800000000,0.000000000
1204.645000000,-0.000000590,-0.799990635,1.200001832,0.000009971,0.799990619,-0.000001132
1204.648000000,-0.000000000,-0.800000000,1.200000000,0.000000000,0.800000000,0.000000000
1204.668000000,-0.000000590,-0.799990635,1.200001832,0.000009971,0.799990619,-0.000001132
1204.668000000,-0.000000000,-0.800000000,1.200000000,0.000000000,0.800000000,0.000000000
1204.686000000,-0.000000590,-0.799990635,1.200001832,0.000009971,0.799990619,-0.000001132
1204.688000000,-0.000000000,-0.800000000,1.200000000,0.000000000,0.800000000,0.000000000
1204.708000000,-0.000000000,-0.800000000,1.200000000,0.000000000,0.800000000,0.000000000
1204.710000000,-0.000000590,-0.799990635,1.200001832,0.000009971,0.799990619,-0.000001132
1204.728000000,-0.000000000,-0.800000000,1.200000000,0.000000000,0.800000000,0.000000000
1204.728000000,-0.000000590,-0.799990635,1.200001832,0.000009971,0.799990619,-0.000001132
1204.745000000,-0.000000590,-0.799990635,1.200001832,0.000009971,0.799990619,-0.000001132
1204.748000000,-0.000000000,-0.800000000,1.200000000,0.000000000,0.800000000,0.000000000
1204.767000000,-0.000000590,-0.799990635,1.200001832,0.000009971,0.799990619,-0.000001132
1204.768000000,-0.000000000,-0.800000000,1.200000000,0.000000000,0.800000000,0.000000000
1204.786000000,-0.000000590,-0.799990635,1.200001832,0.000009971,0.799990619,-0.000001132
1204.788000000,-0.000000000,-0.800000000,1.200000000,0.000000000,0.800000000,0.000000000
1204.803000000,-0.000000590,-0.799990635,1.200001832,0.000009971,0.799990619,-0.000001132
1204.808000000,-0.000000000,-0.800000000,1.200000000,0.000000000,0.800000000,0.000000000
1204.820000000,-0.000000590,-0.799990635,1.200001832,0.000009971,0.799990619,-0.000001132
1204.828000000,-0.000000000,-0.800000000,1.200000000,0.000000000,0.800000000,0.000000000
1204.844000000,-0.000000590,-0.799990635,1.200001832,0.000009971,0.799990619,-0.000001132
1204.848000000,-0.000000000,-0.800000000,1.200000000,0.000000000,0.800000000,0.000000000
1204.867000000,-0.000000590,-0.799990635,1.200001832,0.000009971,0.799990619,-0.000001132
1204.867000000,-0.000000000,-0.800000000,1.200000000,0.000000000,0.800000000,0.000000000
1204.887000000,-0.000000000,-0.800000000,1.200000000,0.000000000,0.800000000,0.000000000
1204.895000000,-0.000000590,-0.799990635,1.200001832,0.000009971,0.799990619,-0.000001132
1204.908000000,-0.000000000,-0.800000000,1.200000000,0.000000000,0.800000000,0.000000000
1204.917000000,-0.000000590,-0.799990635,1.200001832,0.000009971,0.799990619,-0.000001132
1204.928000000,-0.000000000,-0.800000000,1.200000000,0.000000000,0.800000000,0.000000000
1204.937000000,-0.000000590,-0.799990635,1.200001832,0.000009971,0.799990619,-0.000001132
1204.948000000,-0.000000000,-0.800000000,1.200000000,0.000000000,0.800000000,0.000000000
1204.963000000,-0.000000590,-0.799990635,1.200001832,0.000009971,0.799990619,-0.000001132
1204.968000000,-0.000000000,-0.800000000,1.200000000,0.000000000,0.800000000,0.000000000
1204.983000000,-0.000000590,-0.799990635,1.200001832,0.000009971,0.799990619,-0.000001132
1204.988000000,-0.000000000,-0.800000000,1.200000000,0.000000000,0.800000000,0.000000000
1205.001000000,-0.000000590,-0.799990635,1.200001832,0.000009971,0.799990619,-0.000001132
1205.008000000,-0.000000000,-0.800000000,1.200000000,0.000000000,0.800000000,0.000000000
1205.022000000,-0.000000590,-0.799990635,1.200001832,0.000009971,0.799990619,-0.000001132
1205.028000000,-0.000000000,-0.800000000,1.200000000,0.000000000,0.800000000,0.000000000
1205.041000000,-0.000000590,-0.799990635,1.200001832,0.000009971,0.799990619,-0.000001132
1205.048000000,-0.000000000,-0.800000000,1.200000000,0.000000000,0.800000000,0.000000000
1205.066000000,-0.000000590,-0.799990635,1.200001832,0.000009971,0.799990619,-0.000001132
1205.068000000,-0.000000000,-0.800000000,1.200000000,0.000000000,0.800000000,0.000000000
1205.086000000,-0.000000590,-0.799990635,1.200001832,0.000009971,0.799990619,-0.000001132
1205.088000000,-0.000000000,-0.800000000,1.200000000,0.000000000,0.800000000,0.000000000
1205.106000000,-0.000000590,-0.799990635,1.200001832,0.000009971,0.799990619,-0.000001132
1205.108000000,-0.000000000,-0.800000000,1.200000000,0.000000000,0.800000000,0.000000000
1205.128000000,-0.000000000,-0.800000000,1.200000000,0.000000000,0.800000000,0.000000000
1205.129000000,-0.000000590,-0.799990635,1.200001832,0.000009971,0.799990619,-0.000001132
1205.147000000,-0.000000590,-0.799990635,1.200001832,0.000009971,0.799990619,-0.000001132
1205.148000000,-0.000000000,-0.800000000,1.200000000,0.000000000,0.800000000,0.000000000
1205.163000000,-0.000000590,-0.799990635,1.200001832,0.000009971,0.799990619,-0.000001132
1205.168000000,-0.000000000,-0.800000000,1.200000000,0.000000000,0.800000000,0.000000000
1205.179000000,-0.000000590,-0.799990635,1.200001832,0.000009971,0.799990619,-0.000001132
1205.188000000,-0.000000000,-0.800000000,1.200000000,0.000000000,0.800000000,0.000000000
1205.202000000,-0.000000590,-0.799990635,1.200001832,0.000009971,0.799990619,-0.000001132
1205.208000000,0.000000000,-0.800000000,1.200000000,0.000000000,0.800000000,0.000000000
1205.222000000,-0.000000590,-0.799990635,1.200001832,0.000009971,0.799990619,-0.000001132
1205.228000000,0.000000000,-0.800000000,1.200000000,0.000000000,0.800000000,0.000000000
1205.234000000,-0.000000590,-0.799990635,1.200001832,0.000009971,0.799990619,-0.000001132
1205.248000000,0.000000000,-0.800000000,1.200000000,0.000000000,0.800000000,0.000000000
1205.256000000,-0.000000590,-0.799990635,1.200001832,0.000009971,0.799990619,-0.000001132
1205.267000000,0.000000000,-0.800000000,1.200000000,0.000000000,0.800000000,0.000000000
1205.281000000,-0.000000590,-0.799990635,1.200001832,0.000009971,0.799990619,-0.000001132
1205.288000000,0.000000000,-0.800000000,1.200000000,0.000000000,0.800000000,0.000000000
1205.297000000,-0.000000590,-0.799990635,1.200001832,0.000009971,0.799990619,-0.000001132
1205.308000000,0.000000000,-0.800000000,1.200000000,0.000000000,0.800000000,0.000000000
1205.321000000,-0.000000590,-0.799990635,1.200001832,0.000009971,0.799990619,-0.000001132
1205.328000000,0.000000000,-0.800000000,1.200000000,0.000000000,0.800000000,0.000000000
1205.341000000,-0.000000590,-0.799990635,1.200001832,0.000009971,0.799990619,-0.000001132
1205.348000000,0.000000000,-0.800000000,1.200000000,0.000000000,0.800000000,0.000000000
1205.364000000,-0.000000590,-0.799990635,1.200001832,0.000009971,0.799990619,-0.000001132
1205.368000000,0.000000000,-0.800000000,1.200000000,0.000000000,0.800000000,0.000000000
1205.382000000,-0.000000590,-0.799990635,1.200001832,0.000009971,0.799990619,-0.000001132
1205.384000000,0.000000000,-0.800000000,1.200000000,0.000000000,0.800000000,0.000000000
1205.405000000,-0.000000590,-0.799990635,1.200001832,0.000009971,0.799990619,-0.000001132
1205.405000000,0.000000000,-0.800000000,1.200000000,0.000000000,0.800000000,0.000000000
1205.426000000,-0.000000590,-0.799990635,1.200001832,0.000009971,0.799990619,-0.000001132
1205.428000000,0.000000000,-0.800000000,1.200000000,0.000000000,0.800000000,0.000000000
1205.439000000,-0.000000590,-0.799990635,1.200001832,0.000009971,0.799990619,-0.000001132
1205.448000000,0.000000000,-0.800000000,1.200000000,0.000000000,0.800000000,0.000000000
1205.461000000,-0.000000590,-0.799990635,1.200001832,0.000009971,0.799990619,-0.000001132
1205.468000000,0.000000000,-0.800000000,1.200000000,0.000000000,0.800000000,0.000000000
1205.480000000,-0.000000590,-0.799990635,1.200001832,0.000009971,0.799990619,-0.000001132
1205.488000000,0.000000000,-0.800000000,1.200000000,0.000000000,0.800000000,0.000000000
1205.497000000,-0.000000590,-0.799990635,1.200001832,0.000009971,0.799990619,-0.000001132
1205.508000000,0.000000000,-0.800000000,1.200000000,0.000000000,0.800000000,0.000000000
1205.520000000,-0.000000590,-0.799990635,1.200001832,0.000009971,0.799990619,-0.000001132
1205.528000000,0.000000000,-0.800000000,1.200000000,0.000000000,0.800000000,0.000000000
1205.539000000,-0.000000590,-0.799990635,1.200001832,0.000009971,0.799990619,-0.000001132
1205.548000000,0.000000000,-0.800000000,1.200000000,0.000000000,0.800000000,0.000000000
1205.560000000,-0.000000590,-0.799990635,1.200001832,0.000009971,0.799990619,-0.000001132
1205.568000000,0.000000000,-0.800000000,1.200000000,0.000000000,0.800000000,0.000000000
1205.576000000,-0.000000590,-0.799990635,1.200001832,0.000009971,0.799990619,-0.000001132
1205.588000000,0.000000000,-0.800000000,1.200000000,0.000000000,0.800000000,0.000000000
1205.596000000,-0.000000590,-0.799990635,1.200001832,0.000009971,0.799990619,-0.000001132
1205.608000000,0.000000000,-0.800000000,1.200000000,0.000000000,0.800000000,0.000000000
1205.618000000,-0.000000590,-0.799990635,1.200001832,0.000009971,0.799990619,-0.000001132
1205.628000000,0.000000000,-0.800000000,1.200000000,0.000000000,0.800000000,0.000000000
1205.640000000,-0.000000590,-0.799990635,1.200001832,0.000009971,0.799990619,-0.000001132
1205.648000000,0.000000000,-0.800000000,1.200000000,0.000000000,0.800000000,0.000000000
1205.659000000,-0.000000590,-0.799990635,1.200001832,0.000009971,0.799990619,-0.000001132
1205.668000000,0.000000000,-0.800000000,1.200000000,0.000000000,0.800000000,0.000000000
1205.680000000,-0.000000590,-0.799990635,1.200001832,0.000009971,0.799990619,-0.000001132
1205.687000000,0.000000000,-0.800000000,1.200000000,0.000000000,0.800000000,0.000000000
1205.704000000,-0.000000590,-0.799990635,1.200001832,0.000009971,0.799990619,-0.000001132
1205.708000000,0.000000000,-0.800000000,1.200000000,0.000000000,0.800000000,0.000000000
1205.728000000,-0.000000590,-0.799990635,1.200001832,0.000009971,0.799990619,-0.000001132
1205.721000000,0.000000000,-0.800000000,1.200000000,0.000000000,0.800000000,0.000000000
1205.748000000,-0.000000590,-0.799990635,1.200001832,0.000009971,0.799990619,-0.000001132
1205.747000000,0.000000000,-0.800000000,1.200000000,0.000000000,0.800000000,0.000000000
1205.768000000,0.000000000,-0.800000000,1.200000000,0.000000000,0.800000000,0.000000000
1205.768000000,-0.000000590,-0.799990635,1.200001832,0.000009971,0.799990619,-0.000001132
1205.787000000,-0.000000590,-0.799990635,1.200001832,0.000009971,0.799990619,-0.000001132
1205.788000000,0.000000000,-0.800000000,1.200000000,0.000000000,0.800000000,0.000000000
1205.805000000,-0.000000590,-0.799990635,1.200001832,0.000009971,0.799990619,-0.000001132
1205.805000000,0.000000000,-0.800000000,1.200000000,0.000000000,0.800000000,0.000000000
1205.826000000,-0.000000590,-0.799990635,1.200001832,0.000009971,0.799990619,-0.000001132
1205.828000000,0.000000000,-0.800000000,1.200000000,0.000000000,0.800000000,0.000000000
1205.848000000,0.000000000,-0.800000000,1.200000000,0.000000000,0.800000000,0.000000000
1205.848000000,-0.000000590,-0.799990635,1.200001832,0.000009971,0.799990619,-0.000001132
1205.863000000,-0.000000590,-0.799990635,1.200001832,0.000009971,0.799990619,-0.000001132
1205.868000000,0.000000000,-0.800000000,1.200000000,0.000000000,0.800000000,0.000000000
1205.883000000,-0.000000590,-0.799990635,1.200001832,0.000009971,0.799990619,-0.000001132
1205.888000000,0.000000000,-0.800000000,1.200000000,0.000000000,0.800000000,0.000000000
1205.904000000,-0.000000590,-0.799990635,1.200001832,0.000009971,0.799990619,-0.000001132
1205.908000000,0.000000000,-0.800000000,1.200000000,0.000000000,0.800000000,0.000000000
1205.923000000,-0.000000590,-0.799990635,1.200001832,0.000009971,0.799990619,-0.000001132
1205.927000000,0.000000000,-0.800000000,1.200000000,0.000000000,0.800000000,0.000000000
1205.948000000,0.000000000,-0.800000000,1.200000000,0.000000000,0.800000000,0.000000000
1205.950000000,-0.000000590,-0.799990635,1.200001832,0.000009971,0.799990619,-0.000001132
1205.968000000,0.000000000,-0.800000000,1.200000000,0.000000000,0.800000000,0.000000000
1205.972000000,-0.000000590,-0.799990635,1.200001832,0.000009971,0.799990619,-0.000001132
1205.988000000,0.000000000,-0.800000000,1.200000000,0.000000000,0.800000000,0.000000000
1205.992000000,-0.000000590,-0.799990635,1.200001832,0.000009971,0.799990619,-0.000001132
1206.008000000,0.000000000,-0.800000000,1.200000000,0.000000000,0.800000000,0.000000000
1206.011000000,-0.000000590,-0.799990635,1.200001832,0.000009971,0.799990619,-0.000001132
1206.028000000,0.000000000,-0.800000000,1.200000000,0.000000000,0.800000000,0.000000000
1206.031000000,-0.000000590,-0.799990635,1.200001832,0.000009971,0.799990619,-0.000001132
1206.048000000,0.000000000,-0.800000000,1.200000000,0.000000000,0.800000000,0.000000000
1206.059000000,-0.000000590,-0.799990635,1.200001832,0.000009971,0.799990619,-0.000001132
1206.068000000,0.000000000,-0.800000000,1.200000000,0.000000000,0.800000000,0.000000000
1206.080000000,-0.000000590,-0.799990635,1.200001832,0.000009971,0.799990619,-0.000001132
1206.088000000,0.000000000,-0.800000000,1.200000000,0.000000000,0.800000000,0.000000000
1206.100000000,-0.000000590,-0.799990635,1.200001832,0.000009971,0.799990619,-0.000001132
1206.108000000,0.000000000,-0.800000000,1.200000000,0.000000000,0.800000000,0.000000000
1206.117000000,-0.000000590,-0.799990635,1.200001832,0.000009971,0.799990619,-0.000001132
1206.128000000,0.000000000,-0.800000000,1.200000000,0.000000000,0.800000000,0.000000000
1206.137000000,-0.000000590,-0.799990635,1.200001832,0.000009971,0.799990619,-0.000001132
1206.148000000,0.000000000,-0.800000000,1.200000000,0.000000000,0.800000000,0.000000000
1206.155000000,-0.000000590,-0.799990635,1.200001832,0.000009971,0.799990619,-0.000001132
1206.168000000,0.000000000,-0.800000000,1.200000000,0.000000000,0.800000000,0.000000000
1206.175000000,-0.000000590,-0.799990635,1.200001832,0.000009971,0.799990619,-0.000001132
1206.188000000,0.000000000,-0.800000000,1.200000000,0.000000000,0.800000000,0.000000000
1206.194000000,-0.000000590,-0.799990635,1.200001832,0.000009971,0.799990619,-0.000001132
1206.208000000,0.000000000,-0.800000000,1.200000000,0.000000000,0.800000000,0.000000000
1206.214000000,-0.000000590,-0.799990635,1.200001832,0.000009971,0.799990619,-0.000001132
1206.228000000,0.000000000,-0.800000000,1.200000000,0.000000000,0.800000000,0.000000000
1206.234000000,-0.000000590,-0.799990635,1.200001832,0.000009971,0.799990619,-0.000001132
1206.247000000,0.000000000,-0.800000000,1.200000000,0.000000000,0.800000000,0.000000000
1206.252000000,-0.000000590,-0.799990635,1.200001832,0.000009971,0.799990619,-0.000001132
1206.268000000,0.000000000,-0.800000000,1.200000000,0.000000000,0.800000000,0.000000000
1206.278000000,-0.000000590,-0.799990635,1.200001832,0.000009971,0.799990619,-0.000001132
1206.288000000,0.000000000,-0.800000000,1.200000000,0.000000000,0.800000000,0.000000000
1206.298000000,-0.000000590,-0.799990635,1.200001832,0.000009971,0.799990619,-0.000001132
1206.308000000,0.000000000,-0.800000000,1.200000000,0.000000000,0.800000000,0.000000000
1206.317000000,-0.000000590,-0.799990635,1.200001832,0.000009971,0.799990619,-0.000001132
1206.328000000,0.000000000,-0.800000000,1.200000000,0.000000000,0.800000000,0.000000000
1206.338000000,-0.000000590,-0.799990635,1.200001832,0.000009971,0.799990619,-0.000001132
1206.348000000,0.000000000,-0.800000000,1.200000000,0.000000000,0.800000000,0.000000000
1206.359000000,-0.000000590,-0.799990635,1.200001832,0.000009971,0.799990619,-0.000001132
1206.368000000,0.000000000,-0.800000000,1.200000000,0.000000000,0.800000000,0.000000000
1206.381000000,-0.000000590,-0.799990635,1.200001832,0.000009971,0.799990619,-0.000001132
1206.387000000,0.000000000,-0.800000000,1.200000000,0.000000000,0.800000000,0.000000000
1206.405000000,-0.000000590,-0.799990635,1.200001832,0.000009971,0.799990619,-0.000001132
1206.408000000,0.000000000,-0.800000000,1.200000000,0.000000000,0.800000000,0.000000000
1206.420000000,-0.000000590,-0.799990635,1.200001832,0.000009971,0.799990619,-0.000001132
1206.426000000,0.000000000,-0.800000000,1.200000000,0.000000000,0.800000000,0.000000000
1206.444000000,-0.000000590,-0.799990635,1.200001832,0.000009971,0.799990619,-0.000001132
1206.448000000,0.000000000,-0.800000000,1.200000000,0.000000000,0.800000000,0.000000000
1206.466000000,-0.000000590,-0.799990635,1.200001832,0.000009971,0.799990619,-0.000001132
1206.468000000,0.000000000,-0.800000000,1.200000000,0.000000000,0.800000000,0.000000000
1206.488000000,0.000000000,-0.800000000,1.200000000,0.000000000,0.800000000,0.000000000
1206.491000000,-0.000000590,-0.799990635,1.200001832,0.000009971,0.799990619,-0.000001132
1206.508000000,0.000000000,-0.800000000,1.200000000,0.000000000,0.800000000,0.000000000
1206.512000000,-0.000000590,-0.799990635,1.200001832,0.000009971,0.799990619,-0.000001132
1206.528000000,0.000000000,-0.800000000,1.200000000,0.000000000,0.800000000,0.000000000
1206.536000000,-0.000000590,-0.799990635,1.200001832,0.000009971,0.799990619,-0.000001132
1206.548000000,0.000000000,-0.800000000,1.200000000,0.000000000,0.800000000,0.000000000
1206.555000000,-0.000000590,-0.799990635,1.200001832,0.000009971,0.799990619,-0.000001132
1206.568000000,0.000000000,-0.800000000,1.200000000,0.000000000,0.800000000,0.000000000
1206.574000000,-0.000000590,-0.799990635,1.200001832,0.000009971,0.799990619,-0.000001132
1206.588000000,0.000000000,-0.800000000,1.200000000,0.000000000,0.800000000,0.000000000
1206.594000000,-0.000000590,-0.799990635,1.200001832,0.000009971,0.799990619,-0.000001132
1206.608000000,0.000000000,-0.800000000,1.200000000,0.000000000,0.800000000,0.000000000
1206.614000000,-0.000000590,-0.799990635,1.200001832,0.000009971,0.799990619,-0.000001132
1206.628000000,0.000000000,-0.800000000,1.200000000,0.000000000,0.800000000,0.000000000
1206.630000000,-0.000000590,-0.799990635,1.200001832,0.000009971,0.799990619,-0.000001132
1206.645000000,-0.000000590,-0.799990635,1.200001832,0.000009971,0.799990619,-0.000001132
1206.648000000,0.000000000,-0.800000000,1.200000000,0.000000000,0.800000000,0.000000000
1206.665000000,-0.000000590,-0.799990635,1.200001832,0.000009971,0.799990619,-0.000001132
1206.668000000,0.000000000,-0.800000000,1.200000000,0.000000000,0.800000000,0.000000000
1206.683000000,-0.000000590,-0.799990635,1.200001832,0.000009971,0.799990619,-0.000001132
1206.688000000,0.000000000,-0.800000000,1.200000000,0.000000000,0.800000000,0.000000000
1206.702000000,-0.000000590,-0.799990635,1.200001832,0.000009971,0.799990619,-0.000001132
1206.707000000,0.000000000,-0.800000000,1.200000000,0.000000000,0.800000000,0.000000000
1206.721000000,-0.000000590,-0.799990635,1.200001832,0.000009971,0.799990619,-0.000001132
1206.728000000,0.000000000,-0.800000000,1.200000000,0.000000000,0.800000000,0.000000000
1206.747000000,-0.000000590,-0.799990635,1.200001832,0.000009971,0.799990619,-0.000001132
1206.748000000,0.000000000,-0.800000000,1.200000000,0.000000000,0.800000000,0.000000000
1206.763000000,-0.000000590,-0.799990635,1.200001832,0.000009971,0.799990619,-0.000001132
1206.767000000,0.000000000,-0.800000000,1.200000000,0.000000000,0.800000000,0.000000000
1206.784000000,-0.000000590,-0.799990635,1.200001832,0.000009971,0.799990619,-0.000001132
1206.788000000,0.000000000,-0.800000000,1.200000000,0.000000000,0.800000000,0.000000000
1206.808000000,0.000000000,-0.800000000,1.200000000,0.000000000,0.800000000,0.000000000
1206.808000000,-0.000000590,-0.799990635,1.200001832,0.000009971,0.799990619,-0.000001132
1206.828000000,0.000000000,-0.800000000,1.200000000,0.000000000,0.800000000,0.000000000
1206.832000000,-0.000000590,-0.799990635,1.200001832,0.000009971,0.799990619,-0.000001132
1206.848000000,0.000000000,-0.800000000,1.200000000,0.000000000,0.800000000,0.000000000
1206.855000000,-0.000000590,-0.799990635,1.200001832,0.000009971,0.799990619,-0.000001132
1206.868000000,0.000000000,-0.800000000,1.200000000,0.000000000,0.800000000,0.000000000
1206.874000000,-0.000000590,-0.799990635,1.200001832,0.000009971,0.799990619,-0.000001132
1206.888000000,0.000000000,-0.800000000,1.200000000,0.000000000,0.800000000,0.000000000
1206.891000000,-0.000000590,-0.799990635,1.200001832,0.000009971,0.799990619,-0.000001132
1206.907000000,0.000000000,-0.800000000,1.200000000,0.000000000,0.800000000,0.000000000
1206.910000000,-0.000000590,-0.799990635,1.200001832,0.000009971,0.799990619,-0.000001132
1206.926000000,-0.000000590,-0.799990635,1.200001832,0.000009971,0.799990619,-0.000001132
1206.928000000,0.000000000,-0.800000000,1.200000000,0.000000000,0.800000000,0.000000000
1206.947000000,0.000000000,-0.800000000,1.200000000,0.000000000,0.800000000,0.000000000
1206.947000000,-0.000000590,-0.799990635,1.200001832,0.000009971,0.799990619,-0.000001132
1206.968000000,0.000000000,-0.800000000,1.200000000,0.000000000,0.800000000,0.000000000
1206.970000000,-0.000000590,-0.799990635,1.200001832,0.000009971,0.799990619,-0.000001132
1206.987000000,0.000000000,-0.800000000,1.200000000,0.000000000,0.800000000,0.000000000
1206.993000000,-0.000000590,-0.799990635,1.200001832,0.000009971,0.799990619,-0.000001132
1207.008000000,0.000000000,-0.800000000,1.200000000,0.000000000,0.800000000,0.000000000
1207.013000000,-0.000000590,-0.799990635,1.200001832,0.000009971,0.799990619,-0.000001132
1207.027000000,0.000000000,-0.800000000,1.200000000,0.000000000,0.800000000,0.000000000
1207.036000000,-0.000000590,-0.799990635,1.200001832,0.000009971,0.799990619,-0.000001132
1207.048000000,0.000000000,-0.800000000,1.200000000,0.000000000,0.800000000,0.000000000
1207.058000000,-0.000000590,-0.799990635,1.200001832,0.000009971,0.799990619,-0.000001132
1207.068000000,0.000000000,-0.800000000,1.200000000,0.000000000,0.800000000,0.000000000
1207.078000000,-0.000000590,-0.799990635,1.200001832,0.000009971,0.799990619,-0.000001132
1207.088000000,0.000000000,-0.800000000,1.200000000,0.000000000,0.800000000,0.000000000
1207.097000000,-0.000000590,-0.799990635,1.200001832,0.000009971,0.799990619,-0.000001132
1207.108000000,0.000000000,-0.800000000,1.200000000,0.000000000,0.800000000,0.000000000
1207.120000000,-0.000000590,-0.799990635,1.200001832,0.000009971,0.799990619,-0.000001132
1207.128000000,0.000000000,-0.800000000,1.200000000,0.000000000,0.800000000,0.000000000
1207.138000000,-0.000000590,-0.799990635,1.200001832,0.000009971,0.799990619,-0.000001132
1207.148000000,0.000000000,-0.800000000,1.200000000,0.000000000,0.800000000,0.000000000
1207.160000000,-0.000000590,-0.799990635,1.200001832,0.000009971,0.799990619,-0.000001132
1207.168000000,0.000000000,-0.800000000,1.200000000,0.000000000,0.800000000,0.000000000
1207.178000000,-0.000000590,-0.799990635,1.200001832,0.000009971,0.799990619,-0.000001132
1207.188000000,0.000000000,-0.800000000,1.200000000,0.000000000,0.800000000,0.000000000
1207.201000000,-0.000000590,-0.799990635,1.200001832,0.000009971,0.799990619,-0.000001132
1207.208000000,0.000000000,-0.800000000,1.200000000,0.000000000,0.800000000,0.000000000
1207.218000000,-0.000000590,-0.799990635,1.200001832,0.000009971,0.799990619,-0.000001132
1207.228000000,0.000000000,-0.800000000,1.200000000,0.000000000,0.800000000,0.000000000
1207.242000000,-0.000000590,-0.799990635,1.200001832,0.000009971,0.799990619,-0.000001132
1207.248000000,0.000000000,-0.800000000,1.200000000,0.000000000,0.800000000,0.000000000
1207.261000000,-0.000000590,-0.799990635,1.200001832,0.000009971,0.799990619,-0.000001132
1207.268000000,0.000000000,-0.800000000,1.200000000,0.000000000,0.800000000,0.000000000
1207.278000000,-0.000000590,-0.799990635,1.200001832,0.000009971,0.799990619,-0.000001132
1207.288000000,0.000000000,-0.800000000,1.200000000,0.000000000,0.800000000,0.000000000
1207.295000000,-0.000000590,-0.799990635,1.200001832,0.000009971,0.799990619,-0.000001132
1207.308000000,0.000000000,-0.800000000,1.200000000,0.000000000,0.800000000,0.000000000
1207.316000000,-0.000000590,-0.799990635,1.200001832,0.000009971,0.799990619,-0.000001132
1207.328000000,0.000000000,-0.800000000,1.200000000,0.000000000,0.800000000,0.000000000
1207.333000000,-0.000000590,-0.799990635,1.200001832,0.000009971,0.799990619,-0.000001132
1207.348000000,0.000000000,-0.800000000,1.200000000,0.000000000,0.800000000,0.000000000
1207.353000000,-0.000000590,-0.799990635,1.200001832,0.000009971,0.799990619,-0.000001132
1207.368000000,0.000000000,-0.800000000,1.200000000,0.000000000,0.800000000,0.000000000
1207.373000000,-0.000000590,-0.799990635,1.200001832,0.000009971,0.799990619,-0.000001132
1207.388000000,0.000000000,-0.800000000,1.200000000,0.000000000,0.800000000,0.000000000
1207.393000000,-0.000000590,-0.799990635,1.200001832,0.000009971,0.799990619,-0.000001132
1207.408000000,0.000000000,-0.800000000,1.200000000,0.000000000,0.800000000,0.000000000
1207.416000000,-0.000000590,-0.799990635,1.200001832,0.000009971,0.799990619,-0.000001132
1207.428000000,0.000000000,-0.800000000,1.200000000,0.000000000,0.800000000,0.000000000
1207.435000000,-0.000000590,-0.799990635,1.200001832,0.000009971,0.799990619,-0.000001132
1207.448000000,0.000000000,-0.800000000,1.200000000,0.000000000,0.800000000,0.000000000
1207.457000000,-0.000000590,-0.799990635,1.200001832,0.000009971,0.799990619,-0.000001132
1207.468000000,0.000000000,-0.800000000,1.200000000,0.000000000,0.800000000,0.000000000
1207.480000000,-0.000000590,-0.799990635,1.200001832,0.000009971,0.799990619,-0.000001132
1207.488000000,0.000000000,-0.800000000,1.200000000,0.000000000,0.800000000,0.000000000
1207.501000000,-0.000000590,-0.799990635,1.200001832,0.000009971,0.799990619,-0.000001132
1207.508000000,0.000000000,-0.800000000,1.200000000,0.000000000,0.800000000,0.000000000
1207.521000000,-0.000000590,-0.799990635,1.200001832,0.000009971,0.799990619,-0.000001132
1207.528000000,0.000000000,-0.800000000,1.200000000,0.000000000,0.800000000,0.000000000
1207.533000000,-0.000000590,-0.799990635,1.200001832,0.000009971,0.799990619,-0.000001132
1207.548000000,0.000000000,-0.800000000,1.200000000,0.000000000,0.800000000,0.000000000
1207.553000000,-0.000000590,-0.799990635,1.200001832,0.000009971,0.799990619,-0.000001132
1207.568000000,0.000000000,-0.800000000,1.200000000,0.000000000,0.800000000,0.000000000
1207.574000000,-0.000000590,-0.799990635,1.200001832,0.000009971,0.799990619,-0.000001132
1207.588000000,0.000000000,-0.800000000,1.200000000,0.000000000,0.800000000,0.000000000
1207.589000000,-0.000000590,-0.799990635,1.200001832,0.000009971,0.799990619,-0.000001132
1207.607000000,-0.000000590,-0.799990635,1.200001832,0.000009971,0.799990619,-0.000001132
1207.607000000,0.000000000,-0.800000000,1.200000000,0.000000000,0.800000000,0.000000000
1207.627000000,-0.000000590,-0.799990635,1.200001832,0.000009971,0.799990619,-0.000001132
1207.628000000,0.000000000,-0.800000000,1.200000000,0.000000000,0.800000000,0.000000000
1207.647000000,-0.000000590,-0.799990635,1.200001832,0.000009971,0.799990619,-0.000001132
1207.648000000,0.000000000,-0.800000000,1.200000000,0.000000000,0.800000000,0.000000000
1207.662000000,-0.000000590,-0.799990635,1.200001832,0.000009971,0.799990619,-0.000001132
1207.667000000,0.000000000,-0.800000000,1.200000000,0.000000000,0.800000000,0.000000000
1207.682000000,-0.000000590,-0.799990635,1.200001832,0.000009971,0.799990619,-0.000001132
1207.688000000,0.000000000,-0.800000000,1.200000000,0.000000000,0.800000000,0.000000000
1207.706000000,-0.000000590,-0.799990635,1.200001832,0.000009971,0.799990619,-0.000001132
1207.708000000,0.000000000,-0.800000000,1.200000000,0.000000000,0.800000000,0.000000000
1207.725000000,-0.000000590,-0.799990635,1.200001832,0.000009971,0.799990619,-0.000001132
1207.728000000,0.000000000,-0.800000000,1.200000000,0.000000000,0.800000000,0.000000000
1207.748000000,0.000000000,-0.800000000,1.200000000,0.000000000,0.800000000,0.000000000
1207.750000000,-0.000000590,-0.799990635,1.200001832,0.000009971,0.799990619,-0.000001132
1207.767000000,-0.000000590,-0.799990635,1.200001832,0.000009971,0.799990619,-0.000001132
1207.767000000,0.000000000,-0.800000000,1.200000000,0.000000000,0.800000000,0.000000000
1207.784000000,-0.000000590,-0.799990635,1.200001832,0.000009971,0.799990619,-0.000001132
1207.788000000,0.000000000,-0.800000000,1.200000000,0.000000000,0.800000000,0.000000000
1207.804000000,-0.000000590,-0.799990635,1.200001832,0.000009971,0.799990619,-0.000001132
1207.808000000,0.000000000,-0.800000000,1.200000000,0.000000000,0.800000000,0.000000000
1207.824000000,-0.000000590,-0.799990635,1.200001832,0.000009971,0.799990619,-0.000001132
1207.828000000,0.000000000,-0.800000000,1.200000000,0.000000000,0.800000000,0.000000000
1207.846000000,-0.000000590,-0.799990635,1.200001832,0.000009971,0.799990619,-0.000001132
1207.848000000,0.000000000,-0.800000000,1.200000000,0.000000000,0.800000000,0.000000000
1207.867000000,-0.000000590,-0.799990635,1.200001832,0.000009971,0.799990619,-0.000001132
1207.868000000,0.000000000,-0.800000000,1.200000000,0.000000000,0.800000000,0.000000000
1207.885000000,-0.000000590,-0.799990635,1.200001832,0.000009971,0.799990619,-0.000001132
1207.887000000,0.000000000,-0.800000000,1.200000000,0.000000000,0.800000000,0.000000000
1207.905000000,-0.000000590,-0.799990635,1.200001832,0.000009971,0.799990619,-0.000001132
1207.908000000,0.000000000,-0.800000000,1.200000000,0.000000000,0.800000000,0.000000000
1207.926000000,0.000000000,-0.800000000,1.200000000,0.000000000,0.800000000,0.000000000
1207.932000000,-0.000000590,-0.799990635,1.200001832,0.000009971,0.799990619,-0.000001132
1207.948000000,0.000000000,-0.800000000,1.200000000,0.000000000,0.800000000,0.000000000
1207.957000000,-0.000000590,-0.799990635,1.200001832,0.000009971,0.799990619,-0.000001132
1207.967000000,0.000000000,-0.800000000,1.200000000,0.000000000,0.800000000,0.000000000
1207.982000000,-0.000000590,-0.799990635,1.200001832,0.000009971,0.799990619,-0.000001132
1207.984000000,0.000000000,-0.800000000,1.200000000,0.000000000,0.800000000,0.000000000
1207.999000000,-0.000000590,-0.799990635,1.200001832,0.000009971,0.799990619,-0.000001132
1208.008000000,0.000000000,-0.800000000,1.200000000,0.000000000,0.800000000,0.000000000
1208.022000000,-0.000000590,-0.799990635,1.200001832,0.000009971,0.799990619,-0.000001132
1208.028000000,0.000000000,-0.800000000,1.200000000,0.000000000,0.800000000,0.000000000
1208.036000000,-0.000000590,-0.799990635,1.200001832,0.000009971,0.799990619,-0.000001132
1208.048000000,0.000000000,-0.800000000,1.200000000,0.000000000,0.800000000,0.000000000
1208.050000000,-0.000000590,-0.799990635,1.200001832,0.000009971,0.799990619,-0.000001132
1208.066000000,0.000000000,-0.800000000,1.200000000,0.000000000,0.800000000,0.000000000
1208.073000000,-0.000000590,-0.799990635,1.200001832,0.000009971,0.799990619,-0.000001132
1208.088000000,0.000000000,-0.800000000,1.200000000,0.000000000,0.800000000,0.000000000
1208.092000000,-0.000000590,-0.799990635,1.200001832,0.000009971,0.799990619,-0.000001132
1208.108000000,0.000000000,-0.800000000,1.200000000,0.000000000,0.800000000,0.000000000
1208.109000000,-0.000000590,-0.799990635,1.200001832,0.000009971,0.799990619,-0.000001132
1208.128000000,0.000000000,-0.800000000,1.200000000,0.000000000,0.800000000,0.000000000
1208.129000000,-0.000000590,-0.799990635,1.200001832,0.000009971,0.799990619,-0.000001132
1208.143000000,-0.000000590,-0.799990635,1.200001832,0.000009971,0.799990619,-0.000001132
1208.148000000,0.000000000,-0.800000000,1.200000000,0.000000000,0.800000000,0.000000000
1208.167000000,-0.000000590,-0.799990635,1.200001832,0.000009971,0.799990619,-0.000001132
1208.168000000,0.000000000,-0.800000000,1.200000000,0.000000000,0.800000000,0.000000000
1208.183000000,0.000000000,-0.800000000,1.200000000,0.000000000,0.800000000,0.000000000
1208.189000000,-0.000000590,-0.799990635,1.200001832,0.000009971,0.799990619,-0.000001132
1208.208000000,0.000000000,-0.800000000,1.200000000,0.000000000,0.800000000,0.000000000
1208.208000000,-0.000000590,-0.799990635,1.200001832,0.000009971,0.799990619,-0.000001132
1208.228000000,0.000000000,-0.800000000,1.200000000,0.000000000,0.800000000,0.000000000
1208.231000000,-0.000000590,-0.799990635,1.200001832,0.000009971,0.799990619,-0.000001132
1208.247000000,0.000000000,-0.800000000,1.200000000,0.000000000,0.800000000,0.000000000
1208.256000000,-0.000000590,-0.799990635,1.200001832,0.000009971,0.799990619,-0.000001132
1208.268000000,0.000000000,-0.800000000,1.200000000,0.000000000,0.800000000,0.000000000
1208.286000000,-0.000000590,-0.799990635,1.200001832,0.000009971,0.799990619,-0.000001132
1208.288000000,0.000000000,-0.800000000,1.200000000,0.000000000,0.800000000,0.000000000
1208.305000000,-0.000000590,-0.799990635,1.200001832,0.000009971,0.799990619,-0.000001132
1208.308000000,0.000000000,-0.800000000,1.200000000,0.000000000,0.800000000,0.000000000
1208.328000000,0.000000000,-0.800000000,1.200000000,0.000000000,0.800000000,0.000000000
1208.330000000,-0.000000590,-0.799990635,1.200001832,0.000009971,0.799990619,-0.000001132
1208.348000000,0.000000000,-0.800000000,1.200000000,0.000000000,0.800000000,0.000000000
1208.359000000,-0.000000590,-0.799990635,1.200001832,0.000009971,0.799990619,-0.000001132
1208.368000000,0.000000000,-0.800000000,1.200000000,0.000000000,0.800000000,0.000000000
1208.376000000,-0.000000590,-0.799990635,1.200001832,0.000009971,0.799990619,-0.000001132
1208.387000000,0.000000000,-0.800000000,1.200000000,0.000000000,0.800000000,0.000000000
1208.396000000,-0.000000590,-0.799990635,1.200001832,0.000009971,0.799990619,-0.000001132
1208.408000000,0.000000000,-0.800000000,1.200000000,0.000000000,0.800000000,0.000000000
1208.416000000,-0.000000590,-0.799990635,1.200001832,0.000009971,0.799990619,-0.000001132
1208.425000000,0.000000000,-0.800000000,1.200000000,0.000000000,0.800000000,0.000000000
1208.439000000,-0.000000590,-0.799990635,1.200001832,0.000009971,0.799990619,-0.000001132
1208.447000000,0.000000000,-0.800000000,1.200000000,0.000000000,0.800000000,0.000000000
1208.461000000,-0.000000590,-0.799990635,1.200001832,0.000009971,0.799990619,-0.000001132
1208.468000000,0.000000000,-0.800000000,1.200000000,0.000000000,0.800000000,0.000000000
1208.482000000,-0.000000590,-0.799990635,1.200001832,0.000009971,0.799990619,-0.000001132
1208.488000000,0.000000000,-0.800000000,1.200000000,0.000000000,0.800000000,0.000000000
1208.497000000,-0.000000590,-0.799990635,1.200001832,0.000009971,0.799990619,-0.000001132
1208.508000000,0.000000000,-0.800000000,1.200000000,0.000000000,0.800000000,0.000000000
1208.510000000,-0.000000590,-0.799990635,1.200001832,0.000009971,0.799990619,-0.000001132
1208.528000000,0.000000000,-0.800000000,1.200000000,0.000000000,0.800000000,0.000000000
1208.529000000,-0.000000590,-0.799990635,1.200001832,0.000009971,0.799990619,-0.000001132
1208.548000000,-0.000000590,-0.799990635,1.200001832,0.000009971,0.799990619,-0.000001132
1208.548000000,0.000000000,-0.800000000,1.200000000,0.000000000,0.800000000,0.000000000
1208.568000000,0.000000000,-0.800000000,1.200000000,0.000000000,0.800000000,0.000000000
1208.569000000,-0.000000590,-0.799990635,1.200001832,0.000009971,0.799990619,-0.000001132
1208.585000000,-0.000000590,-0.799990635,1.200001832,0.000009971,0.799990619,-0.000001132
1208.588000000,0.000000000,-0.800000000,1.200000000,0.000000000,0.800000000,0.000000000
1208.603000000,-0.000000590,-0.799990635,1.200001832,0.000009971,0.799990619,-0.000001132
1208.608000000,0.000000000,-0.800000000,1.200000000,0.000000000,0.800000000,0.000000000
1208.622000000,-0.000000590,-0.799990635,1.200001832,0.000009971,0.799990619,-0.000001132
1208.628000000,0.000000000,-0.800000000,1.200000000,0.000000000,0.800000000,0.000000000
1208.648000000,0.000000000,-0.800000000,1.200000000,0.000000000,0.800000000,0.000000000
1208.651000000,-0.000000590,-0.799990635,1.200001832,0.000009971,0.799990619,-0.000001132
1208.655000000,0.000000000,-0.800000000,1.200000000,0.000000000,0.800000000,0.000000000
1208.677000000,-0.000000590,-0.799990635,1.200001832,0.000009971,0.799990619,-0.000001132
1208.688000000,0.000000000,-0.800000000,1.200000000,0.000000000,0.800000000,0.000000000
1208.697000000,-0.000000590,-0.799990635,1.200001832,0.000009971,0.799990619,-0.000001132
1208.708000000,0.000000000,-0.800000000,1.200000000,0.000000000,0.800000000,0.000000000
1208.711000000,-0.000000590,-0.799990635,1.200001832,0.000009971,0.799990619,-0.000001132
1208.728000000,0.000000000,-0.800000000,1.200000000,0.000000000,0.800000000,0.000000000
1208.731000000,-0.000000590,-0.799990635,1.200001832,0.000009971,0.799990619,-0.000001132
1208.748000000,0.000000000,-0.800000000,1.200000000,0.000000000,0.800000000,0.000000000
1208.749000000,-0.000000590,-0.799990635,1.200001832,0.000009971,0.799990619,-0.000001132
1208.767000000,-0.000000590,-0.799990635,1.200001832,0.000009971,0.799990619,-0.000001132
1208.767000000,0.000000000,-0.800000000,1.200000000,0.000000000,0.800000000,0.000000000
1208.785000000,-0.000000590,-0.799990635,1.200001832,0.000009971,0.799990619,-0.000001132
1208.788000000,0.000000000,-0.800000000,1.200000000,0.000000000,0.800000000,0.000000000
1208.808000000,0.000000000,-0.800000000,1.200000000,0.000000000,0.800000000,0.000000000
1208.810000000,-0.000000590,-0.799990635,1.200001832,0.000009971,0.799990619,-0.000001132
1208.828000000,0.000000000,-0.800000000,1.200000000,0.000000000,0.800000000,0.000000000
1208.832000000,-0.000000590,-0.799990635,1.200001832,0.000009971,0.799990619,-0.000001132
1208.848000000,0.000000000,-0.800000000,1.200000000,0.000000000,0.800000000,0.000000000
1208.853000000,-0.000000590,-0.799990635,1.200001832,0.000009971,0.799990619,-0.000001132
1208.867000000,0.000000000,-0.800000000,1.200000000,0.000000000,0.800000000,0.000000000
1208.869000000,-0.000000590,-0.799990635,1.200001832,0.000009971,0.799990619,-0.000001132
1208.888000000,0.000000000,-0.800000000,1.200000000,0.000000000,0.800000000,0.000000000
1208.888000000,-0.000000590,-0.799990635,1.200001832,0.000009971,0.799990619,-0.000001132
1208.908000000,-0.000000590,-0.799990635,1.200001832,0.000009971,0.799990619,-0.000001132
1208.908000000,0.000000000,-0.800000000,1.200000000,0.000000000,0.800000000,0.000000000
1208.928000000,-0.000000590,-0.799990635,1.200001832,0.000009971,0.799990619,-0.000001132
1208.928000000,0.000000000,-0.800000000,1.200000000,0.000000000,0.800000000,0.000000000
1208.945000000,-0.000000590,-0.799990635,1.200001832,0.000009971,0.799990619,-0.000001132
1208.948000000,0.000000000,-0.800000000,1.200000000,0.000000000,0.800000000,0.000000000
1208.963000000,-0.000000590,-0.799990635,1.200001832,0.000009971,0.799990619,-0.000001132
1208.968000000,0.000000000,-0.800000000,1.200000000,0.000000000,0.800000000,0.000000000
1208.984000000,-0.000000590,-0.799990635,1.200001832,0.000009971,0.799990619,-0.000001132
1208.988000000,0.000000000,-0.800000000,1.200000000,0.000000000,0.800000000,0.000000000
1209.005000000,-0.000000590,-0.799990635,1.200001832,0.000009971,0.799990619,-0.000001132
1209.008000000,0.000000000,-0.800000000,1.200000000,0.000000000,0.800000000,0.000000000
1209.027000000,-0.000000590,-0.799990635,1.200001832,0.000009971,0.799990619,-0.000001132
1209.027000000,0.000000000,-0.800000000,1.200000000,0.000000000,0.800000000,0.000000000
1209.044000000,-0.000000590,-0.799990635,1.200001832,0.000009971,0.799990619,-0.000001132
1209.048000000,0.000000000,-0.800000000,1.200000000,0.000000000,0.800000000,0.000000000
1209.064000000,-0.000000590,-0.799990635,1.200001832,0.000009971,0.799990619,-0.000001132
1209.068000000,0.000000000,-0.800000000,1.200000000,0.000000000,0.800000000,0.000000000
1209.080000000,-0.000000590,-0.799990635,1.200001832,0.000009971,0.799990619,-0.000001132
1209.087000000,0.000000000,-0.800000000,1.200000000,0.000000000,0.800000000,0.000000000
1209.101000000,-0.000000590,-0.799990635,1.200001832,0.000009971,0.799990619,-0.000001132
1209.108000000,0.000000000,-0.800000000,1.200000000,0.000000000,0.800000000,0.000000000
1209.128000000,0.000000000,-0.800000000,1.200000000,0.000000000,0.800000000,0.000000000
1209.130000000,-0.000000590,-0.799990635,1.200001832,0.000009971,0.799990619,-0.000001132
1209.148000000,0.000000000,-0.800000000,1.200000000,0.000000000,0.800000000,0.000000000
1209.150000000,-0.000000590,-0.799990635,1.200001832,0.000009971,0.799990619,-0.000001132
1209.166000000,-0.000000590,-0.799990635,1.200001832,0.000009971,0.799990619,-0.000001132
1209.168000000,0.000000000,-0.800000000,1.200000000,0.000000000,0.800000000,0.000000000
1209.185000000,-0.000000590,-0.799990635,1.200001832,0.000009971,0.799990619,-0.000001132
1209.188000000,0.000000000,-0.800000000,1.200000000,0.000000000,0.800000000,0.000000000
1209.206000000,-0.000000590,-0.799990635,1.200001832,0.000009971,0.799990619,-0.000001132
1209.208000000,0.000000000,-0.800000000,1.200000000,0.000000000,0.800000000,0.000000000
1209.225000000,-0.000000590,-0.799990635,1.200001832,0.000009971,0.799990619,-0.000001132
1209.228000000,0.000000000,-0.800000000,1.200000000,0.000000000,0.800000000,0.000000000
1209.247000000,-0.000000590,-0.799990635,1.200001832,0.000009971,0.799990619,-0.000001132
1209.248000000,0.000000000,-0.800000000,1.200000000,0.000000000,0.800000000,0.000000000
1209.267000000,-0.000000590,-0.799990635,1.200001832,0.000009971,0.799990619,-0.000001132
1209.267000000,0.000000000,-0.800000000,1.200000000,0.000000000,0.800000000,0.000000000
1209.288000000,-0.000000590,-0.799990635,1.200001832,0.000009971,0.799990619,-0.000001132
1209.288000000,0.000000000,-0.800000000,1.200000000,0.000000000,0.800000000,0.000000000
1209.306000000,-0.000000590,-0.799990635,1.200001832,0.000009971,0.799990619,-0.000001132
1209.308000000,0.000000000,-0.800000000,1.200000000,0.000000000,0.800000000,0.000000000
1209.328000000,0.000000000,-0.800000000,1.200000000,0.000000000,0.800000000,0.000000000
1209.328000000,-0.000000590,-0.799990635,1.200001832,0.000009971,0.799990619,-0.000001132
1209.346000000,-0.000000590,-0.799990635,1.200001832,0.000009971,0.799990619,-0.000001132
1209.348000000,0.000000000,-0.800000000,1.200000000,0.000000000,0.800000000,0.000000000
1209.367000000,-0.000000590,-0.799990635,1.200001832,0.000009971,0.799990619,-0.000001132
1209.368000000,0.000000000,-0.800000000,1.200000000,0.000000000,0.800000000,0.000000000
1209.384000000,-0.000000590,-0.799990635,1.200001832,0.000009971,0.799990619,-0.000001132
1209.388000000,0.000000000,-0.800000000,1.200000000,0.000000000,0.800000000,0.000000000
1209.403000000,-0.000000590,-0.799990635,1.200001832,0.000009971,0.799990619,-0.000001132
1209.408000000,0.000000000,-0.800000000,1.200000000,0.000000000,0.800000000,0.000000000
1209.420000000,-0.000000590,-0.799990635,1.200001832,0.000009971,0.799990619,-0.000001132
1209.428000000,0.000000000,-0.800000000,1.200000000,0.000000000,0.800000000,0.000000000
1209.439000000,-0.000000590,-0.799990635,1.200001832,0.000009971,0.799990619,-0.000001132
1209.448000000,0.000000000,-0.800000000,1.200000000,0.000000000,0.800000000,0.000000000
1209.458000000,-0.000000590,-0.799990635,1.200001832,0.000009971,0.799990619,-0.000001132
1209.468000000,0.000000000,-0.800000000,1.200000000,0.000000000,0.800000000,0.000000000
1209.478000000,-0.000000590,-0.799990635,1.200001832,0.000009971,0.799990619,-0.000001132
1209.488000000,0.000000000,-0.800000000,1.200000000,0.000000000,0.800000000,0.000000000
1209.500000000,-0.000000590,-0.799990635,1.200001832,0.000009971,0.799990619,-0.000001132
1209.508000000,0.000000000,-0.800000000,1.200000000,0.000000000,0.800000000,0.000000000
1209.522000000,-0.000000590,-0.799990635,1.200001832,0.000009971,0.799990619,-0.000001132
1209.528000000,0.000000000,-0.800000000,1.200000000,0.000000000,0.800000000,0.000000000
1209.538000000,-0.000000590,-0.799990635,1.200001832,0.000009971,0.799990619,-0.000001132
1209.548000000,0.000000000,-0.800000000,1.200000000,0.000000000,0.800000000,0.000000000
1209.557000000,-0.000000590,-0.799990635,1.200001832,0.000009971,0.799990619,-0.000001132
1209.568000000,0.000000000,-0.800000000,1.200000000,0.000000000,0.800000000,0.000000000
1209.583000000,-0.000000590,-0.799990635,1.200001832,0.000009971,0.799990619,-0.000001132
1209.588000000,0.000000000,-0.800000000,1.200000000,0.000000000,0.800000000,0.000000000
1209.601000000,-0.000000590,-0.799990635,1.200001832,0.000009971,0.799990619,-0.000001132
1209.607000000,0.000000000,-0.800000000,1.200000000,0.000000000,0.800000000,0.000000000
1209.621000000,-0.000000590,-0.799990635,1.200001832,0.000009971,0.799990619,-0.000001132
1209.628000000,0.000000000,-0.800000000,1.200000000,0.000000000,0.800000000,0.000000000
1209.643000000,-0.000000590,-0.799990635,1.200001832,0.000009971,0.799990619,-0.000001132
1209.648000000,0.000000000,-0.800000000,1.200000000,0.000000000,0.800000000,0.000000000
1209.657000000,-0.000000590,-0.799990635,1.200001832,0.000009971,0.799990619,-0.000001132
1209.668000000,0.000000000,-0.800000000,1.200000000,0.000000000,0.800000000,0.000000000
1209.679000000,-0.000000590,-0.799990635,1.200001832,0.000009971,0.799990619,-0.000001132
1209.688000000,0.000000000,-0.800000000,1.200000000,0.000000000,0.800000000,0.000000000
1209.696000000,-0.000000590,-0.799990635,1.200001832,0.000009971,0.799990619,-0.000001132
1209.707000000,-0.000000590,-0.799990635,1.200001832,0.000009971,0.799990619,-0.000001132
1209.707000000,0.000000000,-0.800000000,1.200000000,0.000000000,0.800000000,0.000000000
1209.728000000,0.000000000,-0.800000000,1.200000000,0.000000000,0.800000000,0.000000000
1209.729000000,-0.000000590,-0.799990635,1.200001832,0.000009971,0.799990619,-0.000001132
1209.745000000,-0.000000590,-0.799990635,1.200001832,0.000009971,0.799990619,-0.000001132
1209.748000000,0.000000000,-0.800000000,1.200000000,0.000000000,0.800000000,0.000000000
1209.768000000,0.000000000,-0.800000000,1.200000000,0.000000000,0.800000000,0.000000000
1209.771000000,-0.000000590,-0.799990635,1.200001832,0.000009971,0.799990619,-0.000001132
1209.788000000,0.000000000,-0.800000000,1.200000000,0.000000000,0.800000000,0.000000000
1209.794000000,-0.000000590,-0.799990635,1.200001832,0.000009971,0.799990619,-0.000001132
1209.804000000,0.000000000,-0.800000000,1.200000000,0.000000000,0.800000000,0.000000000
1209.823000000,-0.000000590,-0.799990635,1.200001832,0.000009971,0.799990619,-0.000001132
1209.828000000,0.000000000,-0.800000000,1.200000000,0.000000000,0.800000000,0.000000000
1209.844000000,-0.000000590,-0.799990635,1.200001832,0.000009971,0.799990619,-0.000001132
1209.847000000,0.000000000,-0.800000000,1.200000000,0.000000000,0.800000000,0.000000000
1209.868000000,0.000000000,-0.800000000,1.200000000,0.000000000,0.800000000,0.000000000
1209.873000000,-0.000000590,-0.799990635,1.200001832,0.000009971,0.799990619,-0.000001132
1209.888000000,0.000000000,-0.800000000,1.200000000,0.000000000,0.800000000,0.000000000
1209.899000000,-0.000000590,-0.799990635,1.200001832,0.000009971,0.799990619,-0.000001132
1209.908000000,0.000000000,-0.800000000,1.200000000,0.000000000,0.800000000,0.000000000
1209.918000000,-0.000000590,-0.799990635,1.200001832,0.000009971,0.799990619,-0.000001132
1209.928000000,0.000000000,-0.800000000,1.200000000,0.000000000,0.800000000,0.000000000
1209.937000000,-0.000000590,-0.799990635,1.200001832,0.000009971,0.799990619,-0.000001132
1209.948000000,0.000000000,-0.800000000,1.200000000,0.000000000,0.800000000,0.000000000
1209.957000000,-0.000000590,-0.799990635,1.200001832,0.000009971,0.799990619,-0.000001132
1209.968000000,0.000000000,-0.800000000,1.200000000,0.000000000,0.800000000,0.000000000
1209.976000000,-0.000000590,-0.799990635,1.200001832,0.000009971,0.799990619,-0.000001132
1209.988000000,0.000000000,-0.800000000,1.200000000,0.000000000,0.800000000,0.000000000
1209.996000000,-0.000000590,-0.799990635,1.200001832,0.000009971,0.799990619,-0.000001132
1210.007000000,0.000000000,-0.800000000,1.200000000,0.000000000,0.800000000,0.000000000
1210.019000000,-0.000000590,-0.799990635,1.200001832,0.000009971,0.799990619,-0.000001132
1210.028000000,0.000000000,-0.800000000,1.200000000,0.000000000,0.800000000,0.000000000
1210.042000000,-0.000000590,-0.799990635,1.200001832,0.000009971,0.799990619,-0.000001132
1210.048000000,0.000000000,-0.800000000,1.200000000,0.000000000,0.800000000,0.000000000
1210.060000000,-0.000000590,-0.799990635,1.200001832,0.000009971,0.799990619,-0.000001132
1210.061000000,0.000000000,-0.800000000,1.200000000,0.000000000,0.800000000,0.000000000
1210.073000000,-0.000000590,-0.799990635,1.200001832,0.000009971,0.799990619,-0.000001132
1210.088000000,0.000000000,-0.800000000,1.200000000,0.000000000,0.800000000,0.000000000
1210.098000000,-0.000000590,-0.799990635,1.200001832,0.000009971,0.799990619,-0.000001132
1210.108000000,0.000000000,-0.800000000,1.200000000,0.000000000,0.800000000,0.000000000
1210.111000000,-0.000000590,-0.799990635,1.200001832,0.000009971,0.799990619,-0.000001132
1210.125000000,-0.000000590,-0.799990635,1.200001832,0.000009971,0.799990619,-0.000001132
1210.127000000,0.000000000,-0.800000000,1.200000000,0.000000000,0.800000000,0.000000000
1210.147000000,-0.000000590,-0.799990635,1.200001832,0.000009971,0.799990619,-0.000001132
1210.148000000,0.000000000,-0.800000000,1.200000000,0.000000000,0.800000000,0.000000000
1210.167000000,0.000000000,-0.800000000,1.200000000,0.000000000,0.800000000,0.000000000
1210.168000000,-0.000000590,-0.799990635,1.200001832,0.000009971,0.799990619,-0.000001132
1210.184000000,0.000000000,-0.800000000,1.200000000,0.000000000,0.800000000,0.000000000
1210.192000000,-0.000000590,-0.799990635,1.200001832,0.000009971,0.799990619,-0.000001132
1210.207000000,0.000000000,-0.800000000,1.200000000,0.000000000,0.800000000,0.000000000
1210.212000000,-0.000000590,-0.799990635,1.200001832,0.000009971,0.799990619,-0.000001132
1210.226000000,0.000000000,-0.800000000,1.200000000,0.000000000,0.800000000,0.000000000
1210.228000000,-0.000000590,-0.799990635,1.200001832,0.000009971,0.799990619,-0.000001132
1210.248000000,0.000000000,-0.800000000,1.200000000,0.000000000,0.800000000,0.000000000
1210.252000000,-0.000000590,-0.799990635,1.200001832,0.000009971,0.799990619,-0.000001132
1210.268000000,0.000000000,-0.800000000,1.200000000,0.000000000,0.800000000,0.000000000
1210.277000000,-0.000000590,-0.799990635,1.200001832,0.000009971,0.799990619,-0.000001132
1210.288000000,0.000000000,-0.800000000,1.200000000,0.000000000,0.800000000,0.000000000
1210.299000000,-0.000000590,-0.799990635,1.200001832,0.000009971,0.799990619,-0.000001132
1210.308000000,0.000000000,-0.800000000,1.200000000,0.000000000,0.800000000,0.000000000
1210.311000000,-0.000000590,-0.799990635,1.200001832,0.000009971,0.799990619,-0.000001132
1210.326000000,-0.000000590,-0.799990635,1.200001832,0.000009971,0.799990619,-0.000001132
1210.328000000,0.000000000,-0.800000000,1.200000000,0.000000000,0.800000000,0.000000000
1210.346000000,0.000000000,-0.800000000,1.200000000,0.000000000,0.800000000,0.000000000
1210.347000000,-0.000000590,-0.799990635,1.200001832,0.000009971,0.799990619,-0.000001132
1210.368000000,0.000000000,-0.800000000,1.200000000,0.000000000,0.800000000,0.000000000
1210.370000000,-0.000000590,-0.799990635,1.200001832,0.000009971,0.799990619,-0.000001132
1210.386000000,-0.000000590,-0.799990635,1.200001832,0.000009971,0.799990619,-0.000001132
1210.388000000,0.000000000,-0.800000000,1.200000000,0.000000000,0.800000000,0.000000000
1210.404000000,-0.000000590,-0.799990635,1.200001832,0.000009971,0.799990619,-0.000001132
1210.408000000,0.000000000,-0.800000000,1.200000000,0.000000000,0.800000000,0.000000000
1210.427000000,0.000000000,-0.800000000,1.200000000,0.000000000,0.800000000,0.000000000
1210.431000000,-0.000000590,-0.799990635,1.200001832,0.000009971,0.799990619,-0.000001132
1210.447000000,-0.000000590,-0.799990635,1.200001832,0.000009971,0.799990619,-0.000001132
1210.448000000,0.000000000,-0.800000000,1.200000000,0.000000000,0.800000000,0.000000000
1210.466000000,-0.000000590,-0.799990635,1.200001832,0.000009971,0.799990619,-0.000001132
1210.468000000,0.000000000,-0.800000000,1.200000000,0.000000000,0.800000000,0.000000000
1210.484000000,-0.000000590,-0.799990635,1.200001832,0.000009971,0.799990619,-0.000001132
1210.488000000,0.000000000,-0.800000000,1.200000000,0.000000000,0.800000000,0.000000000
1210.506000000,-0.000000590,-0.799990635,1.200001832,0.000009971,0.799990619,-0.000001132
1210.506000000,0.000000000,-0.800000000,1.200000000,0.000000000,0.800000000,0.000000000
1210.528000000,0.000000000,-0.800000000,1.200000000,0.000000000,0.800000000,0.000000000
1210.531000000,-0.000000590,-0.799990635,1.200001832,0.000009971,0.799990619,-0.000001132
1210.548000000,0.000000000,-0.800000000,1.200000000,0.000000000,0.800000000,0.000000000
1210.550000000,-0.000000590,-0.799990635,1.200001832,0.000009971,0.799990619,-0.000001132
1210.568000000,0.000000000,-0.800000000,1.200000000,0.000000000,0.800000000,0.000000000
1210.569000000,-0.000000590,-0.799990635,1.200001832,0.000009971,0.799990619,-0.000001132
1210.587000000,0.000000000,-0.800000000,1.200000000,0.000000000,0.800000000,0.000000000
1210.590000000,-0.000000590,-0.799990635,1.200001832,0.000009971,0.799990619,-0.000001132
1210.599000000,-0.000000590,-0.799990635,1.200001832,0.000009971,0.799990619,-0.000001132
1210.603000000,0.000000000,-0.800000000,1.200000000,0.000000000,0.800000000,0.000000000
1210.624000000,-0.000000590,-0.799990635,1.200001832,0.000009971,0.799990619,-0.000001132
1210.628000000,0.000000000,-0.800000000,1.200000000,0.000000000,0.800000000,0.000000000
1210.644000000,-0.000000590,-0.799990635,1.200001832,0.000009971,0.799990619,-0.000001132
1210.648000000,0.000000000,-0.800000000,1.200000000,0.000000000,0.800000000,0.000000000
1210.664000000,-0.000000590,-0.799990635,1.200001832,0.000009971,0.799990619,-0.000001132
1210.668000000,0.000000000,-0.800000000,1.200000000,0.000000000,0.800000000,0.000000000
1210.680000000,-0.000000590,-0.799990635,1.200001832,0.000009971,0.799990619,-0.000001132
1210.688000000,0.000000000,-0.800000000,1.200000000,0.000000000,0.800000000,0.000000000
1210.699000000,-0.000000590,-0.799990635,1.200001832,0.000009971,0.799990619,-0.000001132
1210.708000000,0.000000000,-0.800000000,1.200000000,0.000000000,0.800000000,0.000000000
1210.721000000,-0.000000590,-0.799990635,1.200001832,0.000009971,0.799990619,-0.000001132
1210.728000000,0.000000000,-0.800000000,1.200000000,0.000000000,0.800000000,0.000000000
1210.742000000,-0.000000590,-0.799990635,1.200001832,0.000009971,0.799990619,-0.000001132
1210.748000000,0.000000000,-0.800000000,1.200000000,0.000000000,0.800000000,0.000000000
1210.762000000,-0.000000590,-0.799990635,1.200001832,0.000009971,0.799990619,-0.000001132
1210.768000000,0.000000000,-0.800000000,1.200000000,0.000000000,0.800000000,0.000000000
1210.781000000,-0.000000590,-0.799990635,1.200001832,0.000009971,0.799990619,-0.000001132
1210.788000000,0.000000000,-0.800000000,1.200000000,0.000000000,0.800000000,0.000000000
1210.791000000,-0.000000590,-0.799990635,1.200001832,0.000009971,0.799990619,-0.000001132
1210.808000000,0.000000000,-0.800000000,1.200000000,0.000000000,0.800000000,0.000000000
1210.816000000,-0.000000590,-0.799990635,1.200001832,0.000009971,0.799990619,-0.000001132
1210.828000000,0.000000000,-0.800000000,1.200000000,0.000000000,0.800000000,0.000000000
1210.831000000,-0.000000590,-0.799990635,1.200001832,0.000009971,0.799990619,-0.000001132
1210.847000000,0.000000000,-0.800000000,1.200000000,0.000000000,0.800000000,0.000000000
1210.862000000,-0.000000590,-0.799990635,1.200001832,0.000009971,0.799990619,-0.000001132
1210.868000000,0.000000000,-0.800000000,1.200000000,0.000000000,0.800000000,0.000000000
1210.886000000,-0.000000590,-0.799990635,1.200001832,0.000009971,0.799990619,-0.000001132
1210.888000000,0.000000000,-0.800000000,1.200000000,0.000000000,0.800000000,0.000000000
1210.908000000,0.000000000,-0.800000000,1.200000000,0.000000000,0.800000000,0.000000000
1210.908000000,-0.000000590,-0.799990635,1.200001832,0.000009971,0.799990619,-0.000001132
1210.928000000,0.000000000,-0.800000000,1.200000000,0.000000000,0.800000000,0.000000000
1210.931000000,-0.000000590,-0.799990635,1.200001832,0.000009971,0.799990619,-0.000001132
1210.948000000,0.000000000,-0.800000000,1.200000000,0.000000000,0.800000000,0.000000000
1210.961000000,-0.000000590,-0.799990635,1.200001832,0.000009971,0.799990619,-0.000001132
1210.968000000,0.000000000,-0.800000000,1.200000000,0.000000000,0.800000000,0.000000000
1210.980000000,-0.000000590,-0.799990635,1.200001832,0.000009971,0.799990619,-0.000001132
1210.988000000,0.000000000,-0.800000000,1.200000000,0.000000000,0.800000000,0.000000000
1211.007000000,-0.000000590,-0.799990635,1.200001832,0.000009971,0.799990619,-0.000001132
1211.008000000,0.000000000,-0.800000000,1.200000000,0.000000000,0.800000000,0.000000000
1211.026000000,-0.000000590,-0.799990635,1.200001832,0.000009971,0.799990619,-0.000001132
1211.028000000,0.000000000,-0.800000000,1.200000000,0.000000000,0.800000000,0.000000000
1211.048000000,-0.000000590,-0.799990635,1.200001832,0.000009971,0.799990619,-0.000001132
1211.048000000,0.000000000,-0.800000000,1.200000000,0.000000000,0.800000000,0.000000000
1211.067000000,0.000000000,-0.800000000,1.200000000,0.000000000,0.800000000,0.000000000
1211.070000000,-0.000000590,-0.799990635,1.200001832,0.000009971,0.799990619,-0.000001132
1211.088000000,0.000000000,-0.800000000,1.200000000,0.000000000,0.800000000,0.000000000
1211.090000000,-0.000000590,-0.799990635,1.200001832,0.000009971,0.799990619,-0.000001132
1211.108000000,0.000000000,-0.800000000,1.200000000,0.000000000,0.800000000,0.000000000
1211.109000000,-0.000000590,-0.799990635,1.200001832,0.000009971,0.799990619,-0.000001132
1211.124000000,0.000000000,-0.800000000,1.200000000,0.000000000,0.800000000,0.000000000
1211.128000000,-0.000000590,-0.799990635,1.200001832,0.000009971,0.799990619,-0.000001132
1211.148000000,0.000000000,-0.800000000,1.200000000,0.000000000,0.800000000,0.000000000
1211.150000000,-0.000000590,-0.799990635,1.200001832,0.000009971,0.799990619,-0.000001132
1211.168000000,0.000000000,-0.800000000,1.200000000,0.000000000,0.800000000,0.000000000
1211.168000000,-0.000000590,-0.799990635,1.200001832,0.000009971,0.799990619,-0.000001132
1211.186000000,-0.000000590,-0.799990635,1.200001832,0.000009971,0.799990619,-0.000001132
1211.188000000,0.000000000,-0.800000000,1.200000000,0.000000000,0.800000000,0.000000000
1211.206000000,-0.000000590,-0.799990635,1.200001832,0.000009971,0.799990619,-0.000001132
1211.208000000,0.000000000,-0.800000000,1.200000000,0.000000000,0.800000000,0.000000000
1211.220000000,-0.000000590,-0.799990635,1.200001832,0.000009971,0.799990619,-0.000001132
1211.228000000,0.000000000,-0.800000000,1.200000000,0.000000000,0.800000000,0.000000000
1211.239000000,-0.000000590,-0.799990635,1.200001832,0.000009971,0.799990619,-0.000001132
1211.248000000,0.000000000,-0.800000000,1.200000000,0.000000000,0.800000000,0.000000000
1211.256000000,-0.000000590,-0.799990635,1.200001832,0.000009971,0.799990619,-0.000001132
1211.268000000,0.000000000,-0.800000000,1.200000000,0.000000000,0.800000000,0.000000000
1211.276000000,-0.000000590,-0.799990635,1.200001832,0.000009971,0.799990619,-0.000001132
1211.287000000,0.000000000,-0.800000000,1.200000000,0.000000000,0.800000000,0.000000000
1211.301000000,-0.000000590,-0.799990635,1.200001832,0.000009971,0.799990619,-0.000001132
1211.308000000,0.000000000,-0.800000000,1.200000000,0.000000000,0.800000000,0.000000000
1211.323000000,-0.000000590,-0.799990635,1.200001832,0.000009971,0.799990619,-0.000001132
1211.328000000,0.000000000,-0.800000000,1.200000000,0.000000000,0.800000000,0.000000000
1211.341000000,-0.000000590,-0.799990635,1.200001832,0.000009971,0.799990619,-0.000001132
1211.348000000,0.000000000,-0.800000000,1.200000000,0.000000000,0.800000000,0.000000000
1211.361000000,-0.000000590,-0.799990635,1.200001832,0.000009971,0.799990619,-0.000001132
1211.368000000,0.000000000,-0.800000000,1.200000000,0.000000000,0.800000000,0.000000000
1211.380000000,-0.000000590,-0.799990635,1.200001832,0.000009971,0.799990619,-0.000001132
1211.388000000,0.000000000,-0.800000000,1.200000000,0.000000000,0.800000000,0.000000000
1211.401000000,-0.000000590,-0.799990635,1.200001832,0.000009971,0.799990619,-0.000001132
1211.408000000,0.000000000,-0.800000000,1.200000000,0.000000000,0.800000000,0.000000000
1211.416000000,-0.000000590,-0.799990635,1.200001832,0.000009971,0.799990619,-0.000001132
1211.427000000,0.000000000,-0.800000000,1.200000000,0.000000000,0.800000000,0.000000000
1211.436000000,-0.000000590,-0.799990635,1.200001832,0.000009971,0.799990619,-0.000001132
1211.448000000,0.000000000,-0.800000000,1.200000000,0.000000000,0.800000000,0.000000000
1211.460000000,-0.000000590,-0.799990635,1.200001832,0.000009971,0.799990619,-0.000001132
1211.468000000,0.000000000,-0.800000000,1.200000000,0.000000000,0.800000000,0.000000000
1211.483000000,-0.000000590,-0.799990635,1.200001832,0.000009971,0.799990619,-0.000001132
1211.488000000,0.000000000,-0.800000000,1.200000000,0.000000000,0.800000000,0.000000000
1211.499000000,-0.000000590,-0.799990635,1.200001832,0.000009971,0.799990619,-0.000001132
1211.508000000,0.000000000,-0.800000000,1.200000000,0.000000000,0.800000000,0.000000000
1211.517000000,-0.000000590,-0.799990635,1.200001832,0.000009971,0.799990619,-0.000001132
1211.528000000,0.000000000,-0.800000000,1.200000000,0.000000000,0.800000000,0.000000000
1211.532000000,-0.000000590,-0.799990635,1.200001832,0.000009971,0.799990619,-0.000001132
1211.548000000,0.000000000,-0.800000000,1.200000000,0.000000000,0.800000000,0.000000000
1211.552000000,-0.000000590,-0.799990635,1.200001832,0.000009971,0.799990619,-0.000001132
1211.568000000,0.000000000,-0.800000000,1.200000000,0.000000000,0.800000000,0.000000000
1211.572000000,-0.000000590,-0.799990635,1.200001832,0.000009971,0.799990619,-0.000001132
1211.588000000,0.000000000,-0.800000000,1.200000000,0.000000000,0.800000000,0.000000000
1211.594000000,-0.000000590,-0.799990635,1.200001832,0.000009971,0.799990619,-0.000001132
1211.608000000,0.000000000,-0.800000000,1.200000000,0.000000000,0.800000000,0.000000000
1211.616000000,-0.000000590,-0.799990635,1.200001832,0.000009971,0.799990619,-0.000001132
1211.628000000,0.000000000,-0.800000000,1.200000000,0.000000000,0.800000000,0.000000000
1211.636000000,-0.000000590,-0.799990635,1.200001832,0.000009971,0.799990619,-0.000001132
1211.648000000,0.000000000,-0.800000000,1.200000000,0.000000000,0.800000000,0.000000000
1211.651000000,-0.000000590,-0.799990635,1.200001832,0.000009971,0.799990619,-0.000001132
1211.667000000,-0.000000590,-0.799990635,1.200001832,0.000009971,0.799990619,-0.000001132
1211.668000000,0.000000000,-0.800000000,1.200000000,0.000000000,0.800000000,0.000000000
1211.688000000,0.000000000,-0.800000000,1.200000000,0.000000000,0.800000000,0.000000000
1211.691000000,-0.000000590,-0.799990635,1.200001832,0.000009971,0.799990619,-0.000001132
1211.707000000,-0.000000590,-0.799990635,1.200001832,0.000009971,0.799990619,-0.000001132
1211.708000000,0.000000000,-0.800000000,1.200000000,0.000000000,0.800000000,0.000000000
1211.724000000,-0.000000590,-0.799990635,1.200001832,0.000009971,0.799990619,-0.000001132
1211.728000000,0.000000000,-0.800000000,1.200000000,0.000000000,0.800000000,0.000000000
1211.744000000,-0.000000590,-0.799990635,1.200001832,0.000009971,0.799990619,-0.000001132
1211.748000000,0.000000000,-0.800000000,1.200000000,0.000000000,0.800000000,0.000000000
1211.762000000,-0.000000590,-0.799990635,1.200001832,0.000009971,0.799990619,-0.000001132
1211.768000000,0.000000000,-0.800000000,1.200000000,0.000000000,0.800000000,0.000000000
1211.782000000,-0.000000590,-0.799990635,1.200001832,0.000009971,0.799990619,-0.000001132
1211.788000000,0.000000000,-0.800000000,1.200000000,0.000000000,0.800000000,0.000000000
1211.798000000,-0.000000590,-0.799990635,1.200001832,0.000009971,0.799990619,-0.000001132
1211.807000000,0.000000000,-0.800000000,1.200000000,0.000000000,0.800000000,0.000000000
1211.820000000,-0.000000590,-0.799990635,1.200001832,0.000009971,0.799990619,-0.000001132
1211.828000000,0.000000000,-0.800000000,1.200000000,0.000000000,0.800000000,0.000000000
1211.837000000,-0.000000590,-0.799990635,1.200001832,0.000009971,0.799990619,-0.000001132
1211.848000000,0.000000000,-0.800000000,1.200000000,0.000000000,0.800000000,0.000000000
1211.857000000,-0.000000590,-0.799990635,1.200001832,0.000009971,0.799990619,-0.000001132
1211.868000000,0.000000000,-0.800000000,1.200000000,0.000000000,0.800000000,0.000000000
1211.873000000,-0.000000590,-0.799990635,1.200001832,0.000009971,0.799990619,-0.000001132
1211.888000000,0.000000000,-0.800000000,1.200000000,0.000000000,0.800000000,0.000000000
1211.895000000,-0.000000590,-0.799990635,1.200001832,0.000009971,0.799990619,-0.000001132
1211.908000000,0.000000000,-0.800000000,1.200000000,0.000000000,0.800000000,0.000000000
1211.916000000,-0.000000590,-0.799990635,1.200001832,0.000009971,0.799990619,-0.000001132
1211.928000000,0.000000000,-0.800000000,1.200000000,0.000000000,0.800000000,0.000000000
1211.945000000,-0.000000590,-0.799990635,1.200001832,0.000009971,0.799990619,-0.000001132
1211.948000000,0.000000000,-0.800000000,1.200000000,0.000000000,0.800000000,0.000000000
1211.965000000,-0.000000590,-0.799990635,1.200001832,0.000009971,0.799990619,-0.000001132
1211.968000000,0.000000000,-0.800000000,1.200000000,0.000000000,0.800000000,0.000000000
1211.987000000,-0.000000590,-0.799990635,1.200001832,0.000009971,0.799990619,-0.000001132
1211.987000000,0.000000000,-0.800000000,1.200000000,0.000000000,0.800000000,0.000000000
1212.007000000,-0.000000590,-0.799990635,1.200001832,0.000009971,0.799990619,-0.000001132
1212.007000000,0.000000000,-0.800000000,1.200000000,0.000000000,0.800000000,0.000000000
1212.027000000,-0.000000590,-0.799990635,1.200001832,0.000009971,0.799990619,-0.000001132
1212.028000000,0.000000000,-0.800000000,1.200000000,0.000000000,0.800000000,0.000000000
1212.046000000,-0.000000590,-0.799990635,1.200001832,0.000009971,0.799990619,-0.000001132
1212.048000000,0.000000000,-0.800000000,1.200000000,0.000000000,0.800000000,0.000000000
1212.066000000,-0.000000590,-0.799990635,1.200001832,0.000009971,0.799990619,-0.000001132
1212.068000000,0.000000000,-0.800000000,1.200000000,0.000000000,0.800000000,0.000000000
1212.080000000,-0.000000590,-0.799990635,1.200001832,0.000009971,0.799990619,-0.000001132
1212.088000000,0.000000000,-0.800000000,1.200000000,0.000000000,0.800000000,0.000000000
1212.105000000,-0.000000590,-0.799990635,1.200001832,0.000009971,0.799990619,-0.000001132
1212.108000000,0.000000000,-0.800000000,1.200000000,0.000000000,0.800000000,0.000000000
1212.126000000,-0.000000590,-0.799990635,1.200001832,0.000009971,0.799990619,-0.000001132
1212.127000000,0.000000000,-0.800000000,1.200000000,0.000000000,0.800000000,0.000000000
1212.146000000,-0.000000590,-0.799990635,1.200001832,0.000009971,0.799990619,-0.000001132
1212.147000000,0.000000000,-0.800000000,1.200000000,0.000000000,0.800000000,0.000000000
1212.168000000,0.000000000,-0.800000000,1.200000000,0.000000000,0.800000000,0.000000000
1212.168000000,-0.000000590,-0.799990635,1.200001832,0.000009971,0.799990619,-0.000001132
1212.188000000,0.000000000,-0.800000000,1.200000000,0.000000000,0.800000000,0.000000000
1212.193000000,-0.000000590,-0.799990635,1.200001832,0.000009971,0.799990619,-0.000001132
1212.208000000,0.000000000,-0.800000000,1.200000000,0.000000000,0.800000000,0.000000000
1212.217000000,-0.000000590,-0.799990635,1.200001832,0.000009971,0.799990619,-0.000001132
1212.228000000,0.000000000,-0.800000000,1.200000000,0.000000000,0.800000000,0.000000000
1212.238000000,-0.000000590,-0.799990635,1.200001832,0.000009971,0.799990619,-0.000001132
1212.248000000,0.000000000,-0.800000000,1.200000000,0.000000000,0.800000000,0.000000000
1212.259000000,-0.000000590,-0.799990635,1.200001832,0.000009971,0.799990619,-0.000001132
1212.268000000,0.000000000,-0.800000000,1.200000000,0.000000000,0.800000000,0.000000000
1212.279000000,-0.000000590,-0.799990635,1.200001832,0.000009971,0.799990619,-0.000001132
1212.288000000,0.000000000,-0.800000000,1.200000000,0.000000000,0.800000000,0.000000000
1212.301000000,-0.000000590,-0.799990635,1.200001832,0.000009971,0.799990619,-0.000001132
1212.308000000,0.000000000,-0.800000000,1.200000000,0.000000000,0.800000000,0.000000000
1212.318000000,-0.000000590,-0.799990635,1.200001832,0.000009971,0.799990619,-0.000001132
1212.328000000,0.000000000,-0.800000000,1.200000000,0.000000000,0.800000000,0.000000000
1212.337000000,-0.000000590,-0.799990635,1.200001832,0.000009971,0.799990619,-0.000001132
1212.348000000,0.000000000,-0.800000000,1.200000000,0.000000000,0.800000000,0.000000000
1212.359000000,-0.000000590,-0.799990635,1.200001832,0.000009971,0.799990619,-0.000001132
1212.368000000,0.000000000,-0.800000000,1.200000000,0.000000000,0.800000000,0.000000000
1212.375000000,-0.000000590,-0.799990635,1.200001832,0.000009971,0.799990619,-0.000001132
1212.388000000,0.000000000,-0.800000000,1.200000000,0.000000000,0.800000000,0.000000000
1212.394000000,-0.000000590,-0.799990635,1.200001832,0.000009971,0.799990619,-0.000001132
1212.408000000,0.000000000,-0.800000000,1.200000000,0.000000000,0.800000000,0.000000000
1212.418000000,-0.000000590,-0.799990635,1.200001832,0.000009971,0.799990619,-0.000001132
1212.428000000,0.000000000,-0.800000000,1.200000000,0.000000000,0.800000000,0.000000000
1212.436000000,-0.000000590,-0.799990635,1.200001832,0.000009971,0.799990619,-0.000001132
1212.448000000,0.000000000,-0.800000000,1.200000000,0.000000000,0.800000000,0.000000000
1212.458000000,-0.000000590,-0.799990635,1.200001832,0.000009971,0.799990619,-0.000001132
1212.468000000,0.000000000,-0.800000000,1.200000000,0.000000000,0.800000000,0.000000000
1212.482000000,-0.000000590,-0.799990635,1.200001832,0.000009971,0.799990619,-0.000001132
1212.488000000,0.000000000,-0.800000000,1.200000000,0.000000000,0.800000000,0.000000000
1212.503000000,-0.000000590,-0.799990635,1.200001832,0.000009971,0.799990619,-0.000001132
1212.508000000,0.000000000,-0.800000000,1.200000000,0.000000000,0.800000000,0.000000000
1212.527000000,-0.000000590,-0.799990635,1.200001832,0.000009971,0.799990619,-0.000001132
1212.527000000,0.000000000,-0.800000000,1.200000000,0.000000000,0.800000000,0.000000000
1212.548000000,0.000000000,-0.800000000,1.200000000,0.000000000,0.800000000,0.000000000
1212.549000000,-0.000000590,-0.799990635,1.200001832,0.000009971,0.799990619,-0.000001132
1212.568000000,0.000000000,-0.800000000,1.200000000,0.000000000,0.800000000,0.000000000
1212.569000000,-0.000000590,-0.799990635,1.200001832,0.000009971,0.799990619,-0.000001132
1212.587000000,-0.000000590,-0.799990635,1.200001832,0.000009971,0.799990619,-0.000001132
1212.588000000,0.000000000,-0.800000000,1.200000000,0.000000000,0.800000000,0.000000000
1212.608000000,0.000000000,-0.800000000,1.200000000,0.000000000,0.800000000,0.000000000
1212.608000000,-0.000000590,-0.799990635,1.200001832,0.000009971,0.799990619,-0.000001132
1212.627000000,0.000000000,-0.800000000,1.200000000,0.000000000,0.800000000,0.000000000
1212.628000000,-0.000000590,-0.799990635,1.200001832,0.000009971,0.799990619,-0.000001132
1212.645000000,-0.000000590,-0.799990635,1.200001832,0.000009971,0.799990619,-0.000001132
1212.648000000,0.000000000,-0.800000000,1.200000000,0.000000000,0.800000000,0.000000000
1212.664000000,-0.000000590,-0.799990635,1.200001832,0.000009971,0.799990619,-0.000001132
1212.668000000,0.000000000,-0.800000000,1.200000000,0.000000000,0.800000000,0.000000000
1212.685000000,-0.000000590,-0.799990635,1.200001832,0.000009971,0.799990619,-0.000001132
1212.688000000,0.000000000,-0.800000000,1.200000000,0.000000000,0.800000000,0.000000000
1212.707000000,-0.000000590,-0.799990635,1.200001832,0.000009971,0.799990619,-0.000001132
1212.708000000,0.000000000,-0.800000000,1.200000000,0.000000000,0.800000000,0.000000000
1212.725000000,-0.000000590,-0.799990635,1.200001832,0.000009971,0.799990619,-0.000001132
1212.728000000,0.000000000,-0.800000000,1.200000000,0.000000000,0.800000000,0.000000000
1212.748000000,0.000000000,-0.800000000,1.200000000,0.000000000,0.800000000,0.000000000
1212.752000000,-0.000000590,-0.799990635,1.200001832,0.000009971,0.799990619,-0.000001132
1212.767000000,0.000000000,-0.800000000,1.200000000,0.000000000,0.800000000,0.000000000
1212.776000000,-0.000000590,-0.799990635,1.200001832,0.000009971,0.799990619,-0.000001132
1212.788000000,0.000000000,-0.800000000,1.200000000,0.000000000,0.800000000,0.000000000
1212.795000000,-0.000000590,-0.799990635,1.200001832,0.000009971,0.799990619,-0.000001132
1212.808000000,0.000000000,-0.800000000,1.200000000,0.000000000,0.800000000,0.000000000
1212.826000000,-0.000000590,-0.799990635,1.200001832,0.000009971,0.799990619,-0.000001132
1212.828000000,0.000000000,-0.800000000,1.200000000,0.000000000,0.800000000,0.000000000
1212.847000000,-0.000000590,-0.799990635,1.200001832,0.000009971,0.799990619,-0.000001132
1212.848000000,0.000000000,-0.800000000,1.200000000,0.000000000,0.800000000,0.000000000
1212.868000000,0.000000000,-0.800000000,1.200000000,0.000000000,0.800000000,0.000000000
1212.870000000,-0.000000590,-0.799990635,1.200001832,0.000009971,0.799990619,-0.000001132
1212.888000000,0.000000000,-0.800000000,1.200000000,0.000000000,0.800000000,0.000000000
1212.892000000,-0.000000590,-0.799990635,1.200001832,0.000009971,0.799990619,-0.000001132
1212.908000000,0.000000000,-0.800000000,1.200000000,0.000000000,0.800000000,0.000000000
1212.917000000,-0.000000590,-0.799990635,1.200001832,0.000009971,0.799990619,-0.000001132
1212.928000000,0.000000000,-0.800000000,1.200000000,0.000000000,0.800000000,0.000000000
1212.940000000,-0.000000590,-0.799990635,1.200001832,0.000009971,0.799990619,-0.000001132
1212.948000000,0.000000000,-0.800000000,1.200000000,0.000000000,0.800000000,0.000000000
1212.959000000,-0.000000590,-0.799990635,1.200001832,0.000009971,0.799990619,-0.000001132
1212.968000000,0.000000000,-0.800000000,1.200000000,0.000000000,0.800000000,0.000000000
1212.977000000,-0.000000590,-0.799990635,1.200001832,0.000009971,0.799990619,-0.000001132
1212.988000000,0.000000000,-0.800000000,1.200000000,0.000000000,0.800000000,0.000000000
1213.000000000,-0.000000590,-0.799990635,1.200001832,0.000009971,0.799990619,-0.000001132
1213.008000000,0.000000000,-0.800000000,1.200000000,0.000000000,0.800000000,0.000000000
1213.027000000,-0.000000590,-0.799990635,1.200001832,0.000009971,0.799990619,-0.000001132
1213.027000000,0.000000000,-0.800000000,1.200000000,0.000000000,0.800000000,0.000000000
1213.043000000,-0.000000590,-0.799990635,1.200001832,0.000009971,0.799990619,-0.000001132
1213.048000000,0.000000000,-0.800000000,1.200000000,0.000000000,0.800000000,0.000000000
1213.059000000,-0.000000590,-0.799990635,1.200001832,0.000009971,0.799990619,-0.000001132
1213.068000000,0.000000000,-0.800000000,1.200000000,0.000000000,0.800000000,0.000000000
1213.082000000,-0.000000590,-0.799990635,1.200001832,0.000009971,0.799990619,-0.000001132
1213.088000000,0.000000000,-0.800000000,1.200000000,0.000000000,0.800000000,0.000000000
1213.105000000,-0.000000590,-0.799990635,1.200001832,0.000009971,0.799990619,-0.000001132
1213.108000000,0.000000000,-0.800000000,1.200000000,0.000000000,0.800000000,0.000000000
1213.126000000,-0.000000590,-0.799990635,1.200001832,0.000009971,0.799990619,-0.000001132
1213.127000000,0.000000000,-0.800000000,1.200000000,0.000000000,0.800000000,0.000000000
1213.142000000,-0.000000590,-0.799990635,1.200001832,0.000009971,0.799990619,-0.000001132
1213.148000000,0.000000000,-0.800000000,1.200000000,0.000000000,0.800000000,0.000000000
1213.161000000,-0.000000590,-0.799990635,1.200001832,0.000009971,0.799990619,-0.000001132
1213.168000000,0.000000000,-0.800000000,1.200000000,0.000000000,0.800000000,0.000000000
1213.179000000,-0.000000590,-0.799990635,1.200001832,0.000009971,0.799990619,-0.000001132
1213.187000000,0.000000000,-0.800000000,1.200000000,0.000000000,0.800000000,0.000000000
1213.198000000,-0.000000590,-0.799990635,1.200001832,0.000009971,0.799990619,-0.000001132
1213.208000000,0.000000000,-0.800000000,1.200000000,0.000000000,0.800000000,0.000000000
1213.220000000,-0.000000590,-0.799990635,1.200001832,0.000009971,0.799990619,-0.000001132
1213.228000000,0.000000000,-0.800000000,1.200000000,0.000000000,0.800000000,0.000000000
1213.240000000,-0.000000590,-0.799990635,1.200001832,0.000009971,0.799990619,-0.000001132
1213.247000000,0.000000000,-0.800000000,1.200000000,0.000000000,0.800000000,0.000000000
1213.260000000,-0.000000590,-0.799990635,1.200001832,0.000009971,0.799990619,-0.000001132
1213.268000000,0.000000000,-0.800000000,1.200000000,0.000000000,0.800000000,0.000000000
1213.288000000,0.000000000,-0.800000000,1.200000000,0.000000000,0.800000000,0.000000000
1213.292000000,-0.000000590,-0.799990635,1.200001832,0.000009971,0.799990619,-0.000001132
1213.308000000,0.000000000,-0.800000000,1.200000000,0.000000000,0.800000000,0.000000000
1213.310000000,-0.000000590,-0.799990635,1.200001832,0.000009971,0.799990619,-0.000001132
1213.328000000,0.000000000,-0.800000000,1.200000000,0.000000000,0.800000000,0.000000000
1213.330000000,-0.000000590,-0.799990635,1.200001832,0.000009971,0.799990619,-0.000001132
1213.348000000,0.000000000,-0.800000000,1.200000000,0.000000000,0.800000000,0.000000000
1213.349000000,-0.000000590,-0.799990635,1.200001832,0.000009971,0.799990619,-0.000001132
1213.366000000,-0.000000590,-0.799990635,1.200001832,0.000009971,0.799990619,-0.000001132
1213.368000000,0.000000000,-0.800000000,1.200000000,0.000000000,0.800000000,0.000000000
1213.386000000,-0.000000590,-0.799990635,1.200001832,0.000009971,0.799990619,-0.000001132
1213.386000000,0.000000000,-0.800000000,1.200000000,0.000000000,0.800000000,0.000000000
1213.406000000,-0.000000590,-0.799990635,1.200001832,0.000009971,0.799990619,-0.000001132
1213.408000000,0.000000000,-0.800000000,1.200000000,0.000000000,0.800000000,0.000000000
1213.422000000,-0.000000590,-0.799990635,1.200001832,0.000009971,0.799990619,-0.000001132
1213.428000000,0.000000000,-0.800000000,1.200000000,0.000000000,0.800000000,0.000000000
1213.443000000,-0.000000590,-0.799990635,1.200001832,0.000009971,0.799990619,-0.000001132
1213.448000000,0.000000000,-0.800000000,1.200000000,0.000000000,0.800000000,0.000000000
1213.466000000,-0.000000590,-0.799990635,1.200001832,0.000009971,0.799990619,-0.000001132
1213.467000000,0.000000000,-0.800000000,1.200000000,0.000000000,0.800000000,0.000000000
1213.488000000,0.000000000,-0.800000000,1.200000000,0.000000000,0.800000000,0.000000000
1213.491000000,-0.000000590,-0.799990635,1.200001832,0.000009971,0.799990619,-0.000001132
1213.508000000,0.000000000,-0.800000000,1.200000000,0.000000000,0.800000000,0.000000000
1213.513000000,-0.000000590,-0.799990635,1.200001832,0.000009971,0.799990619,-0.000001132
1213.528000000,0.000000000,-0.800000000,1.200000000,0.000000000,0.800000000,0.000000000
1213.537000000,-0.000000590,-0.799990635,1.200001832,0.000009971,0.799990619,-0.000001132
1213.548000000,0.000000000,-0.800000000,1.200000000,0.000000000,0.800000000,0.000000000
1213.559000000,-0.000000590,-0.799990635,1.200001832,0.000009971,0.799990619,-0.000001132
1213.568000000,0.000000000,-0.800000000,1.200000000,0.000000000,0.800000000,0.000000000
1213.576000000,-0.000000590,-0.799990635,1.200001832,0.000009971,0.799990619,-0.000001132
1213.588000000,0.000000000,-0.800000000,1.200000000,0.000000000,0.800000000,0.000000000
1213.597000000,-0.000000590,-0.799990635,1.200001832,0.000009971,0.799990619,-0.000001132
1213.608000000,0.000000000,-0.800000000,1.200000000,0.000000000,0.800000000,0.000000000
1213.616000000,-0.000000590,-0.799990635,1.200001832,0.000009971,0.799990619,-0.000001132
1213.628000000,0.000000000,-0.800000000,1.200000000,0.000000000,0.800000000,0.000000000
1213.636000000,-0.000000590,-0.799990635,1.200001832,0.000009971,0.799990619,-0.000001132
1213.648000000,0.000000000,-0.800000000,1.200000000,0.000000000,0.800000000,0.000000000
1213.651000000,-0.000000590,-0.799990635,1.200001832,0.000009971,0.799990619,-0.000001132
1213.668000000,0.000000000,-0.800000000,1.200000000,0.000000000,0.800000000,0.000000000
1213.674000000,-0.000000590,-0.799990635,1.200001832,0.000009971,0.799990619,-0.000001132
1213.685000000,-0.000000590,-0.799990635,1.200001832,0.000009971,0.799990619,-0.000001132
1213.688000000,0.000000000,-0.800000000,1.200000000,0.000000000,0.800000000,0.000000000
1213.706000000,-0.000000590,-0.799990635,1.200001832,0.000009971,0.799990619,-0.000001132
1213.708000000,0.000000000,-0.800000000,1.200000000,0.000000000,0.800000000,0.000000000
1213.724000000,-0.000000590,-0.799990635,1.200001832,0.000009971,0.799990619,-0.000001132
1213.728000000,0.000000000,-0.800000000,1.200000000,0.000000000,0.800000000,0.000000000
1213.747000000,-0.000000590,-0.799990635,1.200001832,0.000009971,0.799990619,-0.000001132
1213.748000000,0.000000000,-0.800000000,1.200000000,0.000000000,0.800000000,0.000000000
1213.768000000,0.000000000,-0.800000000,1.200000000,0.000000000,0.800000000,0.000000000
1213.774000000,-0.000000590,-0.799990635,1.200001832,0.000009971,0.799990619,-0.000001132
1213.788000000,0.000000000,-0.800000000,1.200000000,0.000000000,0.800000000,0.000000000
1213.788000000,-0.000000590,-0.799990635,1.200001832,0.000009971,0.799990619,-0.000001132
1213.808000000,0.000000000,-0.800000000,1.200000000,0.000000000,0.800000000,0.000000000
1213.810000000,-0.000000590,-0.799990635,1.200001832,0.000009971,0.799990619,-0.000001132
1213.828000000,0.000000000,-0.800000000,1.200000000,0.000000000,0.800000000,0.000000000
1213.836000000,-0.000000590,-0.799990635,1.200001832,0.000009971,0.799990619,-0.000001132
1213.848000000,0.000000000,-0.800000000,1.200000000,0.000000000,0.800000000,0.000000000
1213.853000000,-0.000000590,-0.799990635,1.200001832,0.000009971,0.799990619,-0.000001132
1213.868000000,0.000000000,-0.800000000,1.200000000,0.000000000,0.800000000,0.000000000
1213.876000000,-0.000000590,-0.799990635,1.200001832,0.000009971,0.799990619,-0.000001132
1213.888000000,0.000000000,-0.800000000,1.200000000,0.000000000,0.800000000,0.000000000
1213.894000000,-0.000000590,-0.799990635,1.200001832,0.000009971,0.799990619,-0.000001132
1213.908000000,0.000000000,-0.800000000,1.200000000,0.000000000,0.800000000,0.000000000
1213.916000000,-0.000000590,-0.799990635,1.200001832,0.000009971,0.799990619,-0.000001132
1213.928000000,0.000000000,-0.800000000,1.200000000,0.000000000,0.800000000,0.000000000
1213.937000000,-0.000000590,-0.799990635,1.200001832,0.000009971,0.799990619,-0.000001132
1213.947000000,0.000000000,-0.800000000,1.200000000,0.000000000,0.800000000,0.000000000
1213.956000000,-0.000000590,-0.799990635,1.200001832,0.000009971,0.799990619,-0.000001132
1213.968000000,0.000000000,-0.800000000,1.200000000,0.000000000,0.800000000,0.000000000
1213.976000000,-0.000000590,-0.799990635,1.200001832,0.000009971,0.799990619,-0.000001132
1213.987000000,0.000000000,-0.800000000,1.200000000,0.000000000,0.800000000,0.000000000
1213.998000000,-0.000000590,-0.799990635,1.200001832,0.000009971,0.799990619,-0.000001132
1214.008000000,0.000000000,-0.800000000,1.200000000,0.000000000,0.800000000,0.000000000
1214.017000000,-0.000000590,-0.799990635,1.200001832,0.000009971,0.799990619,-0.000001132
1214.028000000,0.000000000,-0.800000000,1.200000000,0.000000000,0.800000000,0.000000000
1214.035000000,-0.000000590,-0.799990635,1.200001832,0.000009971,0.799990619,-0.000001132
1214.048000000,0.000000000,-0.800000000,1.200000000,0.000000000,0.800000000,0.000000000
1214.059000000,-0.000000590,-0.799990635,1.200001832,0.000009971,0.799990619,-0.000001132
1214.068000000,0.000000000,-0.800000000,1.200000000,0.000000000,0.800000000,0.000000000
1214.072000000,-0.000000590,-0.799990635,1.200001832,0.000009971,0.799990619,-0.000001132
1214.087000000,0.000000000,-0.800000000,1.200000000,0.000000000,0.800000000,0.000000000
1214.095000000,-0.000000590,-0.799990635,1.200001832,0.000009971,0.799990619,-0.000001132
1214.108000000,0.000000000,-0.800000000,1.200000000,0.000000000,0.800000000,0.000000000
1214.120000000,-0.000000590,-0.799990635,1.200001832,0.000009971,0.799990619,-0.000001132
1214.128000000,0.000000000,-0.800000000,1.200000000,0.000000000,0.800000000,0.000000000
1214.140000000,-0.000000590,-0.799990635,1.200001832,0.000009971,0.799990619,-0.000001132
1214.147000000,0.000000000,-0.800000000,1.200000000,0.000000000,0.800000000,0.000000000
1214.160000000,-0.000000590,-0.799990635,1.200001832,0.000009971,0.799990619,-0.000001132
1214.168000000,0.000000000,-0.800000000,1.200000000,0.000000000,0.800000000,0.000000000
1214.178000000,-0.000000590,-0.799990635,1.200001832,0.000009971,0.799990619,-0.000001132
1214.188000000,0.000000000,-0.800000000,1.200000000,0.000000000,0.800000000,0.000000000
1214.196000000,-0.000000590,-0.799990635,1.200001832,0.000009971,0.799990619,-0.000001132
1214.208000000,0.000000000,-0.800000000,1.200000000,0.000000000,0.800000000,0.000000000
1214.218000000,-0.000000590,-0.799990635,1.200001832,0.000009971,0.799990619,-0.000001132
1214.226000000,0.000000000,-0.800000000,1.200000000,0.000000000,0.800000000,0.000000000
1214.236000000,-0.000000590,-0.799990635,1.200001832,0.000009971,0.799990619,-0.000001132
1214.248000000,0.000000000,-0.800000000,1.200000000,0.000000000,0.800000000,0.000000000
1214.260000000,-0.000000590,-0.799990635,1.200001832,0.000009971,0.799990619,-0.000001132
1214.268000000,0.000000000,-0.800000000,1.200000000,0.000000000,0.800000000,0.000000000
1214.275000000,-0.000000590,-0.799990635,1.200001832,0.000009971,0.799990619,-0.000001132
1214.288000000,0.000000000,-0.800000000,1.200000000,0.000000000,0.800000000,0.000000000
1214.299000000,-0.000000590,-0.799990635,1.200001832,0.000009971,0.799990619,-0.000001132
1214.308000000,0.000000000,-0.800000000,1.200000000,0.000000000,0.800000000,0.000000000
1214.317000000,-0.000000590,-0.799990635,1.200001832,0.000009971,0.799990619,-0.000001132
1214.328000000,0.000000000,-0.800000000,1.200000000,0.000000000,0.800000000,0.000000000
1214.334000000,-0.000000590,-0.799990635,1.200001832,0.000009971,0.799990619,-0.000001132
1214.342000000,0.000000000,-0.800000000,1.200000000,0.000000000,0.800000000,0.000000000
1214.356000000,-0.000000590,-0.799990635,1.200001832,0.000009971,0.799990619,-0.000001132
1214.368000000,0.000000000,-0.800000000,1.200000000,0.000000000,0.800000000,0.000000000
1214.375000000,-0.000000590,-0.799990635,1.200001832,0.000009971,0.799990619,-0.000001132
1214.388000000,0.000000000,-0.800000000,1.200000000,0.000000000,0.800000000,0.000000000
1214.396000000,-0.000000590,-0.799990635,1.200001832,0.000009971,0.799990619,-0.000001132
1214.408000000,0.000000000,-0.800000000,1.200000000,0.000000000,0.800000000,0.000000000
1214.417000000,-0.000000590,-0.799990635,1.200001832,0.000009971,0.799990619,-0.000001132
1214.428000000,0.000000000,-0.800000000,1.200000000,0.000000000,0.800000000,0.000000000
1214.438000000,-0.000000590,-0.799990635,1.200001832,0.000009971,0.799990619,-0.000001132
1214.447000000,0.000000000,-0.800000000,1.200000000,0.000000000,0.800000000,0.000000000
1214.463000000,-0.000000590,-0.799990635,1.200001832,0.000009971,0.799990619,-0.000001132
1214.468000000,0.000000000,-0.800000000,1.200000000,0.000000000,0.800000000,0.000000000
1214.482000000,-0.000000590,-0.799990635,1.200001832,0.000009971,0.799990619,-0.000001132
